(.../Personal Projects/pcb-gcode/pcb-gcode.ulp)
(Copyright 2005 - 2012 by John Johnson)
(See readme.txt for licensing terms.)
(This file generated from the board:)
(.../esp01-4xMosFET/Mosfetboard.brd)
(Current profile is .../pcb-gcode/profiles/generic.pp  )
(This file generated 1/1/19 4:07 PM)
(Settings from pcb-machine.h)
(spindle on time = 0.5000)
(  Tool Size)
(0.1800 )
(spindle speed = 30000.0000)
(tool change at 0.0000 0.0000 10.0000 )
(feed rate xy = F230.00 )
(feed rate z  = F100.00 )
(Z Axis Settings)
(  High     Up        Down     Drill)
(10.0000 	2.5400 	-0.1200 	-3.0000 )
(Settings from pcb-defaults.h)
(isolate min = 0.0254)
(isolate max = 0.4000)
(isolate step = 0.1400)
(Generated top outlines, top drill, bottom outlines, bottom drill, )
(Unit of measure: mm)
(Metric Mode)
G21
(Absolute Coordinates)
G90
S30000
G00 Z10.0000 
G00 X0.0000 Y0.0000 
M03
G04 P0.500000
G00 Z2.5400 
G00 X2.3665 Y4.5207 
G01 Z-0.1200 F100.00 
G01 X2.4887 Y4.3985 F230.00 
G01 X2.6324 Y4.3025 
G01 X2.7921 Y4.2363 
G01 X2.9616 Y4.2026 
G01 X4.6584 Y4.2026 
G01 X4.8279 Y4.2363 
G01 X4.9876 Y4.3025 
G01 X5.1313 Y4.3985 
G01 X5.2535 Y4.5207 
G01 X5.3495 Y4.6644 
G01 X5.4157 Y4.8241 
G01 X5.4494 Y4.9936 
G01 X5.4494 Y5.1664 
G01 X5.4157 Y5.3359 
G01 X5.3495 Y5.4956 
G01 X5.2535 Y5.6393 
G01 X5.1313 Y5.7615 
G01 X4.9876 Y5.8575 
G01 X4.8279 Y5.9237 
G01 X4.6584 Y5.9574 
G01 X2.9616 Y5.9574 
G01 X2.7921 Y5.9237 
G01 X2.6324 Y5.8575 
G01 X2.4887 Y5.7615 
G01 X2.3665 Y5.6393 
G01 X2.2705 Y5.4956 
G01 X2.2043 Y5.3359 
G01 X2.1706 Y5.1664 
G01 X2.1706 Y4.9936 
G01 X2.2043 Y4.8241 
G01 X2.2705 Y4.6644 
G01 X2.3665 Y4.5207 
G00 Z2.5400 
G00 X2.3665 Y7.0607 
G01 Z-0.1200 F100.00 
G01 X2.4887 Y6.9385 F230.00 
G01 X2.6324 Y6.8425 
G01 X2.7921 Y6.7763 
G01 X2.9616 Y6.7426 
G01 X4.6584 Y6.7426 
G01 X4.8279 Y6.7763 
G01 X4.9876 Y6.8425 
G01 X5.1313 Y6.9385 
G01 X5.2535 Y7.0607 
G01 X5.3495 Y7.2044 
G01 X5.4157 Y7.3641 
G01 X5.4494 Y7.5336 
G01 X5.4494 Y7.7064 
G01 X5.4157 Y7.8759 
G01 X5.3495 Y8.0356 
G01 X5.2535 Y8.1793 
G01 X5.1313 Y8.3015 
G01 X4.9876 Y8.3975 
G01 X4.8279 Y8.4637 
G01 X4.6584 Y8.4974 
G01 X2.9616 Y8.4974 
G01 X2.7921 Y8.4637 
G01 X2.6324 Y8.3975 
G01 X2.4887 Y8.3015 
G01 X2.3665 Y8.1793 
G01 X2.2705 Y8.0356 
G01 X2.2043 Y7.8759 
G01 X2.1706 Y7.7064 
G01 X2.1706 Y7.5336 
G01 X2.2043 Y7.3641 
G01 X2.2705 Y7.2044 
G01 X2.3665 Y7.0607 
G00 Z2.5400 
G00 X2.3665 Y13.4107 
G01 Z-0.1200 F100.00 
G01 X2.4887 Y13.2885 F230.00 
G01 X2.6324 Y13.1925 
G01 X2.7921 Y13.1263 
G01 X2.9616 Y13.0926 
G01 X4.6584 Y13.0926 
G01 X4.8279 Y13.1263 
G01 X4.9876 Y13.1925 
G01 X5.1313 Y13.2885 
G01 X5.2535 Y13.4107 
G01 X5.3495 Y13.5544 
G01 X5.4157 Y13.7141 
G01 X5.4494 Y13.8836 
G01 X5.4494 Y14.0564 
G01 X5.4157 Y14.2259 
G01 X5.3495 Y14.3856 
G01 X5.2535 Y14.5293 
G01 X5.1313 Y14.6515 
G01 X4.9876 Y14.7475 
G01 X4.8279 Y14.8137 
G01 X4.6584 Y14.8474 
G01 X2.9616 Y14.8474 
G01 X2.7921 Y14.8137 
G01 X2.6324 Y14.7475 
G01 X2.4887 Y14.6515 
G01 X2.3665 Y14.5293 
G01 X2.2705 Y14.3856 
G01 X2.2043 Y14.2259 
G01 X2.1706 Y14.0564 
G01 X2.1706 Y13.8836 
G01 X2.2043 Y13.7141 
G01 X2.2705 Y13.5544 
G01 X2.3665 Y13.4107 
G00 Z2.5400 
G00 X2.3665 Y15.9507 
G01 Z-0.1200 F100.00 
G01 X2.4887 Y15.8285 F230.00 
G01 X2.6324 Y15.7325 
G01 X2.7921 Y15.6663 
G01 X2.9616 Y15.6326 
G01 X4.6584 Y15.6326 
G01 X4.8279 Y15.6663 
G01 X4.9876 Y15.7325 
G01 X5.1313 Y15.8285 
G01 X5.2535 Y15.9507 
G01 X5.3495 Y16.0944 
G01 X5.4157 Y16.2541 
G01 X5.4494 Y16.4236 
G01 X5.4494 Y16.5964 
G01 X5.4157 Y16.7659 
G01 X5.3495 Y16.9256 
G01 X5.2535 Y17.0693 
G01 X5.1313 Y17.1915 
G01 X4.9876 Y17.2875 
G01 X4.8279 Y17.3537 
G01 X4.6584 Y17.3874 
G01 X2.9616 Y17.3874 
G01 X2.7921 Y17.3537 
G01 X2.6324 Y17.2875 
G01 X2.4887 Y17.1915 
G01 X2.3665 Y17.0693 
G01 X2.2705 Y16.9256 
G01 X2.2043 Y16.7659 
G01 X2.1706 Y16.5964 
G01 X2.1706 Y16.4236 
G01 X2.2043 Y16.2541 
G01 X2.2705 Y16.0944 
G01 X2.3665 Y15.9507 
G00 Z2.5400 
G00 X5.7556 Y18.4236 
G01 Z-0.1200 F100.00 
G01 X5.7556 Y2.8264 F230.00 
G01 X5.7808 Y2.7324 
G01 X5.8294 Y2.6482 
G01 X5.8982 Y2.5794 
G01 X5.9824 Y2.5308 
G01 X6.0764 Y2.5056 
G01 X9.2632 Y2.5056 
G01 X9.3041 Y2.3797 
G01 X9.3963 Y2.1987 
G01 X9.5157 Y2.0344 
G01 X9.6594 Y1.8907 
G01 X9.8237 Y1.7713 
G01 X10.0047 Y1.6791 
G01 X10.1978 Y1.6164 
G01 X10.3984 Y1.5846 
G01 X10.6016 Y1.5846 
G01 X10.8022 Y1.6164 
G01 X10.9953 Y1.6791 
G01 X11.1763 Y1.7713 
G01 X11.3406 Y1.8907 
G01 X11.4843 Y2.0344 
G01 X11.6036 Y2.1987 
G01 X11.6959 Y2.3797 
G01 X11.7586 Y2.5728 
G01 X11.7904 Y2.7734 
G01 X11.7904 Y2.9766 
G01 X11.7586 Y3.1772 
G01 X11.6959 Y3.3703 
G01 X11.6036 Y3.5513 
G01 X11.4843 Y3.7156 
G01 X11.3406 Y3.8593 
G01 X11.1763 Y3.9786 
G01 X10.9953 Y4.0709 
G01 X10.8022 Y4.1336 
G01 X10.6016 Y4.1654 
G01 X10.3984 Y4.1654 
G01 X10.1978 Y4.1336 
G01 X10.0047 Y4.0709 
G01 X9.8237 Y3.9786 
G01 X9.6594 Y3.8593 
G01 X9.5157 Y3.7156 
G01 X9.3963 Y3.5513 
G01 X9.3041 Y3.3703 
G01 X9.2632 Y3.2444 
G01 X6.4944 Y3.2444 
G01 X6.4944 Y18.2220 
G01 X8.4030 Y20.1306 
G01 X18.3470 Y20.1306 
G01 X20.8746 Y17.6030 
G01 X20.8746 Y16.9870 
G01 X20.8922 Y16.9446 
G01 X20.9246 Y16.9122 
G01 X20.9670 Y16.8946 
G01 X22.2130 Y16.8946 
G01 X22.2554 Y16.9122 
G01 X22.2878 Y16.9446 
G01 X22.3054 Y16.9870 
G01 X22.3054 Y17.8330 
G01 X22.2878 Y17.8754 
G01 X22.2554 Y17.9078 
G01 X22.2130 Y17.9254 
G01 X21.5970 Y17.9254 
G01 X18.7956 Y20.7268 
G01 X18.7268 Y20.7956 
G01 X18.6426 Y20.8442 
G01 X18.5486 Y20.8694 
G01 X8.2014 Y20.8694 
G01 X8.1074 Y20.8442 
G01 X8.0232 Y20.7956 
G01 X5.8982 Y18.6706 
G01 X5.8294 Y18.6018 
G01 X5.7808 Y18.5176 
G01 X5.7556 Y18.4236 
G00 Z2.5400 
G00 X7.0232 Y18.2956 
G01 Z-0.1200 F100.00 
G01 X6.9544 Y18.2268 F230.00 
G01 X6.9058 Y18.1426 
G01 X6.8806 Y18.0486 
G01 X6.8806 Y10.2014 
G01 X6.9058 Y10.1074 
G01 X6.9544 Y10.0232 
G01 X7.0232 Y9.9544 
G01 X8.5232 Y8.4544 
G01 X8.6074 Y8.4058 
G01 X8.7014 Y8.3806 
G01 X11.7220 Y8.3806 
G01 X15.0946 Y5.0080 
G01 X15.0946 Y4.4570 
G01 X15.1122 Y4.4146 
G01 X15.1446 Y4.3822 
G01 X15.1870 Y4.3646 
G01 X16.0330 Y4.3646 
G01 X16.0754 Y4.3822 
G01 X16.1078 Y4.4146 
G01 X16.1254 Y4.4570 
G01 X16.1254 Y5.7030 
G01 X16.1078 Y5.7454 
G01 X16.0754 Y5.7778 
G01 X16.0330 Y5.7954 
G01 X15.3520 Y5.7954 
G01 X12.1706 Y8.9768 
G01 X12.1018 Y9.0456 
G01 X12.0176 Y9.0942 
G01 X11.9236 Y9.1194 
G01 X8.9030 Y9.1194 
G01 X7.6194 Y10.4030 
G01 X7.6194 Y17.6306 
G01 X8.0132 Y17.6306 
G01 X8.0541 Y17.5047 
G01 X8.1463 Y17.3237 
G01 X8.2657 Y17.1594 
G01 X8.4094 Y17.0157 
G01 X8.5737 Y16.8964 
G01 X8.7547 Y16.8041 
G01 X8.9478 Y16.7414 
G01 X9.1484 Y16.7096 
G01 X9.3516 Y16.7096 
G01 X9.5522 Y16.7414 
G01 X9.7453 Y16.8041 
G01 X9.9263 Y16.8964 
G01 X10.0906 Y17.0157 
G01 X10.2343 Y17.1594 
G01 X10.3536 Y17.3237 
G01 X10.4459 Y17.5047 
G01 X10.5086 Y17.6978 
G01 X10.5404 Y17.8984 
G01 X10.5404 Y18.1016 
G01 X10.5086 Y18.3022 
G01 X10.4459 Y18.4953 
G01 X10.3536 Y18.6763 
G01 X10.2343 Y18.8406 
G01 X10.0906 Y18.9843 
G01 X9.9263 Y19.1036 
G01 X9.7453 Y19.1959 
G01 X9.5522 Y19.2586 
G01 X9.3516 Y19.2904 
G01 X9.1484 Y19.2904 
G01 X8.9478 Y19.2586 
G01 X8.7547 Y19.1959 
G01 X8.5737 Y19.1036 
G01 X8.4094 Y18.9843 
G01 X8.2657 Y18.8406 
G01 X8.1463 Y18.6763 
G01 X8.0541 Y18.4953 
G01 X8.0132 Y18.3694 
G01 X7.2014 Y18.3694 
G01 X7.1074 Y18.3442 
G01 X7.0232 Y18.2956 
G00 Z2.5400 
G00 X6.0764 Y21.1306 
G01 Z-0.1200 F100.00 
G01 X19.3470 Y21.1306 F230.00 
G01 X23.7556 Y16.7220 
G01 X23.7556 Y15.8264 
G01 X23.7808 Y15.7324 
G01 X23.8294 Y15.6482 
G01 X23.8982 Y15.5794 
G01 X23.9824 Y15.5308 
G01 X24.0764 Y15.5056 
G01 X24.6846 Y15.5056 
G01 X24.6846 Y15.1870 
G01 X24.7022 Y15.1446 
G01 X24.7346 Y15.1122 
G01 X24.7770 Y15.0946 
G01 X25.0056 Y15.0946 
G01 X25.0056 Y12.1944 
G01 X24.5806 Y11.7694 
G01 X24.5806 Y11.0906 
G01 X25.0606 Y10.6106 
G01 X25.7394 Y10.6106 
G01 X26.2194 Y11.0906 
G01 X26.2194 Y11.7694 
G01 X25.7444 Y12.2444 
G01 X25.7444 Y15.0946 
G01 X26.0230 Y15.0946 
G01 X26.0654 Y15.1122 
G01 X26.0978 Y15.1446 
G01 X26.1154 Y15.1870 
G01 X26.1154 Y16.0330 
G01 X26.0978 Y16.0754 
G01 X26.0654 Y16.1078 
G01 X26.0230 Y16.1254 
G01 X25.6502 Y16.1254 
G01 X25.6480 Y16.1286 
G01 X25.6239 Y16.1485 
G01 X25.6018 Y16.1706 
G01 X25.5866 Y16.1794 
G01 X25.5730 Y16.1906 
G01 X25.5446 Y16.2036 
G01 X25.5176 Y16.2192 
G01 X25.5006 Y16.2238 
G01 X25.4846 Y16.2311 
G01 X25.4538 Y16.2363 
G01 X25.4236 Y16.2444 
G01 X25.4061 Y16.2444 
G01 X25.3887 Y16.2473 
G01 X25.3576 Y16.2444 
G01 X24.4944 Y16.2444 
G01 X24.4944 Y16.9236 
G01 X24.4692 Y17.0176 
G01 X24.4206 Y17.1018 
G01 X24.3518 Y17.1706 
G01 X19.7268 Y21.7956 
G01 X19.6426 Y21.8442 
G01 X19.5486 Y21.8694 
G01 X6.4944 Y21.8694 
G01 X6.4944 Y41.8470 
G01 X7.2780 Y42.6306 
G01 X34.6306 Y42.6306 
G01 X34.6306 Y31.0280 
G01 X34.3470 Y30.7444 
G01 X33.9514 Y30.7444 
G01 X33.8574 Y30.7192 
G01 X33.7732 Y30.6706 
G01 X33.7044 Y30.6018 
G01 X33.6558 Y30.5176 
G01 X33.6306 Y30.4236 
G01 X33.6306 Y28.6904 
G01 X33.5306 Y28.6904 
G01 X33.4473 Y28.6559 
G01 X33.3836 Y28.5922 
G01 X33.3491 Y28.5089 
G01 X33.3491 Y27.3711 
G01 X33.3836 Y27.2878 
G01 X33.4473 Y27.2241 
G01 X33.5306 Y27.1896 
G01 X34.2874 Y27.1896 
G01 X34.3707 Y27.2241 
G01 X34.4344 Y27.2878 
G01 X34.4689 Y27.3711 
G01 X34.4689 Y28.5089 
G01 X34.4344 Y28.5922 
G01 X34.3707 Y28.6559 
G01 X34.3694 Y30.0056 
G01 X34.5486 Y30.0056 
G01 X34.6426 Y30.0308 
G01 X34.7268 Y30.0794 
G01 X35.2268 Y30.5794 
G01 X35.2956 Y30.6482 
G01 X35.3442 Y30.7324 
G01 X35.3694 Y30.8264 
G01 X35.3694 Y43.0486 
G01 X35.3442 Y43.1426 
G01 X35.2956 Y43.2268 
G01 X35.2268 Y43.2956 
G01 X35.1426 Y43.3442 
G01 X35.0486 Y43.3694 
G01 X7.0764 Y43.3694 
G01 X6.9824 Y43.3442 
G01 X6.8982 Y43.2956 
G01 X5.8982 Y42.2956 
G01 X5.8294 Y42.2268 
G01 X5.7808 Y42.1426 
G01 X5.7556 Y42.0486 
G01 X5.7556 Y21.4514 
G01 X5.7808 Y21.3574 
G01 X5.8294 Y21.2732 
G01 X5.8982 Y21.2044 
G01 X5.9824 Y21.1558 
G01 X6.0764 Y21.1306 
G00 Z2.5400 
G00 X5.1313 Y22.1785 
G01 Z-0.1200 F100.00 
G01 X5.2535 Y22.3007 F230.00 
G01 X5.3495 Y22.4444 
G01 X5.4157 Y22.6041 
G01 X5.4494 Y22.7736 
G01 X5.4494 Y22.9464 
G01 X5.4157 Y23.1159 
G01 X5.3495 Y23.2756 
G01 X5.2535 Y23.4193 
G01 X5.1313 Y23.5415 
G01 X4.9876 Y23.6375 
G01 X4.8279 Y23.7037 
G01 X4.6584 Y23.7374 
G01 X2.9616 Y23.7374 
G01 X2.7921 Y23.7037 
G01 X2.6324 Y23.6375 
G01 X2.4887 Y23.5415 
G01 X2.3665 Y23.4193 
G01 X2.2705 Y23.2756 
G01 X2.2043 Y23.1159 
G01 X2.1706 Y22.9464 
G01 X2.1706 Y22.7736 
G01 X2.2043 Y22.6041 
G01 X2.2705 Y22.4444 
G01 X2.3665 Y22.3007 
G01 X2.4887 Y22.1785 
G01 X2.6324 Y22.0825 
G01 X2.7921 Y22.0163 
G01 X2.9616 Y21.9826 
G01 X4.6584 Y21.9826 
G01 X4.8279 Y22.0163 
G01 X4.9876 Y22.0825 
G01 X5.1313 Y22.1785 
G00 Z2.5400 
G00 X5.1313 Y24.7185 
G01 Z-0.1200 F100.00 
G01 X5.2535 Y24.8407 F230.00 
G01 X5.3495 Y24.9844 
G01 X5.4157 Y25.1441 
G01 X5.4494 Y25.3136 
G01 X5.4494 Y25.4864 
G01 X5.4157 Y25.6559 
G01 X5.3495 Y25.8156 
G01 X5.2535 Y25.9593 
G01 X5.1313 Y26.0815 
G01 X4.9876 Y26.1775 
G01 X4.8279 Y26.2437 
G01 X4.6584 Y26.2774 
G01 X2.9616 Y26.2774 
G01 X2.7921 Y26.2437 
G01 X2.6324 Y26.1775 
G01 X2.4887 Y26.0815 
G01 X2.3665 Y25.9593 
G01 X2.2705 Y25.8156 
G01 X2.2043 Y25.6559 
G01 X2.1706 Y25.4864 
G01 X2.1706 Y25.3136 
G01 X2.2043 Y25.1441 
G01 X2.2705 Y24.9844 
G01 X2.3665 Y24.8407 
G01 X2.4887 Y24.7185 
G01 X2.6324 Y24.6225 
G01 X2.7921 Y24.5563 
G01 X2.9616 Y24.5226 
G01 X4.6584 Y24.5226 
G01 X4.8279 Y24.5563 
G01 X4.9876 Y24.6225 
G01 X5.1313 Y24.7185 
G00 Z2.5400 
G00 X5.1313 Y31.0685 
G01 Z-0.1200 F100.00 
G01 X5.2535 Y31.1907 F230.00 
G01 X5.3495 Y31.3344 
G01 X5.4157 Y31.4941 
G01 X5.4494 Y31.6636 
G01 X5.4494 Y31.8364 
G01 X5.4157 Y32.0059 
G01 X5.3495 Y32.1656 
G01 X5.2535 Y32.3093 
G01 X5.1313 Y32.4315 
G01 X4.9876 Y32.5275 
G01 X4.8279 Y32.5937 
G01 X4.6584 Y32.6274 
G01 X2.9616 Y32.6274 
G01 X2.7921 Y32.5937 
G01 X2.6324 Y32.5275 
G01 X2.4887 Y32.4315 
G01 X2.3665 Y32.3093 
G01 X2.2705 Y32.1656 
G01 X2.2043 Y32.0059 
G01 X2.1706 Y31.8364 
G01 X2.1706 Y31.6636 
G01 X2.2043 Y31.4941 
G01 X2.2705 Y31.3344 
G01 X2.3665 Y31.1907 
G01 X2.4887 Y31.0685 
G01 X2.6324 Y30.9725 
G01 X2.7921 Y30.9063 
G01 X2.9616 Y30.8726 
G01 X4.6584 Y30.8726 
G01 X4.8279 Y30.9063 
G01 X4.9876 Y30.9725 
G01 X5.1313 Y31.0685 
G00 Z2.5400 
G00 X5.1313 Y33.6085 
G01 Z-0.1200 F100.00 
G01 X5.2535 Y33.7307 F230.00 
G01 X5.3495 Y33.8744 
G01 X5.4157 Y34.0341 
G01 X5.4494 Y34.2036 
G01 X5.4494 Y34.3764 
G01 X5.4157 Y34.5459 
G01 X5.3495 Y34.7056 
G01 X5.2535 Y34.8493 
G01 X5.1313 Y34.9715 
G01 X4.9876 Y35.0675 
G01 X4.8279 Y35.1337 
G01 X4.6584 Y35.1674 
G01 X2.9616 Y35.1674 
G01 X2.7921 Y35.1337 
G01 X2.6324 Y35.0675 
G01 X2.4887 Y34.9715 
G01 X2.3665 Y34.8493 
G01 X2.2705 Y34.7056 
G01 X2.2043 Y34.5459 
G01 X2.1706 Y34.3764 
G01 X2.1706 Y34.2036 
G01 X2.2043 Y34.0341 
G01 X2.2705 Y33.8744 
G01 X2.3665 Y33.7307 
G01 X2.4887 Y33.6085 
G01 X2.6324 Y33.5125 
G01 X2.7921 Y33.4463 
G01 X2.9616 Y33.4126 
G01 X4.6584 Y33.4126 
G01 X4.8279 Y33.4463 
G01 X4.9876 Y33.5125 
G01 X5.1313 Y33.6085 
G00 Z2.5400 
G00 X8.9094 Y29.9843 
G01 Z-0.1200 F100.00 
G01 X8.7657 Y29.8406 F230.00 
G01 X8.6463 Y29.6763 
G01 X8.5541 Y29.4953 
G01 X8.4914 Y29.3022 
G01 X8.4596 Y29.1016 
G01 X8.4596 Y28.8984 
G01 X8.4914 Y28.6978 
G01 X8.5541 Y28.5047 
G01 X8.6463 Y28.3237 
G01 X8.7657 Y28.1594 
G01 X8.9094 Y28.0157 
G01 X9.0737 Y27.8964 
G01 X9.2547 Y27.8041 
G01 X9.4478 Y27.7414 
G01 X9.6484 Y27.7096 
G01 X9.8516 Y27.7096 
G01 X10.0522 Y27.7414 
G01 X10.2453 Y27.8041 
G01 X10.4263 Y27.8964 
G01 X10.5906 Y28.0157 
G01 X10.7343 Y28.1594 
G01 X10.8536 Y28.3237 
G01 X10.9459 Y28.5047 
G01 X10.9868 Y28.6306 
G01 X13.7220 Y28.6306 
G01 X24.6846 Y17.6680 
G01 X24.6846 Y16.9870 
G01 X24.7022 Y16.9446 
G01 X24.7346 Y16.9122 
G01 X24.7770 Y16.8946 
G01 X26.0230 Y16.8946 
G01 X26.0654 Y16.9122 
G01 X26.0978 Y16.9446 
G01 X26.1154 Y16.9870 
G01 X26.1154 Y17.8330 
G01 X26.0978 Y17.8754 
G01 X26.0654 Y17.9078 
G01 X26.0230 Y17.9254 
G01 X25.4720 Y17.9254 
G01 X14.1706 Y29.2268 
G01 X14.1018 Y29.2956 
G01 X14.0176 Y29.3442 
G01 X13.9236 Y29.3694 
G01 X10.9868 Y29.3694 
G01 X10.9459 Y29.4953 
G01 X10.8536 Y29.6763 
G01 X10.7343 Y29.8406 
G01 X10.5906 Y29.9843 
G01 X10.4263 Y30.1036 
G01 X10.2453 Y30.1959 
G01 X10.0522 Y30.2586 
G01 X9.8516 Y30.2904 
G01 X9.6484 Y30.2904 
G01 X9.4478 Y30.2586 
G01 X9.2547 Y30.1959 
G01 X9.0737 Y30.1036 
G01 X8.9094 Y29.9843 
G00 Z2.5400 
G00 X12.1482 Y35.3294 
G01 Z-0.1200 F100.00 
G01 X12.2324 Y35.2808 F230.00 
G01 X12.3264 Y35.2556 
G01 X22.1858 Y35.2556 
G01 X22.1858 Y35.1560 
G01 X22.2034 Y35.1136 
G01 X22.2358 Y35.0812 
G01 X22.2782 Y35.0636 
G01 X24.5594 Y35.0636 
G01 X24.6018 Y35.0812 
G01 X24.6342 Y35.1136 
G01 X24.6518 Y35.1560 
G01 X24.6518 Y36.4212 
G01 X24.6342 Y36.4636 
G01 X24.6018 Y36.4960 
G01 X24.5594 Y36.5136 
G01 X22.2782 Y36.5136 
G01 X22.2358 Y36.4960 
G01 X22.2034 Y36.4636 
G01 X22.1858 Y36.4212 
G01 X22.1858 Y35.9944 
G01 X12.5280 Y35.9944 
G01 X8.4974 Y40.0250 
G01 X8.4974 Y41.4884 
G01 X8.4637 Y41.6579 
G01 X8.3975 Y41.8176 
G01 X8.3015 Y41.9613 
G01 X8.1793 Y42.0835 
G01 X8.0356 Y42.1795 
G01 X7.8759 Y42.2457 
G01 X7.7064 Y42.2794 
G01 X7.5336 Y42.2794 
G01 X7.3641 Y42.2457 
G01 X7.2044 Y42.1795 
G01 X7.0607 Y42.0835 
G01 X6.9385 Y41.9613 
G01 X6.8425 Y41.8176 
G01 X6.7763 Y41.6579 
G01 X6.7426 Y41.4884 
G01 X6.7426 Y39.7916 
G01 X6.7763 Y39.6221 
G01 X6.8425 Y39.4624 
G01 X6.9385 Y39.3187 
G01 X7.0607 Y39.1965 
G01 X7.2044 Y39.1005 
G01 X7.3641 Y39.0343 
G01 X7.5336 Y39.0006 
G01 X7.7064 Y39.0006 
G01 X7.8759 Y39.0343 
G01 X8.0356 Y39.1005 
G01 X8.1793 Y39.1965 
G01 X8.2302 Y39.2474 
G01 X12.1482 Y35.3294 
G00 Z2.5400 
G00 X16.0232 Y36.2346 
G01 Z-0.1200 F100.00 
G01 X16.0556 Y36.2022 F230.00 
G01 X16.0980 Y36.1846 
G01 X18.3440 Y36.1846 
G01 X18.3864 Y36.2022 
G01 X18.4188 Y36.2346 
G01 X18.4364 Y36.2770 
G01 X18.4364 Y39.9230 
G01 X18.4188 Y39.9654 
G01 X18.3864 Y39.9978 
G01 X18.3440 Y40.0154 
G01 X16.0980 Y40.0154 
G01 X16.0556 Y39.9978 
G01 X16.0232 Y39.9654 
G01 X16.0056 Y39.9230 
G01 X16.0056 Y36.2770 
G01 X16.0232 Y36.2346 
G00 Z2.5400 
G00 X22.2034 Y37.4250 
G01 Z-0.1200 F100.00 
G01 X22.2358 Y37.3926 F230.00 
G01 X22.2782 Y37.3750 
G01 X24.5594 Y37.3750 
G01 X24.6018 Y37.3926 
G01 X24.6342 Y37.4250 
G01 X24.6518 Y37.4674 
G01 X24.6518 Y37.6306 
G01 X25.4720 Y37.6306 
G01 X25.6143 Y37.4883 
G01 X25.5541 Y37.3703 
G01 X25.4914 Y37.1772 
G01 X25.4596 Y36.9766 
G01 X25.4596 Y36.7734 
G01 X25.4914 Y36.5728 
G01 X25.5541 Y36.3797 
G01 X25.6464 Y36.1987 
G01 X25.7657 Y36.0344 
G01 X25.9094 Y35.8907 
G01 X26.0737 Y35.7713 
G01 X26.2547 Y35.6791 
G01 X26.4478 Y35.6164 
G01 X26.6484 Y35.5846 
G01 X26.8516 Y35.5846 
G01 X27.0522 Y35.6164 
G01 X27.2453 Y35.6791 
G01 X27.4263 Y35.7713 
G01 X27.5906 Y35.8907 
G01 X27.7343 Y36.0344 
G01 X27.8536 Y36.1987 
G01 X27.9459 Y36.3797 
G01 X28.0086 Y36.5728 
G01 X28.0404 Y36.7734 
G01 X28.0404 Y36.9766 
G01 X28.0086 Y37.1772 
G01 X27.9459 Y37.3703 
G01 X27.8536 Y37.5513 
G01 X27.7343 Y37.7156 
G01 X27.5906 Y37.8593 
G01 X27.4263 Y37.9786 
G01 X27.2453 Y38.0709 
G01 X27.0522 Y38.1336 
G01 X26.8516 Y38.1654 
G01 X26.6484 Y38.1654 
G01 X26.4478 Y38.1336 
G01 X26.2547 Y38.0709 
G01 X26.1367 Y38.0107 
G01 X25.9206 Y38.2268 
G01 X25.8518 Y38.2956 
G01 X25.7676 Y38.3442 
G01 X25.6736 Y38.3694 
G01 X24.6518 Y38.3694 
G01 X24.6518 Y38.7326 
G01 X24.6342 Y38.7750 
G01 X24.6018 Y38.8074 
G01 X24.5594 Y38.8250 
G01 X22.2782 Y38.8250 
G01 X22.2358 Y38.8074 
G01 X22.2034 Y38.7750 
G01 X22.1858 Y38.7326 
G01 X22.1858 Y37.4674 
G01 X22.2034 Y37.4250 
G00 Z2.5400 
G00 X22.2034 Y39.7364 
G01 Z-0.1200 F100.00 
G01 X22.2358 Y39.7040 F230.00 
G01 X22.2782 Y39.6864 
G01 X24.5594 Y39.6864 
G01 X24.6018 Y39.7040 
G01 X24.6342 Y39.7364 
G01 X24.6518 Y39.7788 
G01 X24.6518 Y40.0056 
G01 X28.3470 Y40.0056 
G01 X30.6026 Y37.7500 
G01 X27.5970 Y34.7444 
G01 X26.8264 Y34.7444 
G01 X26.7324 Y34.7192 
G01 X26.6482 Y34.6706 
G01 X26.5794 Y34.6018 
G01 X24.4430 Y32.4654 
G01 X24.0770 Y32.4654 
G01 X24.0346 Y32.4478 
G01 X24.0022 Y32.4154 
G01 X23.9846 Y32.3730 
G01 X23.9846 Y31.1270 
G01 X24.0022 Y31.0846 
G01 X24.0346 Y31.0522 
G01 X24.0770 Y31.0346 
G01 X24.1306 Y31.0346 
G01 X24.1306 Y28.6554 
G01 X24.0770 Y28.6554 
G01 X24.0346 Y28.6378 
G01 X24.0022 Y28.6054 
G01 X23.9846 Y28.5630 
G01 X23.9846 Y27.3170 
G01 X24.0022 Y27.2746 
G01 X24.0346 Y27.2422 
G01 X24.0770 Y27.2246 
G01 X24.1306 Y27.2246 
G01 X24.1306 Y24.8454 
G01 X24.0770 Y24.8454 
G01 X24.0346 Y24.8278 
G01 X24.0022 Y24.7954 
G01 X23.9846 Y24.7530 
G01 X23.9846 Y23.5070 
G01 X24.0022 Y23.4646 
G01 X24.0346 Y23.4322 
G01 X24.0770 Y23.4146 
G01 X24.1306 Y23.4146 
G01 X24.1306 Y21.0354 
G01 X24.0770 Y21.0354 
G01 X24.0346 Y21.0178 
G01 X24.0022 Y20.9854 
G01 X23.9846 Y20.9430 
G01 X23.9846 Y19.6970 
G01 X24.0022 Y19.6546 
G01 X24.0346 Y19.6222 
G01 X24.0770 Y19.6046 
G01 X24.9230 Y19.6046 
G01 X24.9654 Y19.6222 
G01 X24.9978 Y19.6546 
G01 X25.0154 Y19.6970 
G01 X25.0154 Y20.9430 
G01 X24.9978 Y20.9854 
G01 X24.9654 Y21.0178 
G01 X24.9230 Y21.0354 
G01 X24.8694 Y21.0354 
G01 X24.8694 Y23.4146 
G01 X24.9230 Y23.4146 
G01 X24.9654 Y23.4322 
G01 X24.9978 Y23.4646 
G01 X25.0154 Y23.5070 
G01 X25.0154 Y24.7530 
G01 X24.9978 Y24.7954 
G01 X24.9654 Y24.8278 
G01 X24.9230 Y24.8454 
G01 X24.8694 Y24.8454 
G01 X24.8694 Y27.2246 
G01 X24.9230 Y27.2246 
G01 X24.9654 Y27.2422 
G01 X24.9978 Y27.2746 
G01 X25.0154 Y27.3170 
G01 X25.0154 Y28.5630 
G01 X24.9978 Y28.6054 
G01 X24.9654 Y28.6378 
G01 X24.9230 Y28.6554 
G01 X24.8694 Y28.6554 
G01 X24.8694 Y31.0346 
G01 X24.9230 Y31.0346 
G01 X24.9654 Y31.0522 
G01 X24.9978 Y31.0846 
G01 X25.0154 Y31.1270 
G01 X25.0154 Y31.9930 
G01 X27.0280 Y34.0056 
G01 X27.7986 Y34.0056 
G01 X27.8926 Y34.0308 
G01 X27.9768 Y34.0794 
G01 X31.1250 Y37.2276 
G01 X31.6046 Y36.7480 
G01 X31.6046 Y36.2070 
G01 X31.6222 Y36.1646 
G01 X31.6546 Y36.1322 
G01 X31.6970 Y36.1146 
G01 X32.5430 Y36.1146 
G01 X32.5854 Y36.1322 
G01 X32.6178 Y36.1646 
G01 X32.6354 Y36.2070 
G01 X32.6354 Y37.4530 
G01 X32.6178 Y37.4954 
G01 X32.5854 Y37.5278 
G01 X32.5430 Y37.5454 
G01 X31.8520 Y37.5454 
G01 X31.4206 Y37.9768 
G01 X31.3518 Y38.0456 
G01 X28.7956 Y40.6018 
G01 X28.7268 Y40.6706 
G01 X28.6426 Y40.7192 
G01 X28.5486 Y40.7444 
G01 X24.6518 Y40.7444 
G01 X24.6518 Y41.0440 
G01 X24.6342 Y41.0864 
G01 X24.6018 Y41.1188 
G01 X24.5594 Y41.1364 
G01 X22.2782 Y41.1364 
G01 X22.2358 Y41.1188 
G01 X22.2034 Y41.0864 
G01 X22.1858 Y41.0440 
G01 X22.1858 Y40.9944 
G01 X11.2780 Y40.9944 
G01 X11.0424 Y41.2300 
G01 X11.0400 Y41.2339 
G01 X11.0374 Y41.2364 
G01 X11.0374 Y41.4884 
G01 X11.0037 Y41.6579 
G01 X10.9375 Y41.8176 
G01 X10.8694 Y41.9196 
G01 X10.8694 Y42.0486 
G01 X10.8442 Y42.1426 
G01 X10.7956 Y42.2268 
G01 X10.7268 Y42.2956 
G01 X10.6426 Y42.3442 
G01 X10.5486 Y42.3694 
G01 X10.4514 Y42.3694 
G01 X10.3574 Y42.3442 
G01 X10.2732 Y42.2956 
G01 X10.2552 Y42.2776 
G01 X10.2464 Y42.2794 
G01 X10.0736 Y42.2794 
G01 X9.9041 Y42.2457 
G01 X9.7444 Y42.1795 
G01 X9.6007 Y42.0835 
G01 X9.4785 Y41.9613 
G01 X9.3825 Y41.8176 
G01 X9.3163 Y41.6579 
G01 X9.2826 Y41.4884 
G01 X9.2826 Y39.7916 
G01 X9.3163 Y39.6221 
G01 X9.3825 Y39.4624 
G01 X9.4785 Y39.3187 
G01 X9.6007 Y39.1965 
G01 X9.7444 Y39.1005 
G01 X9.9041 Y39.0343 
G01 X10.0736 Y39.0006 
G01 X10.2464 Y39.0006 
G01 X10.4159 Y39.0343 
G01 X10.5756 Y39.1005 
G01 X10.7193 Y39.1965 
G01 X10.8415 Y39.3187 
G01 X10.9375 Y39.4624 
G01 X11.0037 Y39.6221 
G01 X11.0374 Y39.7916 
G01 X11.0374 Y40.2660 
G01 X11.0764 Y40.2556 
G01 X22.1858 Y40.2556 
G01 X22.1858 Y39.7788 
G01 X22.2034 Y39.7364 
G00 Z2.5400 
G00 X25.8346 Y32.4478 
G01 Z-0.1200 F100.00 
G01 X25.8022 Y32.4154 F230.00 
G01 X25.7846 Y32.3730 
G01 X25.7846 Y31.1270 
G01 X25.8022 Y31.0846 
G01 X25.8346 Y31.0522 
G01 X25.8770 Y31.0346 
G01 X26.5680 Y31.0346 
G01 X29.8294 Y27.7732 
G01 X29.8982 Y27.7044 
G01 X29.9824 Y27.6558 
G01 X30.0764 Y27.6306 
G01 X31.5711 Y27.6306 
G01 X31.5711 Y27.3711 
G01 X31.6056 Y27.2878 
G01 X31.6693 Y27.2241 
G01 X31.7526 Y27.1896 
G01 X32.5094 Y27.1896 
G01 X32.5927 Y27.2241 
G01 X32.6564 Y27.2878 
G01 X32.6909 Y27.3711 
G01 X32.6909 Y28.5089 
G01 X32.6564 Y28.5922 
G01 X32.5927 Y28.6559 
G01 X32.5094 Y28.6904 
G01 X31.7526 Y28.6904 
G01 X31.6693 Y28.6559 
G01 X31.6056 Y28.5922 
G01 X31.5711 Y28.5089 
G01 X31.5711 Y28.3694 
G01 X30.2780 Y28.3694 
G01 X26.8154 Y31.8320 
G01 X26.8154 Y32.3730 
G01 X26.7978 Y32.4154 
G01 X26.7654 Y32.4478 
G01 X26.7230 Y32.4654 
G01 X25.8770 Y32.4654 
G01 X25.8346 Y32.4478 
G00 Z2.5400 
G00 X28.0846 Y32.3984 
G01 Z-0.1200 F100.00 
G01 X28.1164 Y32.1978 F230.00 
G01 X28.1791 Y32.0047 
G01 X28.2714 Y31.8237 
G01 X28.3907 Y31.6594 
G01 X28.5344 Y31.5157 
G01 X28.6987 Y31.3964 
G01 X28.8797 Y31.3041 
G01 X29.0728 Y31.2414 
G01 X29.2734 Y31.2096 
G01 X29.4766 Y31.2096 
G01 X29.6772 Y31.2414 
G01 X29.8703 Y31.3041 
G01 X30.0513 Y31.3964 
G01 X30.2156 Y31.5157 
G01 X30.3593 Y31.6594 
G01 X30.4786 Y31.8237 
G01 X30.5709 Y32.0047 
G01 X30.6118 Y32.1306 
G01 X31.2220 Y32.1306 
G01 X31.5711 Y31.7815 
G01 X31.5711 Y31.1811 
G01 X31.6056 Y31.0978 
G01 X31.6693 Y31.0341 
G01 X31.7526 Y30.9996 
G01 X32.5094 Y30.9996 
G01 X32.5927 Y31.0341 
G01 X32.6564 Y31.0978 
G01 X32.6909 Y31.1811 
G01 X32.6909 Y32.3189 
G01 X32.6564 Y32.4022 
G01 X32.5927 Y32.4659 
G01 X32.5094 Y32.5004 
G01 X31.8970 Y32.5004 
G01 X31.6706 Y32.7268 
G01 X31.6018 Y32.7956 
G01 X31.5176 Y32.8442 
G01 X31.4236 Y32.8694 
G01 X30.6118 Y32.8694 
G01 X30.5709 Y32.9953 
G01 X30.4786 Y33.1763 
G01 X30.3593 Y33.3406 
G01 X30.2156 Y33.4843 
G01 X30.0513 Y33.6036 
G01 X29.8703 Y33.6959 
G01 X29.6772 Y33.7586 
G01 X29.4766 Y33.7904 
G01 X29.2734 Y33.7904 
G01 X29.0728 Y33.7586 
G01 X28.8797 Y33.6959 
G01 X28.6987 Y33.6036 
G01 X28.5344 Y33.4843 
G01 X28.3907 Y33.3406 
G01 X28.2714 Y33.1763 
G01 X28.1791 Y32.9953 
G01 X28.1164 Y32.8022 
G01 X28.0846 Y32.6016 
G01 X28.0846 Y32.3984 
G00 Z2.5400 
G00 X26.7978 Y28.6054 
G01 Z-0.1200 F100.00 
G01 X26.7654 Y28.6378 F230.00 
G01 X26.7230 Y28.6554 
G01 X25.8770 Y28.6554 
G01 X25.8346 Y28.6378 
G01 X25.8022 Y28.6054 
G01 X25.7846 Y28.5630 
G01 X25.7846 Y27.3170 
G01 X25.8022 Y27.2746 
G01 X25.8346 Y27.2422 
G01 X25.8770 Y27.2246 
G01 X26.5030 Y27.2246 
G01 X29.7044 Y24.0232 
G01 X29.7732 Y23.9544 
G01 X29.8574 Y23.9058 
G01 X29.9514 Y23.8806 
G01 X31.5711 Y23.8806 
G01 X31.5711 Y23.5611 
G01 X31.6056 Y23.4778 
G01 X31.6693 Y23.4141 
G01 X31.7526 Y23.3796 
G01 X32.5094 Y23.3796 
G01 X32.5927 Y23.4141 
G01 X32.6564 Y23.4778 
G01 X32.6909 Y23.5611 
G01 X32.6909 Y24.6989 
G01 X32.6564 Y24.7822 
G01 X32.5927 Y24.8459 
G01 X32.5094 Y24.8804 
G01 X31.7526 Y24.8804 
G01 X31.6693 Y24.8459 
G01 X31.6056 Y24.7822 
G01 X31.5711 Y24.6989 
G01 X31.5711 Y24.6194 
G01 X30.1530 Y24.6194 
G01 X26.8154 Y27.9570 
G01 X26.8154 Y28.5630 
G01 X26.7978 Y28.6054 
G00 Z2.5400 
G00 X26.7978 Y24.7954 
G01 Z-0.1200 F100.00 
G01 X26.7654 Y24.8278 F230.00 
G01 X26.7230 Y24.8454 
G01 X25.8770 Y24.8454 
G01 X25.8346 Y24.8278 
G01 X25.8022 Y24.7954 
G01 X25.7846 Y24.7530 
G01 X25.7846 Y23.5070 
G01 X25.8022 Y23.4646 
G01 X25.8346 Y23.4322 
G01 X25.8770 Y23.4146 
G01 X26.5630 Y23.4146 
G01 X29.8294 Y20.1482 
G01 X29.8982 Y20.0794 
G01 X29.9824 Y20.0308 
G01 X30.0764 Y20.0056 
G01 X31.5711 Y20.0056 
G01 X31.5711 Y19.7511 
G01 X31.6056 Y19.6678 
G01 X31.6693 Y19.6041 
G01 X31.7526 Y19.5696 
G01 X32.5094 Y19.5696 
G01 X32.5927 Y19.6041 
G01 X32.6564 Y19.6678 
G01 X32.6909 Y19.7511 
G01 X32.6909 Y20.8889 
G01 X32.6564 Y20.9722 
G01 X32.5927 Y21.0359 
G01 X32.5094 Y21.0704 
G01 X31.7526 Y21.0704 
G01 X31.6693 Y21.0359 
G01 X31.6056 Y20.9722 
G01 X31.5711 Y20.8889 
G01 X31.5711 Y20.7444 
G01 X30.2780 Y20.7444 
G01 X26.8154 Y24.2070 
G01 X26.8154 Y24.7530 
G01 X26.7978 Y24.7954 
G00 Z2.5400 
G00 X26.7978 Y20.9854 
G01 Z-0.1200 F100.00 
G01 X26.7654 Y21.0178 F230.00 
G01 X26.7230 Y21.0354 
G01 X25.8770 Y21.0354 
G01 X25.8346 Y21.0178 
G01 X25.8022 Y20.9854 
G01 X25.7846 Y20.9430 
G01 X25.7846 Y19.6970 
G01 X25.8022 Y19.6546 
G01 X25.8346 Y19.6222 
G01 X25.8770 Y19.6046 
G01 X26.4980 Y19.6046 
G01 X29.7044 Y16.3982 
G01 X29.7732 Y16.3294 
G01 X29.8574 Y16.2808 
G01 X29.9514 Y16.2556 
G01 X31.5711 Y16.2556 
G01 X31.5711 Y15.9411 
G01 X31.6056 Y15.8578 
G01 X31.6693 Y15.7941 
G01 X31.7526 Y15.7596 
G01 X32.5094 Y15.7596 
G01 X32.5927 Y15.7941 
G01 X32.6564 Y15.8578 
G01 X32.6909 Y15.9411 
G01 X32.6909 Y17.0789 
G01 X32.6564 Y17.1622 
G01 X32.5927 Y17.2259 
G01 X32.5094 Y17.2604 
G01 X31.7526 Y17.2604 
G01 X31.6693 Y17.2259 
G01 X31.6056 Y17.1622 
G01 X31.5711 Y17.0789 
G01 X31.5711 Y16.9944 
G01 X30.1530 Y16.9944 
G01 X26.8154 Y20.3320 
G01 X26.8154 Y20.9430 
G01 X26.7978 Y20.9854 
G00 Z2.5400 
G00 X27.4094 Y15.8593 
G01 Z-0.1200 F100.00 
G01 X27.2657 Y15.7156 F230.00 
G01 X27.1464 Y15.5513 
G01 X27.0541 Y15.3703 
G01 X26.9914 Y15.1772 
G01 X26.9596 Y14.9766 
G01 X26.9596 Y14.7734 
G01 X26.9914 Y14.5728 
G01 X27.0541 Y14.3797 
G01 X27.1464 Y14.1987 
G01 X27.2657 Y14.0344 
G01 X27.4094 Y13.8907 
G01 X27.5737 Y13.7713 
G01 X27.7547 Y13.6791 
G01 X27.9478 Y13.6164 
G01 X28.1484 Y13.5846 
G01 X28.3516 Y13.5846 
G01 X28.5522 Y13.6164 
G01 X28.7453 Y13.6791 
G01 X28.9263 Y13.7713 
G01 X29.0906 Y13.8907 
G01 X29.2343 Y14.0344 
G01 X29.3536 Y14.1987 
G01 X29.4459 Y14.3797 
G01 X29.5086 Y14.5728 
G01 X29.5376 Y14.7556 
G01 X33.9236 Y14.7556 
G01 X34.0176 Y14.7808 
G01 X34.1018 Y14.8294 
G01 X34.1706 Y14.8982 
G01 X34.2192 Y14.9824 
G01 X34.2444 Y15.0764 
G01 X34.2444 Y15.7596 
G01 X34.2874 Y15.7596 
G01 X34.3707 Y15.7941 
G01 X34.4344 Y15.8578 
G01 X34.4689 Y15.9411 
G01 X34.4689 Y17.0789 
G01 X34.4344 Y17.1622 
G01 X34.3707 Y17.2259 
G01 X34.2874 Y17.2604 
G01 X33.5306 Y17.2604 
G01 X33.4473 Y17.2259 
G01 X33.3836 Y17.1622 
G01 X33.3491 Y17.0789 
G01 X33.3491 Y15.9411 
G01 X33.3836 Y15.8578 
G01 X33.4473 Y15.7941 
G01 X33.5056 Y15.7699 
G01 X33.5056 Y15.4944 
G01 X29.3826 Y15.4944 
G01 X29.3536 Y15.5513 
G01 X29.2343 Y15.7156 
G01 X29.0906 Y15.8593 
G01 X28.9263 Y15.9786 
G01 X28.7453 Y16.0709 
G01 X28.5522 Y16.1336 
G01 X28.3516 Y16.1654 
G01 X28.1484 Y16.1654 
G01 X27.9478 Y16.1336 
G01 X27.7547 Y16.0709 
G01 X27.5737 Y15.9786 
G01 X27.4094 Y15.8593 
G00 Z2.5400 
G00 X22.3054 Y16.0330 
G01 Z-0.1200 F100.00 
G01 X22.2878 Y16.0754 F230.00 
G01 X22.2554 Y16.1078 
G01 X22.2130 Y16.1254 
G01 X20.9670 Y16.1254 
G01 X20.9246 Y16.1078 
G01 X20.8922 Y16.0754 
G01 X20.8746 Y16.0330 
G01 X20.8746 Y15.1870 
G01 X20.8922 Y15.1446 
G01 X20.9246 Y15.1122 
G01 X20.9670 Y15.0946 
G01 X21.2556 Y15.0946 
G01 X21.2556 Y11.9514 
G01 X21.2808 Y11.8574 
G01 X21.3294 Y11.7732 
G01 X21.3982 Y11.7044 
G01 X21.4824 Y11.6558 
G01 X21.5764 Y11.6306 
G01 X22.0406 Y11.6306 
G01 X22.0406 Y11.0906 
G01 X22.5206 Y10.6106 
G01 X23.1994 Y10.6106 
G01 X23.6794 Y11.0906 
G01 X23.6794 Y11.7694 
G01 X23.1994 Y12.2494 
G01 X22.5230 Y12.2494 
G01 X22.4768 Y12.2956 
G01 X22.3926 Y12.3442 
G01 X22.2986 Y12.3694 
G01 X21.9944 Y12.3694 
G01 X21.9944 Y15.0946 
G01 X22.2130 Y15.0946 
G01 X22.2554 Y15.1122 
G01 X22.2878 Y15.1446 
G01 X22.3054 Y15.1870 
G01 X22.3054 Y16.0330 
G00 Z2.5400 
G00 X18.4954 Y16.0330 
G01 Z-0.1200 F100.00 
G01 X18.4778 Y16.0754 F230.00 
G01 X18.4454 Y16.1078 
G01 X18.4030 Y16.1254 
G01 X17.1570 Y16.1254 
G01 X17.1146 Y16.1078 
G01 X17.0822 Y16.0754 
G01 X17.0646 Y16.0330 
G01 X17.0646 Y15.1870 
G01 X17.0822 Y15.1446 
G01 X17.1146 Y15.1122 
G01 X17.1570 Y15.0946 
G01 X17.7580 Y15.0946 
G01 X20.1306 Y12.7220 
G01 X20.1306 Y12.2494 
G01 X19.9806 Y12.2494 
G01 X19.5006 Y11.7694 
G01 X19.5006 Y11.0906 
G01 X19.9806 Y10.6106 
G01 X20.6594 Y10.6106 
G01 X21.1394 Y11.0906 
G01 X21.1394 Y11.7694 
G01 X20.8694 Y12.0394 
G01 X20.8694 Y12.9236 
G01 X20.8442 Y13.0176 
G01 X20.7956 Y13.1018 
G01 X20.7268 Y13.1706 
G01 X18.4954 Y15.4020 
G01 X18.4954 Y16.0330 
G00 Z2.5400 
G00 X18.4454 Y16.9122 
G01 Z-0.1200 F100.00 
G01 X18.4778 Y16.9446 F230.00 
G01 X18.4954 Y16.9870 
G01 X18.4954 Y17.8330 
G01 X18.4778 Y17.8754 
G01 X18.4454 Y17.9078 
G01 X18.4030 Y17.9254 
G01 X17.1570 Y17.9254 
G01 X17.1146 Y17.9078 
G01 X17.0822 Y17.8754 
G01 X17.0646 Y17.8330 
G01 X17.0646 Y17.2120 
G01 X16.8470 Y16.9944 
G01 X15.0764 Y16.9944 
G01 X14.9824 Y16.9692 
G01 X14.8982 Y16.9206 
G01 X14.8294 Y16.8518 
G01 X10.3633 Y12.3857 
G01 X10.2453 Y12.4459 
G01 X10.0522 Y12.5086 
G01 X9.8516 Y12.5404 
G01 X9.6484 Y12.5404 
G01 X9.4478 Y12.5086 
G01 X9.2547 Y12.4459 
G01 X9.0737 Y12.3536 
G01 X8.9094 Y12.2343 
G01 X8.7657 Y12.0906 
G01 X8.6463 Y11.9263 
G01 X8.5541 Y11.7453 
G01 X8.4914 Y11.5522 
G01 X8.4596 Y11.3516 
G01 X8.4596 Y11.1484 
G01 X8.4914 Y10.9478 
G01 X8.5541 Y10.7547 
G01 X8.6463 Y10.5737 
G01 X8.7657 Y10.4094 
G01 X8.9094 Y10.2657 
G01 X9.0737 Y10.1463 
G01 X9.2547 Y10.0541 
G01 X9.4478 Y9.9914 
G01 X9.6484 Y9.9596 
G01 X9.8516 Y9.9596 
G01 X10.0522 Y9.9914 
G01 X10.2453 Y10.0541 
G01 X10.4263 Y10.1463 
G01 X10.5906 Y10.2657 
G01 X10.7343 Y10.4094 
G01 X10.8536 Y10.5737 
G01 X10.9459 Y10.7547 
G01 X11.0086 Y10.9478 
G01 X11.0404 Y11.1484 
G01 X11.0404 Y11.3516 
G01 X11.0086 Y11.5522 
G01 X10.9459 Y11.7453 
G01 X10.8857 Y11.8633 
G01 X15.2780 Y16.2556 
G01 X17.0486 Y16.2556 
G01 X17.1426 Y16.2808 
G01 X17.2268 Y16.3294 
G01 X17.2956 Y16.3982 
G01 X17.7920 Y16.8946 
G01 X18.4030 Y16.8946 
G01 X18.4454 Y16.9122 
G00 Z2.5400 
G00 X18.1194 Y12.2494 
G01 Z-0.1200 F100.00 
G01 X17.4406 Y12.2494 F230.00 
G01 X16.9606 Y11.7694 
G01 X16.9606 Y11.0906 
G01 X17.4406 Y10.6106 
G01 X18.1194 Y10.6106 
G01 X18.5994 Y11.0906 
G01 X18.5994 Y11.7694 
G01 X18.1194 Y12.2494 
G00 Z2.5400 
G00 X18.1194 Y9.7094 
G01 Z-0.1200 F100.00 
G01 X17.4406 Y9.7094 F230.00 
G01 X16.9606 Y9.2294 
G01 X16.9606 Y8.5506 
G01 X17.1306 Y8.3806 
G01 X17.1306 Y5.7954 
G01 X16.9870 Y5.7954 
G01 X16.9446 Y5.7778 
G01 X16.9122 Y5.7454 
G01 X16.8946 Y5.7030 
G01 X16.8946 Y4.4570 
G01 X16.9122 Y4.4146 
G01 X16.9446 Y4.3822 
G01 X16.9870 Y4.3646 
G01 X17.8330 Y4.3646 
G01 X17.8754 Y4.3822 
G01 X17.9078 Y4.4146 
G01 X17.9254 Y4.4570 
G01 X17.9254 Y5.7030 
G01 X17.9078 Y5.7454 
G01 X17.8754 Y5.7778 
G01 X17.8694 Y5.7803 
G01 X17.8694 Y6.2556 
G01 X37.1736 Y6.2556 
G01 X37.2676 Y6.2808 
G01 X37.3518 Y6.3294 
G01 X37.4206 Y6.3982 
G01 X37.4692 Y6.4824 
G01 X37.4944 Y6.5764 
G01 X37.4944 Y21.0486 
G01 X37.4692 Y21.1426 
G01 X37.4206 Y21.2268 
G01 X37.3518 Y21.2956 
G01 X34.4689 Y24.1785 
G01 X34.4689 Y24.6989 
G01 X34.4344 Y24.7822 
G01 X34.3707 Y24.8459 
G01 X34.2874 Y24.8804 
G01 X33.5306 Y24.8804 
G01 X33.4473 Y24.8459 
G01 X33.3836 Y24.7822 
G01 X33.3491 Y24.6989 
G01 X33.3491 Y23.5611 
G01 X33.3836 Y23.4778 
G01 X33.4473 Y23.4141 
G01 X33.5306 Y23.3796 
G01 X34.2230 Y23.3796 
G01 X36.7556 Y20.8470 
G01 X36.7556 Y6.9944 
G01 X17.8694 Y6.9944 
G01 X17.8694 Y8.0706 
G01 X18.1194 Y8.0706 
G01 X18.5994 Y8.5506 
G01 X18.5994 Y9.2294 
G01 X18.1194 Y9.7094 
G00 Z2.5400 
G00 X19.9806 Y9.7094 
G01 Z-0.1200 F100.00 
G01 X19.5006 Y9.2294 F230.00 
G01 X19.5006 Y8.5506 
G01 X19.9806 Y8.0706 
G01 X20.6594 Y8.0706 
G01 X21.1394 Y8.5506 
G01 X21.1394 Y9.2294 
G01 X20.6594 Y9.7094 
G01 X19.9806 Y9.7094 
G00 Z2.5400 
G00 X22.5206 Y9.7094 
G01 Z-0.1200 F100.00 
G01 X22.0406 Y9.2294 F230.00 
G01 X22.0406 Y8.5506 
G01 X22.5206 Y8.0706 
G01 X23.1994 Y8.0706 
G01 X23.6794 Y8.5506 
G01 X23.6794 Y9.2294 
G01 X23.1994 Y9.7094 
G01 X22.5206 Y9.7094 
G00 Z2.5400 
G00 X25.0606 Y9.7094 
G01 Z-0.1200 F100.00 
G01 X24.5806 Y9.2294 F230.00 
G01 X24.5806 Y8.5506 
G01 X25.0606 Y8.0706 
G01 X25.7394 Y8.0706 
G01 X26.2194 Y8.5506 
G01 X26.2194 Y9.2294 
G01 X25.7394 Y9.7094 
G01 X25.0606 Y9.7094 
G00 Z2.5400 
G00 X33.6407 Y11.9094 
G01 Z-0.1200 F100.00 
G01 X33.7844 Y11.7657 F230.00 
G01 X33.9487 Y11.6463 
G01 X34.1297 Y11.5541 
G01 X34.3228 Y11.4914 
G01 X34.5234 Y11.4596 
G01 X34.7266 Y11.4596 
G01 X34.9272 Y11.4914 
G01 X35.1203 Y11.5541 
G01 X35.3013 Y11.6463 
G01 X35.4656 Y11.7657 
G01 X35.6093 Y11.9094 
G01 X35.7286 Y12.0737 
G01 X35.8209 Y12.2547 
G01 X35.8836 Y12.4478 
G01 X35.9154 Y12.6484 
G01 X35.9154 Y12.8516 
G01 X35.8836 Y13.0522 
G01 X35.8209 Y13.2453 
G01 X35.7286 Y13.4263 
G01 X35.6093 Y13.5906 
G01 X35.4656 Y13.7343 
G01 X35.3694 Y13.8042 
G01 X35.3694 Y17.4236 
G01 X35.3442 Y17.5176 
G01 X35.2956 Y17.6018 
G01 X35.2268 Y17.6706 
G01 X34.7268 Y18.1706 
G01 X34.6426 Y18.2192 
G01 X34.5486 Y18.2444 
G01 X34.3694 Y18.2444 
G01 X34.3694 Y19.6035 
G01 X34.4344 Y19.6678 
G01 X34.4689 Y19.7511 
G01 X34.4689 Y20.8889 
G01 X34.4344 Y20.9722 
G01 X34.3707 Y21.0359 
G01 X34.2874 Y21.0704 
G01 X33.5306 Y21.0704 
G01 X33.4473 Y21.0359 
G01 X33.3836 Y20.9722 
G01 X33.3491 Y20.8889 
G01 X33.3491 Y19.7511 
G01 X33.3836 Y19.6678 
G01 X33.4473 Y19.6041 
G01 X33.5306 Y19.5696 
G01 X33.6306 Y19.5696 
G01 X33.6306 Y17.8264 
G01 X33.6558 Y17.7324 
G01 X33.7044 Y17.6482 
G01 X33.7732 Y17.5794 
G01 X33.8574 Y17.5308 
G01 X33.9514 Y17.5056 
G01 X34.3470 Y17.5056 
G01 X34.6306 Y17.2220 
G01 X34.6306 Y14.0404 
G01 X34.5234 Y14.0404 
G01 X34.3228 Y14.0086 
G01 X34.1297 Y13.9459 
G01 X33.9487 Y13.8536 
G01 X33.7844 Y13.7343 
G01 X33.6407 Y13.5906 
G01 X33.5213 Y13.4263 
G01 X33.4291 Y13.2453 
G01 X33.3664 Y13.0522 
G01 X33.3346 Y12.8516 
G01 X33.3346 Y12.6484 
G01 X33.3664 Y12.4478 
G01 X33.4291 Y12.2547 
G01 X33.5213 Y12.0737 
G01 X33.6407 Y11.9094 
G00 Z2.5400 
G00 X33.5306 Y30.9996 
G01 Z-0.1200 F100.00 
G01 X34.2874 Y30.9996 F230.00 
G01 X34.3707 Y31.0341 
G01 X34.4344 Y31.0978 
G01 X34.4689 Y31.1811 
G01 X34.4689 Y32.3189 
G01 X34.4344 Y32.4022 
G01 X34.3707 Y32.4659 
G01 X34.3694 Y36.1256 
G01 X34.3854 Y36.1322 
G01 X34.4178 Y36.1646 
G01 X34.4354 Y36.2070 
G01 X34.4354 Y37.4530 
G01 X34.4178 Y37.4954 
G01 X34.3854 Y37.5278 
G01 X34.3430 Y37.5454 
G01 X33.4970 Y37.5454 
G01 X33.4546 Y37.5278 
G01 X33.4222 Y37.4954 
G01 X33.4046 Y37.4530 
G01 X33.4046 Y36.2070 
G01 X33.4222 Y36.1646 
G01 X33.4546 Y36.1322 
G01 X33.4970 Y36.1146 
G01 X33.6306 Y36.1146 
G01 X33.6306 Y32.5004 
G01 X33.5306 Y32.5004 
G01 X33.4473 Y32.4659 
G01 X33.3836 Y32.4022 
G01 X33.3491 Y32.3189 
G01 X33.3491 Y31.1811 
G01 X33.3836 Y31.0978 
G01 X33.4473 Y31.0341 
G01 X33.5306 Y30.9996 
G00 Z2.5400 
G00 X2.2577 Y4.4314 
G01 Z-0.1200 F100.00 
G01 X2.3994 Y4.2897 F230.00 
G01 X2.5661 Y4.1784 
G01 X2.7512 Y4.1017 
G01 X2.9478 Y4.0626 
G01 X4.6722 Y4.0626 
G01 X4.8688 Y4.1017 
G01 X5.0539 Y4.1784 
G01 X5.2206 Y4.2897 
G01 X5.3623 Y4.4314 
G01 X5.4736 Y4.5981 
G01 X5.5503 Y4.7832 
G01 X5.5894 Y4.9798 
G01 X5.5894 Y5.1802 
G01 X5.5503 Y5.3768 
G01 X5.4736 Y5.5619 
G01 X5.3623 Y5.7286 
G01 X5.2206 Y5.8703 
G01 X5.0539 Y5.9816 
G01 X4.8688 Y6.0583 
G01 X4.6722 Y6.0974 
G01 X2.9478 Y6.0974 
G01 X2.7512 Y6.0583 
G01 X2.5661 Y5.9816 
G01 X2.3994 Y5.8703 
G01 X2.2577 Y5.7286 
G01 X2.1464 Y5.5619 
G01 X2.0697 Y5.3768 
G01 X2.0306 Y5.1802 
G01 X2.0306 Y4.9798 
G01 X2.0697 Y4.7832 
G01 X2.1464 Y4.5981 
G01 X2.2577 Y4.4314 
G00 Z2.5400 
G00 X2.2577 Y6.9714 
G01 Z-0.1200 F100.00 
G01 X2.3994 Y6.8297 F230.00 
G01 X2.5661 Y6.7184 
G01 X2.7512 Y6.6417 
G01 X2.9478 Y6.6026 
G01 X4.6722 Y6.6026 
G01 X4.8688 Y6.6417 
G01 X5.0539 Y6.7184 
G01 X5.2206 Y6.8297 
G01 X5.3623 Y6.9714 
G01 X5.4736 Y7.1381 
G01 X5.5503 Y7.3232 
G01 X5.5894 Y7.5198 
G01 X5.5894 Y7.7202 
G01 X5.5503 Y7.9168 
G01 X5.4736 Y8.1019 
G01 X5.3623 Y8.2686 
G01 X5.2206 Y8.4103 
G01 X5.0539 Y8.5216 
G01 X4.8688 Y8.5983 
G01 X4.6722 Y8.6374 
G01 X2.9478 Y8.6374 
G01 X2.7512 Y8.5983 
G01 X2.5661 Y8.5216 
G01 X2.3994 Y8.4103 
G01 X2.2577 Y8.2686 
G01 X2.1464 Y8.1019 
G01 X2.0697 Y7.9168 
G01 X2.0306 Y7.7202 
G01 X2.0306 Y7.5198 
G01 X2.0697 Y7.3232 
G01 X2.1464 Y7.1381 
G01 X2.2577 Y6.9714 
G00 Z2.5400 
G00 X2.2577 Y13.3214 
G01 Z-0.1200 F100.00 
G01 X2.3994 Y13.1797 F230.00 
G01 X2.5661 Y13.0684 
G01 X2.7512 Y12.9917 
G01 X2.9478 Y12.9526 
G01 X4.6722 Y12.9526 
G01 X4.8688 Y12.9917 
G01 X5.0539 Y13.0684 
G01 X5.2206 Y13.1797 
G01 X5.3623 Y13.3214 
G01 X5.4736 Y13.4881 
G01 X5.5503 Y13.6732 
G01 X5.5894 Y13.8698 
G01 X5.5894 Y14.0702 
G01 X5.5503 Y14.2668 
G01 X5.4736 Y14.4519 
G01 X5.3623 Y14.6186 
G01 X5.2206 Y14.7603 
G01 X5.0539 Y14.8716 
G01 X4.8688 Y14.9483 
G01 X4.6722 Y14.9874 
G01 X2.9478 Y14.9874 
G01 X2.7512 Y14.9483 
G01 X2.5661 Y14.8716 
G01 X2.3994 Y14.7603 
G01 X2.2577 Y14.6186 
G01 X2.1464 Y14.4519 
G01 X2.0697 Y14.2668 
G01 X2.0306 Y14.0702 
G01 X2.0306 Y13.8698 
G01 X2.0697 Y13.6732 
G01 X2.1464 Y13.4881 
G01 X2.2577 Y13.3214 
G00 Z2.5400 
G00 X2.2577 Y15.8614 
G01 Z-0.1200 F100.00 
G01 X2.3994 Y15.7197 F230.00 
G01 X2.5661 Y15.6084 
G01 X2.7512 Y15.5317 
G01 X2.9478 Y15.4926 
G01 X4.6722 Y15.4926 
G01 X4.8688 Y15.5317 
G01 X5.0539 Y15.6084 
G01 X5.2206 Y15.7197 
G01 X5.3623 Y15.8614 
G01 X5.4736 Y16.0281 
G01 X5.5503 Y16.2132 
G01 X5.5894 Y16.4098 
G01 X5.5894 Y16.6102 
G01 X5.5503 Y16.8068 
G01 X5.4736 Y16.9919 
G01 X5.3623 Y17.1586 
G01 X5.2206 Y17.3003 
G01 X5.0539 Y17.4116 
G01 X4.8688 Y17.4883 
G01 X4.6722 Y17.5274 
G01 X2.9478 Y17.5274 
G01 X2.7512 Y17.4883 
G01 X2.5661 Y17.4116 
G01 X2.3994 Y17.3003 
G01 X2.2577 Y17.1586 
G01 X2.1464 Y16.9919 
G01 X2.0697 Y16.8068 
G01 X2.0306 Y16.6102 
G01 X2.0306 Y16.4098 
G01 X2.0697 Y16.2132 
G01 X2.1464 Y16.0281 
G01 X2.2577 Y15.8614 
G00 Z2.5400 
G00 X5.6156 Y18.4421 
G01 Z-0.1200 F100.00 
G01 X5.6156 Y2.8079 F230.00 
G01 X5.6503 Y2.6784 
G01 X5.7174 Y2.5622 
G01 X5.8122 Y2.4674 
G01 X5.9284 Y2.4003 
G01 X6.0579 Y2.3656 
G01 X9.1615 Y2.3656 
G01 X9.1744 Y2.3259 
G01 X9.2766 Y2.1253 
G01 X9.4090 Y1.9432 
G01 X9.5682 Y1.7839 
G01 X9.7503 Y1.6516 
G01 X9.9509 Y1.5494 
G01 X10.1650 Y1.4798 
G01 X10.3874 Y1.4446 
G01 X10.6126 Y1.4446 
G01 X10.8350 Y1.4798 
G01 X11.0491 Y1.5494 
G01 X11.2497 Y1.6516 
G01 X11.4318 Y1.7839 
G01 X11.5910 Y1.9432 
G01 X11.7234 Y2.1253 
G01 X11.8256 Y2.3259 
G01 X11.8952 Y2.5400 
G01 X11.9304 Y2.7624 
G01 X11.9304 Y2.9876 
G01 X11.8952 Y3.2100 
G01 X11.8256 Y3.4241 
G01 X11.7234 Y3.6247 
G01 X11.5910 Y3.8068 
G01 X11.4318 Y3.9660 
G01 X11.2497 Y4.0984 
G01 X11.0491 Y4.2006 
G01 X10.8350 Y4.2702 
G01 X10.6126 Y4.3054 
G01 X10.3874 Y4.3054 
G01 X10.1650 Y4.2702 
G01 X9.9509 Y4.2006 
G01 X9.7503 Y4.0984 
G01 X9.5682 Y3.9660 
G01 X9.4090 Y3.8068 
G01 X9.2766 Y3.6247 
G01 X9.1744 Y3.4241 
G01 X9.1615 Y3.3844 
G01 X6.6344 Y3.3844 
G01 X6.6344 Y18.1640 
G01 X8.4610 Y19.9906 
G01 X18.2890 Y19.9906 
G01 X20.7346 Y17.5450 
G01 X20.7346 Y16.9764 
G01 X20.7520 Y16.9114 
G01 X20.7856 Y16.8532 
G01 X20.8332 Y16.8056 
G01 X20.8914 Y16.7720 
G01 X20.9564 Y16.7546 
G01 X22.2236 Y16.7546 
G01 X22.2886 Y16.7720 
G01 X22.3468 Y16.8056 
G01 X22.3944 Y16.8532 
G01 X22.4280 Y16.9114 
G01 X22.4454 Y16.9764 
G01 X22.4454 Y17.8342 
G01 X23.6156 Y16.6640 
G01 X23.6156 Y15.8079 
G01 X23.6503 Y15.6784 
G01 X23.7174 Y15.5622 
G01 X23.8122 Y15.4674 
G01 X23.9284 Y15.4003 
G01 X24.0579 Y15.3656 
G01 X24.5446 Y15.3656 
G01 X24.5446 Y15.1764 
G01 X24.5620 Y15.1114 
G01 X24.5956 Y15.0532 
G01 X24.6432 Y15.0056 
G01 X24.7014 Y14.9720 
G01 X24.7664 Y14.9546 
G01 X24.8656 Y14.9546 
G01 X24.8656 Y12.2524 
G01 X24.4406 Y11.8274 
G01 X24.4406 Y11.0326 
G01 X25.0026 Y10.4706 
G01 X25.7974 Y10.4706 
G01 X26.3594 Y11.0326 
G01 X26.3594 Y11.8274 
G01 X25.8844 Y12.3024 
G01 X25.8844 Y14.9546 
G01 X26.0336 Y14.9546 
G01 X26.0986 Y14.9720 
G01 X26.1568 Y15.0056 
G01 X26.2044 Y15.0532 
G01 X26.2380 Y15.1114 
G01 X26.2554 Y15.1764 
G01 X26.2554 Y16.0436 
G01 X26.2380 Y16.1086 
G01 X26.2044 Y16.1668 
G01 X26.1568 Y16.2144 
G01 X26.0986 Y16.2480 
G01 X26.0336 Y16.2654 
G01 X25.7050 Y16.2654 
G01 X25.6878 Y16.2826 
G01 X25.6668 Y16.2947 
G01 X25.6481 Y16.3102 
G01 X25.6089 Y16.3281 
G01 X25.5716 Y16.3497 
G01 X25.5482 Y16.3560 
G01 X25.5262 Y16.3661 
G01 X25.4837 Y16.3732 
G01 X25.4421 Y16.3844 
G01 X25.4178 Y16.3844 
G01 X25.3939 Y16.3884 
G01 X25.3510 Y16.3844 
G01 X24.6344 Y16.3844 
G01 X24.6344 Y16.8144 
G01 X24.6432 Y16.8056 
G01 X24.7014 Y16.7720 
G01 X24.7664 Y16.7546 
G01 X26.0336 Y16.7546 
G01 X26.0986 Y16.7720 
G01 X26.1568 Y16.8056 
G01 X26.2044 Y16.8532 
G01 X26.2380 Y16.9114 
G01 X26.2554 Y16.9764 
G01 X26.2554 Y17.8436 
G01 X26.2380 Y17.9086 
G01 X26.2044 Y17.9668 
G01 X26.1568 Y18.0144 
G01 X26.0986 Y18.0480 
G01 X26.0336 Y18.0654 
G01 X25.5300 Y18.0654 
G01 X24.1308 Y19.4646 
G01 X24.9336 Y19.4646 
G01 X24.9986 Y19.4820 
G01 X25.0568 Y19.5156 
G01 X25.1044 Y19.5632 
G01 X25.1380 Y19.6214 
G01 X25.1554 Y19.6864 
G01 X25.1554 Y20.9536 
G01 X25.1380 Y21.0186 
G01 X25.1044 Y21.0768 
G01 X25.0568 Y21.1244 
G01 X25.0094 Y21.1517 
G01 X25.0094 Y23.2983 
G01 X25.0568 Y23.3256 
G01 X25.1044 Y23.3732 
G01 X25.1380 Y23.4314 
G01 X25.1554 Y23.4964 
G01 X25.1554 Y24.7636 
G01 X25.1380 Y24.8286 
G01 X25.1044 Y24.8868 
G01 X25.0568 Y24.9344 
G01 X25.0094 Y24.9617 
G01 X25.0094 Y27.1083 
G01 X25.0568 Y27.1356 
G01 X25.1044 Y27.1832 
G01 X25.1380 Y27.2414 
G01 X25.1554 Y27.3064 
G01 X25.1554 Y28.5736 
G01 X25.1380 Y28.6386 
G01 X25.1044 Y28.6968 
G01 X25.0568 Y28.7444 
G01 X25.0094 Y28.7717 
G01 X25.0094 Y30.9183 
G01 X25.0568 Y30.9456 
G01 X25.1044 Y30.9932 
G01 X25.1380 Y31.0514 
G01 X25.1554 Y31.1164 
G01 X25.1554 Y31.9350 
G01 X25.6595 Y32.4391 
G01 X25.6446 Y32.3836 
G01 X25.6446 Y31.1164 
G01 X25.6620 Y31.0514 
G01 X25.6956 Y30.9932 
G01 X25.7432 Y30.9456 
G01 X25.8014 Y30.9120 
G01 X25.8664 Y30.8946 
G01 X26.5100 Y30.8946 
G01 X29.7174 Y27.6872 
G01 X29.8122 Y27.5924 
G01 X29.9284 Y27.5253 
G01 X30.0579 Y27.4906 
G01 X31.4311 Y27.4906 
G01 X31.4311 Y27.3679 
G01 X31.4561 Y27.2747 
G01 X31.5043 Y27.1911 
G01 X31.5726 Y27.1228 
G01 X31.6562 Y27.0746 
G01 X31.7494 Y27.0496 
G01 X32.5126 Y27.0496 
G01 X32.6058 Y27.0746 
G01 X32.6894 Y27.1228 
G01 X32.7577 Y27.1911 
G01 X32.8059 Y27.2747 
G01 X32.8309 Y27.3679 
G01 X32.8309 Y28.5121 
G01 X32.8059 Y28.6053 
G01 X32.7577 Y28.6889 
G01 X32.6894 Y28.7572 
G01 X32.6058 Y28.8054 
G01 X32.5126 Y28.8304 
G01 X31.7494 Y28.8304 
G01 X31.6562 Y28.8054 
G01 X31.5726 Y28.7572 
G01 X31.5043 Y28.6889 
G01 X31.4561 Y28.6053 
G01 X31.4311 Y28.5121 
G01 X31.4311 Y28.5094 
G01 X30.3360 Y28.5094 
G01 X26.9554 Y31.8900 
G01 X26.9554 Y32.3836 
G01 X26.9380 Y32.4486 
G01 X26.9044 Y32.5068 
G01 X26.8568 Y32.5544 
G01 X26.7986 Y32.5880 
G01 X26.7336 Y32.6054 
G01 X25.8664 Y32.6054 
G01 X25.8109 Y32.5905 
G01 X27.0860 Y33.8656 
G01 X27.8171 Y33.8656 
G01 X27.9466 Y33.9003 
G01 X28.0628 Y33.9674 
G01 X31.1250 Y37.0296 
G01 X31.4646 Y36.6900 
G01 X31.4646 Y36.1964 
G01 X31.4820 Y36.1314 
G01 X31.5156 Y36.0732 
G01 X31.5632 Y36.0256 
G01 X31.6214 Y35.9920 
G01 X31.6864 Y35.9746 
G01 X32.5536 Y35.9746 
G01 X32.6186 Y35.9920 
G01 X32.6768 Y36.0256 
G01 X32.7244 Y36.0732 
G01 X32.7580 Y36.1314 
G01 X32.7754 Y36.1964 
G01 X32.7754 Y37.4636 
G01 X32.7580 Y37.5286 
G01 X32.7244 Y37.5868 
G01 X32.6768 Y37.6344 
G01 X32.6186 Y37.6680 
G01 X32.5536 Y37.6854 
G01 X31.9100 Y37.6854 
G01 X31.5326 Y38.0628 
G01 X31.4378 Y38.1576 
G01 X28.9076 Y40.6878 
G01 X28.8128 Y40.7826 
G01 X28.6966 Y40.8497 
G01 X28.5671 Y40.8844 
G01 X24.7918 Y40.8844 
G01 X24.7918 Y41.0546 
G01 X24.7744 Y41.1196 
G01 X24.7408 Y41.1778 
G01 X24.6932 Y41.2254 
G01 X24.6350 Y41.2590 
G01 X24.5700 Y41.2764 
G01 X22.2676 Y41.2764 
G01 X22.2026 Y41.2590 
G01 X22.1444 Y41.2254 
G01 X22.0968 Y41.1778 
G01 X22.0718 Y41.1344 
G01 X11.3360 Y41.1344 
G01 X11.1774 Y41.2930 
G01 X11.1774 Y41.5022 
G01 X11.1383 Y41.6988 
G01 X11.0616 Y41.8839 
G01 X11.0094 Y41.9621 
G01 X11.0094 Y42.0671 
G01 X10.9747 Y42.1966 
G01 X10.9076 Y42.3128 
G01 X10.8128 Y42.4076 
G01 X10.6966 Y42.4747 
G01 X10.6372 Y42.4906 
G01 X34.4906 Y42.4906 
G01 X34.4906 Y37.6206 
G01 X34.4768 Y37.6344 
G01 X34.4186 Y37.6680 
G01 X34.3536 Y37.6854 
G01 X33.4864 Y37.6854 
G01 X33.4214 Y37.6680 
G01 X33.3632 Y37.6344 
G01 X33.3156 Y37.5868 
G01 X33.2820 Y37.5286 
G01 X33.2646 Y37.4636 
G01 X33.2646 Y36.1964 
G01 X33.2820 Y36.1314 
G01 X33.3156 Y36.0732 
G01 X33.3632 Y36.0256 
G01 X33.4214 Y35.9920 
G01 X33.4864 Y35.9746 
G01 X33.4906 Y35.9746 
G01 X33.4906 Y32.6305 
G01 X33.4342 Y32.6154 
G01 X33.3506 Y32.5672 
G01 X33.2823 Y32.4989 
G01 X33.2341 Y32.4153 
G01 X33.2091 Y32.3221 
G01 X33.2091 Y31.1779 
G01 X33.2341 Y31.0846 
G01 X33.2823 Y31.0011 
G01 X33.3506 Y30.9328 
G01 X33.4342 Y30.8846 
G01 X33.5274 Y30.8596 
G01 X33.8404 Y30.8596 
G01 X33.8034 Y30.8497 
G01 X33.6872 Y30.7826 
G01 X33.5924 Y30.6878 
G01 X33.5253 Y30.5716 
G01 X33.4906 Y30.4421 
G01 X33.4906 Y28.8205 
G01 X33.4342 Y28.8054 
G01 X33.3506 Y28.7572 
G01 X33.2823 Y28.6889 
G01 X33.2341 Y28.6053 
G01 X33.2091 Y28.5121 
G01 X33.2091 Y27.3679 
G01 X33.2341 Y27.2747 
G01 X33.2823 Y27.1911 
G01 X33.3506 Y27.1228 
G01 X33.4342 Y27.0746 
G01 X33.5274 Y27.0496 
G01 X34.2906 Y27.0496 
G01 X34.3838 Y27.0746 
G01 X34.4674 Y27.1228 
G01 X34.5357 Y27.1911 
G01 X34.5839 Y27.2747 
G01 X34.6089 Y27.3679 
G01 X34.6089 Y28.5121 
G01 X34.5839 Y28.6053 
G01 X34.5357 Y28.6889 
G01 X34.5094 Y28.7152 
G01 X34.5094 Y29.8656 
G01 X34.5671 Y29.8656 
G01 X34.6966 Y29.9003 
G01 X34.8128 Y29.9674 
G01 X35.3128 Y30.4674 
G01 X35.4076 Y30.5622 
G01 X35.4747 Y30.6784 
G01 X35.5094 Y30.8079 
G01 X35.5094 Y43.0671 
G01 X35.4747 Y43.1966 
G01 X35.4076 Y43.3128 
G01 X35.3128 Y43.4076 
G01 X35.1966 Y43.4747 
G01 X35.0671 Y43.5094 
G01 X7.0579 Y43.5094 
G01 X6.9284 Y43.4747 
G01 X6.8122 Y43.4076 
G01 X5.8122 Y42.4076 
G01 X5.7174 Y42.3128 
G01 X5.6503 Y42.1966 
G01 X5.6156 Y42.0671 
G01 X5.6156 Y21.4329 
G01 X5.6503 Y21.3034 
G01 X5.7174 Y21.1872 
G01 X5.8122 Y21.0924 
G01 X5.9284 Y21.0253 
G01 X6.0579 Y20.9906 
G01 X8.1128 Y20.9906 
G01 X8.0534 Y20.9747 
G01 X7.9372 Y20.9076 
G01 X5.8122 Y18.7826 
G01 X5.7174 Y18.6878 
G01 X5.6503 Y18.5716 
G01 X5.6156 Y18.4421 
G00 Z2.5400 
G00 X6.9372 Y18.4076 
G01 Z-0.1200 F100.00 
G01 X6.8424 Y18.3128 F230.00 
G01 X6.7753 Y18.1966 
G01 X6.7406 Y18.0671 
G01 X6.7406 Y10.1829 
G01 X6.7753 Y10.0534 
G01 X6.8424 Y9.9372 
G01 X6.9372 Y9.8424 
G01 X8.4372 Y8.3424 
G01 X8.5534 Y8.2753 
G01 X8.6829 Y8.2406 
G01 X11.6640 Y8.2406 
G01 X14.9546 Y4.9500 
G01 X14.9546 Y4.4464 
G01 X14.9720 Y4.3814 
G01 X15.0056 Y4.3232 
G01 X15.0532 Y4.2756 
G01 X15.1114 Y4.2420 
G01 X15.1764 Y4.2246 
G01 X16.0436 Y4.2246 
G01 X16.1086 Y4.2420 
G01 X16.1668 Y4.2756 
G01 X16.2144 Y4.3232 
G01 X16.2480 Y4.3814 
G01 X16.2654 Y4.4464 
G01 X16.2654 Y5.7136 
G01 X16.2480 Y5.7786 
G01 X16.2144 Y5.8368 
G01 X16.1668 Y5.8844 
G01 X16.1086 Y5.9180 
G01 X16.0436 Y5.9354 
G01 X15.4100 Y5.9354 
G01 X12.2826 Y9.0628 
G01 X12.1878 Y9.1576 
G01 X12.0716 Y9.2247 
G01 X11.9421 Y9.2594 
G01 X8.9610 Y9.2594 
G01 X7.7594 Y10.4610 
G01 X7.7594 Y17.4906 
G01 X7.9115 Y17.4906 
G01 X7.9244 Y17.4509 
G01 X8.0266 Y17.2503 
G01 X8.1590 Y17.0682 
G01 X8.3182 Y16.9090 
G01 X8.5003 Y16.7766 
G01 X8.7009 Y16.6744 
G01 X8.9150 Y16.6048 
G01 X9.1374 Y16.5696 
G01 X9.3626 Y16.5696 
G01 X9.5850 Y16.6048 
G01 X9.7991 Y16.6744 
G01 X9.9997 Y16.7766 
G01 X10.1818 Y16.9090 
G01 X10.3410 Y17.0682 
G01 X10.4734 Y17.2503 
G01 X10.5756 Y17.4509 
G01 X10.6452 Y17.6650 
G01 X10.6804 Y17.8874 
G01 X10.6804 Y18.1126 
G01 X10.6452 Y18.3350 
G01 X10.5756 Y18.5491 
G01 X10.4734 Y18.7497 
G01 X10.3410 Y18.9318 
G01 X10.1818 Y19.0910 
G01 X9.9997 Y19.2234 
G01 X9.7991 Y19.3256 
G01 X9.5850 Y19.3952 
G01 X9.3626 Y19.4304 
G01 X9.1374 Y19.4304 
G01 X8.9150 Y19.3952 
G01 X8.7009 Y19.3256 
G01 X8.5003 Y19.2234 
G01 X8.3182 Y19.0910 
G01 X8.1590 Y18.9318 
G01 X8.0266 Y18.7497 
G01 X7.9244 Y18.5491 
G01 X7.9115 Y18.5094 
G01 X7.1829 Y18.5094 
G01 X7.0534 Y18.4747 
G01 X6.9372 Y18.4076 
G00 Z2.5400 
G00 X6.6344 Y22.0094 
G01 Z-0.1200 F100.00 
G01 X6.6344 Y39.6179 F230.00 
G01 X6.6417 Y39.5812 
G01 X6.7184 Y39.3961 
G01 X6.8297 Y39.2294 
G01 X6.9714 Y39.0877 
G01 X7.1381 Y38.9764 
G01 X7.3232 Y38.8997 
G01 X7.5198 Y38.8606 
G01 X7.7202 Y38.8606 
G01 X7.9168 Y38.8997 
G01 X8.1019 Y38.9764 
G01 X8.2226 Y39.0570 
G01 X12.0622 Y35.2174 
G01 X12.1784 Y35.1503 
G01 X12.3079 Y35.1156 
G01 X22.0538 Y35.1156 
G01 X22.0632 Y35.0804 
G01 X22.0968 Y35.0222 
G01 X22.1444 Y34.9746 
G01 X22.2026 Y34.9410 
G01 X22.2676 Y34.9236 
G01 X24.5700 Y34.9236 
G01 X24.6350 Y34.9410 
G01 X24.6932 Y34.9746 
G01 X24.7408 Y35.0222 
G01 X24.7744 Y35.0804 
G01 X24.7918 Y35.1454 
G01 X24.7918 Y36.4318 
G01 X24.7744 Y36.4968 
G01 X24.7408 Y36.5550 
G01 X24.6932 Y36.6026 
G01 X24.6350 Y36.6362 
G01 X24.5700 Y36.6536 
G01 X22.2676 Y36.6536 
G01 X22.2026 Y36.6362 
G01 X22.1444 Y36.6026 
G01 X22.0968 Y36.5550 
G01 X22.0632 Y36.4968 
G01 X22.0458 Y36.4318 
G01 X22.0458 Y36.1344 
G01 X18.5166 Y36.1344 
G01 X18.5254 Y36.1432 
G01 X18.5590 Y36.2014 
G01 X18.5764 Y36.2664 
G01 X18.5764 Y39.9336 
G01 X18.5590 Y39.9986 
G01 X18.5254 Y40.0568 
G01 X18.4778 Y40.1044 
G01 X18.4584 Y40.1156 
G01 X22.0458 Y40.1156 
G01 X22.0458 Y39.7682 
G01 X22.0632 Y39.7032 
G01 X22.0968 Y39.6450 
G01 X22.1444 Y39.5974 
G01 X22.2026 Y39.5638 
G01 X22.2676 Y39.5464 
G01 X24.5700 Y39.5464 
G01 X24.6350 Y39.5638 
G01 X24.6932 Y39.5974 
G01 X24.7408 Y39.6450 
G01 X24.7744 Y39.7032 
G01 X24.7918 Y39.7682 
G01 X24.7918 Y39.8656 
G01 X28.2890 Y39.8656 
G01 X30.4046 Y37.7500 
G01 X27.5390 Y34.8844 
G01 X26.8079 Y34.8844 
G01 X26.6784 Y34.8497 
G01 X26.5622 Y34.7826 
G01 X26.4674 Y34.6878 
G01 X24.3850 Y32.6054 
G01 X24.0664 Y32.6054 
G01 X24.0014 Y32.5880 
G01 X23.9432 Y32.5544 
G01 X23.8956 Y32.5068 
G01 X23.8620 Y32.4486 
G01 X23.8446 Y32.3836 
G01 X23.8446 Y31.1164 
G01 X23.8620 Y31.0514 
G01 X23.8956 Y30.9932 
G01 X23.9432 Y30.9456 
G01 X23.9906 Y30.9183 
G01 X23.9906 Y28.7717 
G01 X23.9432 Y28.7444 
G01 X23.8956 Y28.6968 
G01 X23.8620 Y28.6386 
G01 X23.8446 Y28.5736 
G01 X23.8446 Y27.3064 
G01 X23.8620 Y27.2414 
G01 X23.8956 Y27.1832 
G01 X23.9432 Y27.1356 
G01 X23.9906 Y27.1083 
G01 X23.9906 Y24.9617 
G01 X23.9432 Y24.9344 
G01 X23.8956 Y24.8868 
G01 X23.8620 Y24.8286 
G01 X23.8446 Y24.7636 
G01 X23.8446 Y23.4964 
G01 X23.8620 Y23.4314 
G01 X23.8956 Y23.3732 
G01 X23.9432 Y23.3256 
G01 X23.9906 Y23.2983 
G01 X23.9906 Y21.1517 
G01 X23.9432 Y21.1244 
G01 X23.8956 Y21.0768 
G01 X23.8620 Y21.0186 
G01 X23.8446 Y20.9536 
G01 X23.8446 Y19.7508 
G01 X14.2826 Y29.3128 
G01 X14.1878 Y29.4076 
G01 X14.0716 Y29.4747 
G01 X13.9421 Y29.5094 
G01 X11.0885 Y29.5094 
G01 X11.0756 Y29.5491 
G01 X10.9734 Y29.7497 
G01 X10.8410 Y29.9318 
G01 X10.6818 Y30.0910 
G01 X10.4997 Y30.2234 
G01 X10.2991 Y30.3256 
G01 X10.0850 Y30.3952 
G01 X9.8626 Y30.4304 
G01 X9.6374 Y30.4304 
G01 X9.4150 Y30.3952 
G01 X9.2009 Y30.3256 
G01 X9.0003 Y30.2234 
G01 X8.8182 Y30.0910 
G01 X8.6590 Y29.9318 
G01 X8.5266 Y29.7497 
G01 X8.4244 Y29.5491 
G01 X8.3548 Y29.3350 
G01 X8.3196 Y29.1126 
G01 X8.3196 Y28.8874 
G01 X8.3548 Y28.6650 
G01 X8.4244 Y28.4509 
G01 X8.5266 Y28.2503 
G01 X8.6590 Y28.0682 
G01 X8.8182 Y27.9090 
G01 X9.0003 Y27.7766 
G01 X9.2009 Y27.6744 
G01 X9.4150 Y27.6048 
G01 X9.6374 Y27.5696 
G01 X9.8626 Y27.5696 
G01 X10.0850 Y27.6048 
G01 X10.2991 Y27.6744 
G01 X10.4997 Y27.7766 
G01 X10.6818 Y27.9090 
G01 X10.8410 Y28.0682 
G01 X10.9734 Y28.2503 
G01 X11.0756 Y28.4509 
G01 X11.0885 Y28.4906 
G01 X13.6640 Y28.4906 
G01 X24.5446 Y17.6100 
G01 X24.5446 Y17.1670 
G01 X24.5326 Y17.1878 
G01 X24.4378 Y17.2826 
G01 X19.8128 Y21.9076 
G01 X19.6966 Y21.9747 
G01 X19.5671 Y22.0094 
G01 X6.6344 Y22.0094 
G00 Z2.5400 
G00 X5.2206 Y22.0697 
G01 Z-0.1200 F100.00 
G01 X5.3623 Y22.2114 F230.00 
G01 X5.4736 Y22.3781 
G01 X5.5503 Y22.5632 
G01 X5.5894 Y22.7598 
G01 X5.5894 Y22.9602 
G01 X5.5503 Y23.1568 
G01 X5.4736 Y23.3419 
G01 X5.3623 Y23.5086 
G01 X5.2206 Y23.6503 
G01 X5.0539 Y23.7616 
G01 X4.8688 Y23.8383 
G01 X4.6722 Y23.8774 
G01 X2.9478 Y23.8774 
G01 X2.7512 Y23.8383 
G01 X2.5661 Y23.7616 
G01 X2.3994 Y23.6503 
G01 X2.2577 Y23.5086 
G01 X2.1464 Y23.3419 
G01 X2.0697 Y23.1568 
G01 X2.0306 Y22.9602 
G01 X2.0306 Y22.7598 
G01 X2.0697 Y22.5632 
G01 X2.1464 Y22.3781 
G01 X2.2577 Y22.2114 
G01 X2.3994 Y22.0697 
G01 X2.5661 Y21.9584 
G01 X2.7512 Y21.8817 
G01 X2.9478 Y21.8426 
G01 X4.6722 Y21.8426 
G01 X4.8688 Y21.8817 
G01 X5.0539 Y21.9584 
G01 X5.2206 Y22.0697 
G00 Z2.5400 
G00 X5.2206 Y24.6097 
G01 Z-0.1200 F100.00 
G01 X5.3623 Y24.7514 F230.00 
G01 X5.4736 Y24.9181 
G01 X5.5503 Y25.1032 
G01 X5.5894 Y25.2998 
G01 X5.5894 Y25.5002 
G01 X5.5503 Y25.6968 
G01 X5.4736 Y25.8819 
G01 X5.3623 Y26.0486 
G01 X5.2206 Y26.1903 
G01 X5.0539 Y26.3016 
G01 X4.8688 Y26.3783 
G01 X4.6722 Y26.4174 
G01 X2.9478 Y26.4174 
G01 X2.7512 Y26.3783 
G01 X2.5661 Y26.3016 
G01 X2.3994 Y26.1903 
G01 X2.2577 Y26.0486 
G01 X2.1464 Y25.8819 
G01 X2.0697 Y25.6968 
G01 X2.0306 Y25.5002 
G01 X2.0306 Y25.2998 
G01 X2.0697 Y25.1032 
G01 X2.1464 Y24.9181 
G01 X2.2577 Y24.7514 
G01 X2.3994 Y24.6097 
G01 X2.5661 Y24.4984 
G01 X2.7512 Y24.4217 
G01 X2.9478 Y24.3826 
G01 X4.6722 Y24.3826 
G01 X4.8688 Y24.4217 
G01 X5.0539 Y24.4984 
G01 X5.2206 Y24.6097 
G00 Z2.5400 
G00 X5.2206 Y30.9597 
G01 Z-0.1200 F100.00 
G01 X5.3623 Y31.1014 F230.00 
G01 X5.4736 Y31.2681 
G01 X5.5503 Y31.4532 
G01 X5.5894 Y31.6498 
G01 X5.5894 Y31.8502 
G01 X5.5503 Y32.0468 
G01 X5.4736 Y32.2319 
G01 X5.3623 Y32.3986 
G01 X5.2206 Y32.5403 
G01 X5.0539 Y32.6516 
G01 X4.8688 Y32.7283 
G01 X4.6722 Y32.7674 
G01 X2.9478 Y32.7674 
G01 X2.7512 Y32.7283 
G01 X2.5661 Y32.6516 
G01 X2.3994 Y32.5403 
G01 X2.2577 Y32.3986 
G01 X2.1464 Y32.2319 
G01 X2.0697 Y32.0468 
G01 X2.0306 Y31.8502 
G01 X2.0306 Y31.6498 
G01 X2.0697 Y31.4532 
G01 X2.1464 Y31.2681 
G01 X2.2577 Y31.1014 
G01 X2.3994 Y30.9597 
G01 X2.5661 Y30.8484 
G01 X2.7512 Y30.7717 
G01 X2.9478 Y30.7326 
G01 X4.6722 Y30.7326 
G01 X4.8688 Y30.7717 
G01 X5.0539 Y30.8484 
G01 X5.2206 Y30.9597 
G00 Z2.5400 
G00 X5.2206 Y33.4997 
G01 Z-0.1200 F100.00 
G01 X5.3623 Y33.6414 F230.00 
G01 X5.4736 Y33.8081 
G01 X5.5503 Y33.9932 
G01 X5.5894 Y34.1898 
G01 X5.5894 Y34.3902 
G01 X5.5503 Y34.5868 
G01 X5.4736 Y34.7719 
G01 X5.3623 Y34.9386 
G01 X5.2206 Y35.0803 
G01 X5.0539 Y35.1916 
G01 X4.8688 Y35.2683 
G01 X4.6722 Y35.3074 
G01 X2.9478 Y35.3074 
G01 X2.7512 Y35.2683 
G01 X2.5661 Y35.1916 
G01 X2.3994 Y35.0803 
G01 X2.2577 Y34.9386 
G01 X2.1464 Y34.7719 
G01 X2.0697 Y34.5868 
G01 X2.0306 Y34.3902 
G01 X2.0306 Y34.1898 
G01 X2.0697 Y33.9932 
G01 X2.1464 Y33.8081 
G01 X2.2577 Y33.6414 
G01 X2.3994 Y33.4997 
G01 X2.5661 Y33.3884 
G01 X2.7512 Y33.3117 
G01 X2.9478 Y33.2726 
G01 X4.6722 Y33.2726 
G01 X4.8688 Y33.3117 
G01 X5.0539 Y33.3884 
G01 X5.2206 Y33.4997 
G00 Z2.5400 
G00 X6.6344 Y41.6621 
G01 Z-0.1200 F100.00 
G01 X6.6344 Y41.7890 F230.00 
G01 X6.7107 Y41.8653 
G01 X6.6417 Y41.6988 
G01 X6.6344 Y41.6621 
G00 Z2.5400 
G00 X7.1567 Y42.3113 
G01 Z-0.1200 F100.00 
G01 X7.3360 Y42.4906 F230.00 
G01 X10.3628 Y42.4906 
G01 X10.3034 Y42.4747 
G01 X10.2076 Y42.4194 
G01 X10.0598 Y42.4194 
G01 X9.8632 Y42.3803 
G01 X9.6781 Y42.3036 
G01 X9.5114 Y42.1923 
G01 X9.3697 Y42.0506 
G01 X9.2584 Y41.8839 
G01 X9.1817 Y41.6988 
G01 X9.1426 Y41.5022 
G01 X9.1426 Y39.7778 
G01 X9.1817 Y39.5812 
G01 X9.2118 Y39.5086 
G01 X8.6374 Y40.0830 
G01 X8.6374 Y41.5022 
G01 X8.5983 Y41.6988 
G01 X8.5216 Y41.8839 
G01 X8.4103 Y42.0506 
G01 X8.2686 Y42.1923 
G01 X8.1019 Y42.3036 
G01 X7.9168 Y42.3803 
G01 X7.7202 Y42.4194 
G01 X7.5198 Y42.4194 
G01 X7.3232 Y42.3803 
G01 X7.1567 Y42.3113 
G00 Z2.5400 
G00 X9.7906 Y38.9298 
G01 Z-0.1200 F100.00 
G01 X9.8632 Y38.8997 F230.00 
G01 X10.0598 Y38.8606 
G01 X10.2602 Y38.8606 
G01 X10.4568 Y38.8997 
G01 X10.6419 Y38.9764 
G01 X10.8086 Y39.0877 
G01 X10.9503 Y39.2294 
G01 X11.0616 Y39.3961 
G01 X11.1383 Y39.5812 
G01 X11.1774 Y39.7778 
G01 X11.1774 Y40.1156 
G01 X15.9836 Y40.1156 
G01 X15.9642 Y40.1044 
G01 X15.9166 Y40.0568 
G01 X15.8830 Y39.9986 
G01 X15.8656 Y39.9336 
G01 X15.8656 Y36.2664 
G01 X15.8830 Y36.2014 
G01 X15.9166 Y36.1432 
G01 X15.9254 Y36.1344 
G01 X12.5860 Y36.1344 
G01 X9.7906 Y38.9298 
G00 Z2.5400 
G00 X22.1444 Y38.9140 
G01 Z-0.1200 F100.00 
G01 X22.0968 Y38.8664 F230.00 
G01 X22.0632 Y38.8082 
G01 X22.0458 Y38.7432 
G01 X22.0458 Y37.4568 
G01 X22.0632 Y37.3918 
G01 X22.0968 Y37.3336 
G01 X22.1444 Y37.2860 
G01 X22.2026 Y37.2524 
G01 X22.2676 Y37.2350 
G01 X24.5700 Y37.2350 
G01 X24.6350 Y37.2524 
G01 X24.6932 Y37.2860 
G01 X24.7408 Y37.3336 
G01 X24.7744 Y37.3918 
G01 X24.7918 Y37.4568 
G01 X24.7918 Y37.4906 
G01 X25.4140 Y37.4906 
G01 X25.4433 Y37.4613 
G01 X25.4244 Y37.4241 
G01 X25.3548 Y37.2100 
G01 X25.3196 Y36.9876 
G01 X25.3196 Y36.7624 
G01 X25.3548 Y36.5400 
G01 X25.4244 Y36.3259 
G01 X25.5266 Y36.1253 
G01 X25.6590 Y35.9432 
G01 X25.8182 Y35.7839 
G01 X26.0003 Y35.6516 
G01 X26.2009 Y35.5494 
G01 X26.4150 Y35.4798 
G01 X26.6374 Y35.4446 
G01 X26.8626 Y35.4446 
G01 X27.0850 Y35.4798 
G01 X27.2991 Y35.5494 
G01 X27.4997 Y35.6516 
G01 X27.6818 Y35.7839 
G01 X27.8410 Y35.9432 
G01 X27.9734 Y36.1253 
G01 X28.0756 Y36.3259 
G01 X28.1452 Y36.5400 
G01 X28.1804 Y36.7624 
G01 X28.1804 Y36.9876 
G01 X28.1452 Y37.2100 
G01 X28.0756 Y37.4241 
G01 X27.9734 Y37.6247 
G01 X27.8410 Y37.8068 
G01 X27.6818 Y37.9660 
G01 X27.4997 Y38.0984 
G01 X27.2991 Y38.2006 
G01 X27.0850 Y38.2702 
G01 X26.8626 Y38.3054 
G01 X26.6374 Y38.3054 
G01 X26.4150 Y38.2702 
G01 X26.2009 Y38.2006 
G01 X26.1637 Y38.1817 
G01 X26.0326 Y38.3128 
G01 X25.9378 Y38.4076 
G01 X25.8216 Y38.4747 
G01 X25.6921 Y38.5094 
G01 X24.7918 Y38.5094 
G01 X24.7918 Y38.7432 
G01 X24.7744 Y38.8082 
G01 X24.7408 Y38.8664 
G01 X24.6932 Y38.9140 
G01 X24.6350 Y38.9476 
G01 X24.5700 Y38.9650 
G01 X22.2676 Y38.9650 
G01 X22.2026 Y38.9476 
G01 X22.1444 Y38.9140 
G00 Z2.5400 
G00 X28.4432 Y33.5910 
G01 Z-0.1200 F100.00 
G01 X28.2840 Y33.4318 F230.00 
G01 X28.1516 Y33.2497 
G01 X28.0494 Y33.0491 
G01 X27.9798 Y32.8350 
G01 X27.9446 Y32.6126 
G01 X27.9446 Y32.3874 
G01 X27.9798 Y32.1650 
G01 X28.0494 Y31.9509 
G01 X28.1516 Y31.7503 
G01 X28.2840 Y31.5682 
G01 X28.4432 Y31.4090 
G01 X28.6253 Y31.2766 
G01 X28.8259 Y31.1744 
G01 X29.0400 Y31.1048 
G01 X29.2624 Y31.0696 
G01 X29.4876 Y31.0696 
G01 X29.7100 Y31.1048 
G01 X29.9241 Y31.1744 
G01 X30.1247 Y31.2766 
G01 X30.3068 Y31.4090 
G01 X30.4660 Y31.5682 
G01 X30.5984 Y31.7503 
G01 X30.7006 Y31.9509 
G01 X30.7135 Y31.9906 
G01 X31.1640 Y31.9906 
G01 X31.4311 Y31.7235 
G01 X31.4311 Y31.1779 
G01 X31.4561 Y31.0846 
G01 X31.5043 Y31.0011 
G01 X31.5726 Y30.9328 
G01 X31.6562 Y30.8846 
G01 X31.7494 Y30.8596 
G01 X32.5126 Y30.8596 
G01 X32.6058 Y30.8846 
G01 X32.6894 Y30.9328 
G01 X32.7577 Y31.0011 
G01 X32.8059 Y31.0846 
G01 X32.8309 Y31.1779 
G01 X32.8309 Y32.3221 
G01 X32.8059 Y32.4153 
G01 X32.7577 Y32.4989 
G01 X32.6894 Y32.5672 
G01 X32.6058 Y32.6154 
G01 X32.5126 Y32.6404 
G01 X31.9550 Y32.6404 
G01 X31.7826 Y32.8128 
G01 X31.6878 Y32.9076 
G01 X31.5716 Y32.9747 
G01 X31.4421 Y33.0094 
G01 X30.7135 Y33.0094 
G01 X30.7006 Y33.0491 
G01 X30.5984 Y33.2497 
G01 X30.4660 Y33.4318 
G01 X30.3068 Y33.5910 
G01 X30.1247 Y33.7234 
G01 X29.9241 Y33.8256 
G01 X29.7100 Y33.8952 
G01 X29.4876 Y33.9304 
G01 X29.2624 Y33.9304 
G01 X29.0400 Y33.8952 
G01 X28.8259 Y33.8256 
G01 X28.6253 Y33.7234 
G01 X28.4432 Y33.5910 
G00 Z2.5400 
G00 X26.9044 Y28.6968 
G01 Z-0.1200 F100.00 
G01 X26.8568 Y28.7444 F230.00 
G01 X26.7986 Y28.7780 
G01 X26.7336 Y28.7954 
G01 X25.8664 Y28.7954 
G01 X25.8014 Y28.7780 
G01 X25.7432 Y28.7444 
G01 X25.6956 Y28.6968 
G01 X25.6620 Y28.6386 
G01 X25.6446 Y28.5736 
G01 X25.6446 Y27.3064 
G01 X25.6620 Y27.2414 
G01 X25.6956 Y27.1832 
G01 X25.7432 Y27.1356 
G01 X25.8014 Y27.1020 
G01 X25.8664 Y27.0846 
G01 X26.4450 Y27.0846 
G01 X29.5924 Y23.9372 
G01 X29.6872 Y23.8424 
G01 X29.8034 Y23.7753 
G01 X29.9329 Y23.7406 
G01 X31.4311 Y23.7406 
G01 X31.4311 Y23.5579 
G01 X31.4561 Y23.4646 
G01 X31.5043 Y23.3811 
G01 X31.5726 Y23.3128 
G01 X31.6562 Y23.2646 
G01 X31.7494 Y23.2396 
G01 X32.5126 Y23.2396 
G01 X32.6058 Y23.2646 
G01 X32.6894 Y23.3128 
G01 X32.7577 Y23.3811 
G01 X32.8059 Y23.4646 
G01 X32.8309 Y23.5579 
G01 X32.8309 Y24.7021 
G01 X32.8059 Y24.7953 
G01 X32.7577 Y24.8789 
G01 X32.6894 Y24.9472 
G01 X32.6058 Y24.9954 
G01 X32.5126 Y25.0204 
G01 X31.7494 Y25.0204 
G01 X31.6562 Y24.9954 
G01 X31.5726 Y24.9472 
G01 X31.5043 Y24.8789 
G01 X31.4561 Y24.7953 
G01 X31.4464 Y24.7594 
G01 X30.2110 Y24.7594 
G01 X26.9554 Y28.0150 
G01 X26.9554 Y28.5736 
G01 X26.9380 Y28.6386 
G01 X26.9044 Y28.6968 
G00 Z2.5400 
G00 X26.9044 Y24.8868 
G01 Z-0.1200 F100.00 
G01 X26.8568 Y24.9344 F230.00 
G01 X26.7986 Y24.9680 
G01 X26.7336 Y24.9854 
G01 X25.8664 Y24.9854 
G01 X25.8014 Y24.9680 
G01 X25.7432 Y24.9344 
G01 X25.6956 Y24.8868 
G01 X25.6620 Y24.8286 
G01 X25.6446 Y24.7636 
G01 X25.6446 Y23.4964 
G01 X25.6620 Y23.4314 
G01 X25.6956 Y23.3732 
G01 X25.7432 Y23.3256 
G01 X25.8014 Y23.2920 
G01 X25.8664 Y23.2746 
G01 X26.5050 Y23.2746 
G01 X29.7174 Y20.0622 
G01 X29.8122 Y19.9674 
G01 X29.9284 Y19.9003 
G01 X30.0579 Y19.8656 
G01 X31.4311 Y19.8656 
G01 X31.4311 Y19.7479 
G01 X31.4561 Y19.6547 
G01 X31.5043 Y19.5711 
G01 X31.5726 Y19.5028 
G01 X31.6562 Y19.4546 
G01 X31.7494 Y19.4296 
G01 X32.5126 Y19.4296 
G01 X32.6058 Y19.4546 
G01 X32.6894 Y19.5028 
G01 X32.7577 Y19.5711 
G01 X32.8059 Y19.6547 
G01 X32.8309 Y19.7479 
G01 X32.8309 Y20.8921 
G01 X32.8059 Y20.9853 
G01 X32.7577 Y21.0689 
G01 X32.6894 Y21.1372 
G01 X32.6058 Y21.1854 
G01 X32.5126 Y21.2104 
G01 X31.7494 Y21.2104 
G01 X31.6562 Y21.1854 
G01 X31.5726 Y21.1372 
G01 X31.5043 Y21.0689 
G01 X31.4561 Y20.9853 
G01 X31.4311 Y20.8921 
G01 X31.4311 Y20.8844 
G01 X30.3360 Y20.8844 
G01 X26.9554 Y24.2650 
G01 X26.9554 Y24.7636 
G01 X26.9380 Y24.8286 
G01 X26.9044 Y24.8868 
G00 Z2.5400 
G00 X26.9044 Y21.0768 
G01 Z-0.1200 F100.00 
G01 X26.8568 Y21.1244 F230.00 
G01 X26.7986 Y21.1580 
G01 X26.7336 Y21.1754 
G01 X25.8664 Y21.1754 
G01 X25.8014 Y21.1580 
G01 X25.7432 Y21.1244 
G01 X25.6956 Y21.0768 
G01 X25.6620 Y21.0186 
G01 X25.6446 Y20.9536 
G01 X25.6446 Y19.6864 
G01 X25.6620 Y19.6214 
G01 X25.6956 Y19.5632 
G01 X25.7432 Y19.5156 
G01 X25.8014 Y19.4820 
G01 X25.8664 Y19.4646 
G01 X26.4400 Y19.4646 
G01 X29.5924 Y16.3122 
G01 X29.6872 Y16.2174 
G01 X29.8034 Y16.1503 
G01 X29.9329 Y16.1156 
G01 X31.4311 Y16.1156 
G01 X31.4311 Y15.9379 
G01 X31.4561 Y15.8446 
G01 X31.5043 Y15.7611 
G01 X31.5726 Y15.6928 
G01 X31.6562 Y15.6446 
G01 X31.6942 Y15.6344 
G01 X29.4663 Y15.6344 
G01 X29.3410 Y15.8068 
G01 X29.1818 Y15.9660 
G01 X28.9997 Y16.0984 
G01 X28.7991 Y16.2006 
G01 X28.5850 Y16.2702 
G01 X28.3626 Y16.3054 
G01 X28.1374 Y16.3054 
G01 X27.9150 Y16.2702 
G01 X27.7009 Y16.2006 
G01 X27.5003 Y16.0984 
G01 X27.3182 Y15.9660 
G01 X27.1590 Y15.8068 
G01 X27.0266 Y15.6247 
G01 X26.9244 Y15.4241 
G01 X26.8548 Y15.2100 
G01 X26.8196 Y14.9876 
G01 X26.8196 Y14.7624 
G01 X26.8548 Y14.5400 
G01 X26.9244 Y14.3259 
G01 X27.0266 Y14.1253 
G01 X27.1590 Y13.9432 
G01 X27.3182 Y13.7840 
G01 X27.5003 Y13.6516 
G01 X27.7009 Y13.5494 
G01 X27.9150 Y13.4798 
G01 X28.1374 Y13.4446 
G01 X28.3626 Y13.4446 
G01 X28.5850 Y13.4798 
G01 X28.7991 Y13.5494 
G01 X28.9997 Y13.6516 
G01 X29.1818 Y13.7840 
G01 X29.3410 Y13.9432 
G01 X29.4734 Y14.1253 
G01 X29.5756 Y14.3259 
G01 X29.6452 Y14.5400 
G01 X29.6571 Y14.6156 
G01 X33.9421 Y14.6156 
G01 X34.0716 Y14.6503 
G01 X34.1878 Y14.7174 
G01 X34.2826 Y14.8122 
G01 X34.3497 Y14.9284 
G01 X34.3844 Y15.0579 
G01 X34.3844 Y15.6449 
G01 X34.4674 Y15.6928 
G01 X34.4906 Y15.7160 
G01 X34.4906 Y14.1769 
G01 X34.2900 Y14.1452 
G01 X34.0759 Y14.0756 
G01 X33.8753 Y13.9734 
G01 X33.6932 Y13.8410 
G01 X33.5339 Y13.6818 
G01 X33.4016 Y13.4997 
G01 X33.2994 Y13.2991 
G01 X33.2298 Y13.0850 
G01 X33.1946 Y12.8626 
G01 X33.1946 Y12.6374 
G01 X33.2298 Y12.4150 
G01 X33.2994 Y12.2009 
G01 X33.4016 Y12.0003 
G01 X33.5339 Y11.8182 
G01 X33.6932 Y11.6590 
G01 X33.8753 Y11.5266 
G01 X34.0759 Y11.4244 
G01 X34.2900 Y11.3548 
G01 X34.5124 Y11.3196 
G01 X34.7376 Y11.3196 
G01 X34.9600 Y11.3548 
G01 X35.1741 Y11.4244 
G01 X35.3747 Y11.5266 
G01 X35.5568 Y11.6590 
G01 X35.7160 Y11.8182 
G01 X35.8484 Y12.0003 
G01 X35.9506 Y12.2009 
G01 X36.0202 Y12.4150 
G01 X36.0554 Y12.6374 
G01 X36.0554 Y12.8626 
G01 X36.0202 Y13.0850 
G01 X35.9506 Y13.2991 
G01 X35.8484 Y13.4997 
G01 X35.7160 Y13.6818 
G01 X35.5568 Y13.8410 
G01 X35.5094 Y13.8755 
G01 X35.5094 Y17.4421 
G01 X35.4747 Y17.5716 
G01 X35.4076 Y17.6878 
G01 X35.3128 Y17.7826 
G01 X34.8128 Y18.2826 
G01 X34.6966 Y18.3497 
G01 X34.5671 Y18.3844 
G01 X34.5094 Y18.3844 
G01 X34.5094 Y19.5448 
G01 X34.5357 Y19.5711 
G01 X34.5839 Y19.6547 
G01 X34.6089 Y19.7479 
G01 X34.6089 Y20.8921 
G01 X34.5839 Y20.9853 
G01 X34.5357 Y21.0689 
G01 X34.4674 Y21.1372 
G01 X34.3838 Y21.1854 
G01 X34.2906 Y21.2104 
G01 X33.5274 Y21.2104 
G01 X33.4342 Y21.1854 
G01 X33.3506 Y21.1372 
G01 X33.2823 Y21.0689 
G01 X33.2341 Y20.9853 
G01 X33.2091 Y20.8921 
G01 X33.2091 Y19.7479 
G01 X33.2341 Y19.6547 
G01 X33.2823 Y19.5711 
G01 X33.3506 Y19.5028 
G01 X33.4342 Y19.4546 
G01 X33.4906 Y19.4395 
G01 X33.4906 Y17.8079 
G01 X33.5253 Y17.6784 
G01 X33.5924 Y17.5622 
G01 X33.6872 Y17.4674 
G01 X33.8032 Y17.4004 
G01 X33.5274 Y17.4004 
G01 X33.4342 Y17.3754 
G01 X33.3506 Y17.3272 
G01 X33.2823 Y17.2589 
G01 X33.2341 Y17.1753 
G01 X33.2091 Y17.0821 
G01 X33.2091 Y15.9379 
G01 X33.2341 Y15.8446 
G01 X33.2823 Y15.7611 
G01 X33.3506 Y15.6928 
G01 X33.3656 Y15.6842 
G01 X33.3656 Y15.6344 
G01 X32.5678 Y15.6344 
G01 X32.6058 Y15.6446 
G01 X32.6894 Y15.6928 
G01 X32.7577 Y15.7611 
G01 X32.8059 Y15.8446 
G01 X32.8309 Y15.9379 
G01 X32.8309 Y17.0821 
G01 X32.8059 Y17.1753 
G01 X32.7577 Y17.2589 
G01 X32.6894 Y17.3272 
G01 X32.6058 Y17.3754 
G01 X32.5126 Y17.4004 
G01 X31.7494 Y17.4004 
G01 X31.6562 Y17.3754 
G01 X31.5726 Y17.3272 
G01 X31.5043 Y17.2589 
G01 X31.4561 Y17.1753 
G01 X31.4451 Y17.1344 
G01 X30.2110 Y17.1344 
G01 X26.9554 Y20.3900 
G01 X26.9554 Y20.9536 
G01 X26.9380 Y21.0186 
G01 X26.9044 Y21.0768 
G00 Z2.5400 
G00 X22.2142 Y18.0654 
G01 Z-0.1200 F100.00 
G01 X21.6550 Y18.0654 F230.00 
G01 X18.9076 Y20.8128 
G01 X18.8128 Y20.9076 
G01 X18.6966 Y20.9747 
G01 X18.6372 Y20.9906 
G01 X19.2890 Y20.9906 
G01 X22.2142 Y18.0654 
G00 Z2.5400 
G00 X22.2236 Y16.2654 
G01 Z-0.1200 F100.00 
G01 X20.9564 Y16.2654 F230.00 
G01 X20.8914 Y16.2480 
G01 X20.8332 Y16.2144 
G01 X20.7856 Y16.1668 
G01 X20.7520 Y16.1086 
G01 X20.7346 Y16.0436 
G01 X20.7346 Y15.1764 
G01 X20.7520 Y15.1114 
G01 X20.7856 Y15.0532 
G01 X20.8332 Y15.0056 
G01 X20.8914 Y14.9720 
G01 X20.9564 Y14.9546 
G01 X21.1156 Y14.9546 
G01 X21.1156 Y11.9912 
G01 X21.0094 Y12.0974 
G01 X21.0094 Y12.9421 
G01 X20.9747 Y13.0716 
G01 X20.9076 Y13.1878 
G01 X20.8128 Y13.2826 
G01 X18.6354 Y15.4600 
G01 X18.6354 Y16.0436 
G01 X18.6180 Y16.1086 
G01 X18.5844 Y16.1668 
G01 X18.5368 Y16.2144 
G01 X18.4786 Y16.2480 
G01 X18.4136 Y16.2654 
G01 X17.3608 Y16.2654 
G01 X17.4076 Y16.3122 
G01 X17.8500 Y16.7546 
G01 X18.4136 Y16.7546 
G01 X18.4786 Y16.7720 
G01 X18.5368 Y16.8056 
G01 X18.5844 Y16.8532 
G01 X18.6180 Y16.9114 
G01 X18.6354 Y16.9764 
G01 X18.6354 Y17.8436 
G01 X18.6180 Y17.9086 
G01 X18.5844 Y17.9668 
G01 X18.5368 Y18.0144 
G01 X18.4786 Y18.0480 
G01 X18.4136 Y18.0654 
G01 X17.1464 Y18.0654 
G01 X17.0814 Y18.0480 
G01 X17.0232 Y18.0144 
G01 X16.9756 Y17.9668 
G01 X16.9420 Y17.9086 
G01 X16.9246 Y17.8436 
G01 X16.9246 Y17.2700 
G01 X16.7890 Y17.1344 
G01 X15.0579 Y17.1344 
G01 X14.9284 Y17.0997 
G01 X14.8122 Y17.0326 
G01 X14.7174 Y16.9378 
G01 X10.3363 Y12.5567 
G01 X10.2991 Y12.5756 
G01 X10.0850 Y12.6452 
G01 X9.8626 Y12.6804 
G01 X9.6374 Y12.6804 
G01 X9.4150 Y12.6452 
G01 X9.2009 Y12.5756 
G01 X9.0003 Y12.4734 
G01 X8.8182 Y12.3410 
G01 X8.6590 Y12.1818 
G01 X8.5266 Y11.9997 
G01 X8.4244 Y11.7991 
G01 X8.3548 Y11.5850 
G01 X8.3196 Y11.3626 
G01 X8.3196 Y11.1374 
G01 X8.3548 Y10.9150 
G01 X8.4244 Y10.7009 
G01 X8.5266 Y10.5003 
G01 X8.6590 Y10.3182 
G01 X8.8182 Y10.1590 
G01 X9.0003 Y10.0266 
G01 X9.2009 Y9.9244 
G01 X9.4150 Y9.8548 
G01 X9.6374 Y9.8196 
G01 X9.8626 Y9.8196 
G01 X10.0850 Y9.8548 
G01 X10.2991 Y9.9244 
G01 X10.4997 Y10.0266 
G01 X10.6818 Y10.1590 
G01 X10.8410 Y10.3182 
G01 X10.9734 Y10.5003 
G01 X11.0756 Y10.7009 
G01 X11.1452 Y10.9150 
G01 X11.1804 Y11.1374 
G01 X11.1804 Y11.3626 
G01 X11.1452 Y11.5850 
G01 X11.0756 Y11.7991 
G01 X11.0567 Y11.8363 
G01 X15.3360 Y16.1156 
G01 X16.9461 Y16.1156 
G01 X16.9420 Y16.1086 
G01 X16.9246 Y16.0436 
G01 X16.9246 Y15.1764 
G01 X16.9420 Y15.1114 
G01 X16.9756 Y15.0532 
G01 X17.0232 Y15.0056 
G01 X17.0814 Y14.9720 
G01 X17.1464 Y14.9546 
G01 X17.7000 Y14.9546 
G01 X19.9906 Y12.6640 
G01 X19.9906 Y12.3894 
G01 X19.9226 Y12.3894 
G01 X19.3606 Y11.8274 
G01 X19.3606 Y11.0326 
G01 X19.9226 Y10.4706 
G01 X20.7174 Y10.4706 
G01 X21.2794 Y11.0326 
G01 X21.2794 Y11.6252 
G01 X21.3122 Y11.5924 
G01 X21.4284 Y11.5253 
G01 X21.5579 Y11.4906 
G01 X21.9006 Y11.4906 
G01 X21.9006 Y11.0326 
G01 X22.4626 Y10.4706 
G01 X23.2574 Y10.4706 
G01 X23.8194 Y11.0326 
G01 X23.8194 Y11.8274 
G01 X23.2574 Y12.3894 
G01 X22.5810 Y12.3894 
G01 X22.5628 Y12.4076 
G01 X22.4466 Y12.4747 
G01 X22.3171 Y12.5094 
G01 X22.1344 Y12.5094 
G01 X22.1344 Y14.9546 
G01 X22.2236 Y14.9546 
G01 X22.2886 Y14.9720 
G01 X22.3468 Y15.0056 
G01 X22.3944 Y15.0532 
G01 X22.4280 Y15.1114 
G01 X22.4454 Y15.1764 
G01 X22.4454 Y16.0436 
G01 X22.4280 Y16.1086 
G01 X22.3944 Y16.1668 
G01 X22.3468 Y16.2144 
G01 X22.2886 Y16.2480 
G01 X22.2236 Y16.2654 
G00 Z2.5400 
G00 X22.4626 Y9.8494 
G01 Z-0.1200 F100.00 
G01 X21.9006 Y9.2874 F230.00 
G01 X21.9006 Y8.4926 
G01 X22.4626 Y7.9306 
G01 X23.2574 Y7.9306 
G01 X23.8194 Y8.4926 
G01 X23.8194 Y9.2874 
G01 X23.2574 Y9.8494 
G01 X22.4626 Y9.8494 
G00 Z2.5400 
G00 X21.2794 Y9.2874 
G01 Z-0.1200 F100.00 
G01 X20.7174 Y9.8494 F230.00 
G01 X19.9226 Y9.8494 
G01 X19.3606 Y9.2874 
G01 X19.3606 Y8.4926 
G01 X19.9226 Y7.9306 
G01 X20.7174 Y7.9306 
G01 X21.2794 Y8.4926 
G01 X21.2794 Y9.2874 
G00 Z2.5400 
G00 X18.7394 Y9.2874 
G01 Z-0.1200 F100.00 
G01 X18.1774 Y9.8494 F230.00 
G01 X17.3826 Y9.8494 
G01 X16.8206 Y9.2874 
G01 X16.8206 Y8.4926 
G01 X16.9906 Y8.3226 
G01 X16.9906 Y5.9354 
G01 X16.9764 Y5.9354 
G01 X16.9114 Y5.9180 
G01 X16.8532 Y5.8844 
G01 X16.8056 Y5.8368 
G01 X16.7720 Y5.7786 
G01 X16.7546 Y5.7136 
G01 X16.7546 Y4.4464 
G01 X16.7720 Y4.3814 
G01 X16.8056 Y4.3232 
G01 X16.8532 Y4.2756 
G01 X16.9114 Y4.2420 
G01 X16.9764 Y4.2246 
G01 X17.8436 Y4.2246 
G01 X17.9086 Y4.2420 
G01 X17.9668 Y4.2756 
G01 X18.0144 Y4.3232 
G01 X18.0480 Y4.3814 
G01 X18.0654 Y4.4464 
G01 X18.0654 Y5.7136 
G01 X18.0480 Y5.7786 
G01 X18.0144 Y5.8368 
G01 X18.0094 Y5.8418 
G01 X18.0094 Y6.1156 
G01 X37.1921 Y6.1156 
G01 X37.3216 Y6.1503 
G01 X37.4378 Y6.2174 
G01 X37.5326 Y6.3122 
G01 X37.5997 Y6.4284 
G01 X37.6344 Y6.5579 
G01 X37.6344 Y21.0671 
G01 X37.5997 Y21.1966 
G01 X37.5326 Y21.3128 
G01 X37.4378 Y21.4076 
G01 X34.6089 Y24.2365 
G01 X34.6089 Y24.7021 
G01 X34.5839 Y24.7953 
G01 X34.5357 Y24.8789 
G01 X34.4674 Y24.9472 
G01 X34.3838 Y24.9954 
G01 X34.2906 Y25.0204 
G01 X33.5274 Y25.0204 
G01 X33.4342 Y24.9954 
G01 X33.3506 Y24.9472 
G01 X33.2823 Y24.8789 
G01 X33.2341 Y24.7953 
G01 X33.2091 Y24.7021 
G01 X33.2091 Y23.5579 
G01 X33.2341 Y23.4646 
G01 X33.2823 Y23.3811 
G01 X33.3506 Y23.3128 
G01 X33.4342 Y23.2646 
G01 X33.5274 Y23.2396 
G01 X34.1650 Y23.2396 
G01 X36.6156 Y20.7890 
G01 X36.6156 Y7.1344 
G01 X18.0094 Y7.1344 
G01 X18.0094 Y7.9306 
G01 X18.1774 Y7.9306 
G01 X18.7394 Y8.4926 
G01 X18.7394 Y9.2874 
G00 Z2.5400 
G00 X18.7394 Y11.0326 
G01 Z-0.1200 F100.00 
G01 X18.7394 Y11.8274 F230.00 
G01 X18.1774 Y12.3894 
G01 X17.3826 Y12.3894 
G01 X16.8206 Y11.8274 
G01 X16.8206 Y11.0326 
G01 X17.3826 Y10.4706 
G01 X18.1774 Y10.4706 
G01 X18.7394 Y11.0326 
G00 Z2.5400 
G00 X25.0026 Y9.8494 
G01 Z-0.1200 F100.00 
G01 X24.4406 Y9.2874 F230.00 
G01 X24.4406 Y8.4926 
G01 X25.0026 Y7.9306 
G01 X25.7974 Y7.9306 
G01 X26.3594 Y8.4926 
G01 X26.3594 Y9.2874 
G01 X25.7974 Y9.8494 
G01 X25.0026 Y9.8494 
G00 Z2.5400 
G00 X2.1652 Y4.3260 
G01 Z-0.1200 F100.00 
G01 X2.2940 Y4.1972 F230.00 
G01 X2.4414 Y4.0901 
G01 X2.6037 Y4.0074 
G01 X2.7770 Y3.9511 
G01 X2.9569 Y3.9226 
G01 X4.6631 Y3.9226 
G01 X4.8430 Y3.9511 
G01 X5.0163 Y4.0074 
G01 X5.1786 Y4.0901 
G01 X5.3260 Y4.1972 
G01 X5.4548 Y4.3260 
G01 X5.4756 Y4.3546 
G01 X5.4756 Y2.8110 
G01 X5.5006 Y2.6856 
G01 X5.5495 Y2.5674 
G01 X5.6206 Y2.4610 
G01 X5.7110 Y2.3706 
G01 X5.8174 Y2.2995 
G01 X5.9356 Y2.2506 
G01 X6.0610 Y2.2256 
G01 X9.0684 Y2.2256 
G01 X9.1569 Y2.0519 
G01 X9.3022 Y1.8520 
G01 X9.4770 Y1.6772 
G01 X9.6769 Y1.5319 
G01 X9.8972 Y1.4197 
G01 X10.1323 Y1.3433 
G01 X10.3764 Y1.3046 
G01 X10.6236 Y1.3046 
G01 X10.8677 Y1.3433 
G01 X11.1028 Y1.4197 
G01 X11.3231 Y1.5319 
G01 X11.5230 Y1.6772 
G01 X11.6978 Y1.8520 
G01 X11.8431 Y2.0519 
G01 X11.9553 Y2.2722 
G01 X12.0317 Y2.5073 
G01 X12.0704 Y2.7514 
G01 X12.0704 Y2.9986 
G01 X12.0317 Y3.2427 
G01 X11.9553 Y3.4778 
G01 X11.8431 Y3.6981 
G01 X11.6978 Y3.8980 
G01 X11.5230 Y4.0728 
G01 X11.3231 Y4.2181 
G01 X11.1028 Y4.3303 
G01 X10.8677 Y4.4067 
G01 X10.6236 Y4.4454 
G01 X10.3764 Y4.4454 
G01 X10.1323 Y4.4067 
G01 X9.8972 Y4.3303 
G01 X9.6769 Y4.2181 
G01 X9.4770 Y4.0728 
G01 X9.3022 Y3.8980 
G01 X9.1569 Y3.6981 
G01 X9.0684 Y3.5244 
G01 X6.7744 Y3.5244 
G01 X6.7744 Y9.8072 
G01 X6.8360 Y9.7456 
G01 X8.3360 Y8.2456 
G01 X8.4424 Y8.1745 
G01 X8.5606 Y8.1256 
G01 X8.6860 Y8.1006 
G01 X11.6060 Y8.1006 
G01 X14.8146 Y4.8920 
G01 X14.8146 Y4.4279 
G01 X14.8415 Y4.3274 
G01 X14.8936 Y4.2372 
G01 X14.9672 Y4.1636 
G01 X15.0574 Y4.1115 
G01 X15.1579 Y4.0846 
G01 X16.0621 Y4.0846 
G01 X16.1626 Y4.1115 
G01 X16.2528 Y4.1636 
G01 X16.3264 Y4.2372 
G01 X16.3785 Y4.3274 
G01 X16.4054 Y4.4279 
G01 X16.4054 Y5.7321 
G01 X16.3785 Y5.8326 
G01 X16.3264 Y5.9228 
G01 X16.2528 Y5.9964 
G01 X16.1626 Y6.0484 
G01 X16.0621 Y6.0754 
G01 X15.4680 Y6.0754 
G01 X12.3794 Y9.1640 
G01 X12.2890 Y9.2544 
G01 X12.1826 Y9.3255 
G01 X12.0644 Y9.3744 
G01 X11.9390 Y9.3994 
G01 X9.0190 Y9.3994 
G01 X7.8994 Y10.5190 
G01 X7.8994 Y17.1916 
G01 X7.9069 Y17.1769 
G01 X8.0522 Y16.9770 
G01 X8.2270 Y16.8022 
G01 X8.4269 Y16.6569 
G01 X8.6472 Y16.5447 
G01 X8.8823 Y16.4683 
G01 X9.1264 Y16.4296 
G01 X9.3736 Y16.4296 
G01 X9.6177 Y16.4683 
G01 X9.8528 Y16.5447 
G01 X10.0731 Y16.6569 
G01 X10.2730 Y16.8022 
G01 X10.4478 Y16.9770 
G01 X10.5931 Y17.1769 
G01 X10.7053 Y17.3972 
G01 X10.7817 Y17.6323 
G01 X10.8204 Y17.8764 
G01 X10.8204 Y18.1236 
G01 X10.7817 Y18.3677 
G01 X10.7053 Y18.6028 
G01 X10.5931 Y18.8231 
G01 X10.4478 Y19.0230 
G01 X10.2730 Y19.1978 
G01 X10.0731 Y19.3431 
G01 X9.8528 Y19.4553 
G01 X9.6177 Y19.5317 
G01 X9.3736 Y19.5704 
G01 X9.1264 Y19.5704 
G01 X8.8823 Y19.5317 
G01 X8.6472 Y19.4553 
G01 X8.4269 Y19.3431 
G01 X8.2270 Y19.1978 
G01 X8.0522 Y19.0230 
G01 X7.9069 Y18.8231 
G01 X7.8184 Y18.6494 
G01 X7.3178 Y18.6494 
G01 X8.5190 Y19.8506 
G01 X18.2310 Y19.8506 
G01 X20.5946 Y17.4870 
G01 X20.5946 Y16.9579 
G01 X20.6215 Y16.8574 
G01 X20.6736 Y16.7672 
G01 X20.7472 Y16.6936 
G01 X20.8374 Y16.6415 
G01 X20.9379 Y16.6146 
G01 X22.2421 Y16.6146 
G01 X22.3426 Y16.6415 
G01 X22.4328 Y16.6936 
G01 X22.5064 Y16.7672 
G01 X22.5585 Y16.8574 
G01 X22.5854 Y16.9579 
G01 X22.5854 Y17.4962 
G01 X23.4756 Y16.6060 
G01 X23.4756 Y15.8110 
G01 X23.5006 Y15.6856 
G01 X23.5495 Y15.5674 
G01 X23.6206 Y15.4610 
G01 X23.7110 Y15.3706 
G01 X23.8174 Y15.2995 
G01 X23.9356 Y15.2506 
G01 X24.0610 Y15.2256 
G01 X24.4046 Y15.2256 
G01 X24.4046 Y15.1579 
G01 X24.4315 Y15.0574 
G01 X24.4836 Y14.9672 
G01 X24.5572 Y14.8936 
G01 X24.6474 Y14.8415 
G01 X24.7256 Y14.8206 
G01 X24.7256 Y12.3104 
G01 X24.3006 Y11.8854 
G01 X24.3006 Y10.9746 
G01 X24.9446 Y10.3306 
G01 X25.8554 Y10.3306 
G01 X26.4994 Y10.9746 
G01 X26.4994 Y11.8854 
G01 X26.0244 Y12.3604 
G01 X26.0244 Y14.8146 
G01 X26.0521 Y14.8146 
G01 X26.1526 Y14.8415 
G01 X26.2428 Y14.8936 
G01 X26.3164 Y14.9672 
G01 X26.3684 Y15.0574 
G01 X26.3954 Y15.1579 
G01 X26.3954 Y16.0621 
G01 X26.3684 Y16.1626 
G01 X26.3164 Y16.2528 
G01 X26.2428 Y16.3264 
G01 X26.1526 Y16.3785 
G01 X26.0521 Y16.4054 
G01 X25.7527 Y16.4054 
G01 X25.7398 Y16.4161 
G01 X25.7104 Y16.4319 
G01 X25.6826 Y16.4505 
G01 X25.6542 Y16.4622 
G01 X25.6272 Y16.4768 
G01 X25.5953 Y16.4867 
G01 X25.5644 Y16.4994 
G01 X25.5343 Y16.5054 
G01 X25.5049 Y16.5145 
G01 X25.4717 Y16.5179 
G01 X25.4390 Y16.5244 
G01 X25.4082 Y16.5244 
G01 X25.3777 Y16.5275 
G01 X25.3444 Y16.5244 
G01 X24.7744 Y16.5244 
G01 X24.7744 Y16.6146 
G01 X26.0521 Y16.6146 
G01 X26.1526 Y16.6415 
G01 X26.2428 Y16.6936 
G01 X26.3164 Y16.7672 
G01 X26.3684 Y16.8574 
G01 X26.3954 Y16.9579 
G01 X26.3954 Y17.8621 
G01 X26.3684 Y17.9626 
G01 X26.3164 Y18.0528 
G01 X26.2428 Y18.1264 
G01 X26.1526 Y18.1785 
G01 X26.0521 Y18.2054 
G01 X25.5880 Y18.2054 
G01 X24.4688 Y19.3246 
G01 X24.9521 Y19.3246 
G01 X25.0526 Y19.3515 
G01 X25.1428 Y19.4036 
G01 X25.2164 Y19.4772 
G01 X25.2685 Y19.5674 
G01 X25.2954 Y19.6679 
G01 X25.2954 Y20.9721 
G01 X25.2685 Y21.0726 
G01 X25.2164 Y21.1628 
G01 X25.1494 Y21.2298 
G01 X25.1494 Y23.2202 
G01 X25.2164 Y23.2872 
G01 X25.2685 Y23.3774 
G01 X25.2954 Y23.4779 
G01 X25.2954 Y24.7821 
G01 X25.2685 Y24.8826 
G01 X25.2164 Y24.9728 
G01 X25.1494 Y25.0398 
G01 X25.1494 Y27.0302 
G01 X25.2164 Y27.0972 
G01 X25.2685 Y27.1874 
G01 X25.2954 Y27.2879 
G01 X25.2954 Y28.5921 
G01 X25.2685 Y28.6926 
G01 X25.2164 Y28.7828 
G01 X25.1494 Y28.8498 
G01 X25.1494 Y30.8402 
G01 X25.2164 Y30.9072 
G01 X25.2685 Y30.9974 
G01 X25.2954 Y31.0979 
G01 X25.2954 Y31.8770 
G01 X25.5046 Y32.0862 
G01 X25.5046 Y31.0979 
G01 X25.5315 Y30.9974 
G01 X25.5836 Y30.9072 
G01 X25.6572 Y30.8336 
G01 X25.7474 Y30.7815 
G01 X25.8479 Y30.7546 
G01 X26.4520 Y30.7546 
G01 X29.6206 Y27.5860 
G01 X29.7110 Y27.4956 
G01 X29.8174 Y27.4245 
G01 X29.9356 Y27.3756 
G01 X30.0610 Y27.3506 
G01 X31.2911 Y27.3506 
G01 X31.3256 Y27.2206 
G01 X31.3923 Y27.1051 
G01 X31.4866 Y27.0108 
G01 X31.6021 Y26.9441 
G01 X31.7309 Y26.9096 
G01 X32.5311 Y26.9096 
G01 X32.6599 Y26.9441 
G01 X32.7754 Y27.0108 
G01 X32.8697 Y27.1051 
G01 X32.9364 Y27.2206 
G01 X32.9709 Y27.3494 
G01 X32.9709 Y28.5306 
G01 X32.9364 Y28.6594 
G01 X32.8697 Y28.7749 
G01 X32.7754 Y28.8692 
G01 X32.6599 Y28.9359 
G01 X32.5311 Y28.9704 
G01 X31.7309 Y28.9704 
G01 X31.6021 Y28.9359 
G01 X31.4866 Y28.8692 
G01 X31.3923 Y28.7749 
G01 X31.3256 Y28.6594 
G01 X31.3229 Y28.6494 
G01 X30.3940 Y28.6494 
G01 X27.0954 Y31.9480 
G01 X27.0954 Y32.4021 
G01 X27.0684 Y32.5026 
G01 X27.0164 Y32.5928 
G01 X26.9428 Y32.6664 
G01 X26.8526 Y32.7184 
G01 X26.7521 Y32.7454 
G01 X26.1638 Y32.7454 
G01 X27.1440 Y33.7256 
G01 X27.8140 Y33.7256 
G01 X27.9394 Y33.7506 
G01 X28.0576 Y33.7995 
G01 X28.1640 Y33.8706 
G01 X31.1250 Y36.8316 
G01 X31.3246 Y36.6320 
G01 X31.3246 Y36.1779 
G01 X31.3515 Y36.0774 
G01 X31.4036 Y35.9872 
G01 X31.4772 Y35.9136 
G01 X31.5674 Y35.8615 
G01 X31.6679 Y35.8346 
G01 X32.5721 Y35.8346 
G01 X32.6726 Y35.8615 
G01 X32.7628 Y35.9136 
G01 X32.8364 Y35.9872 
G01 X32.8884 Y36.0774 
G01 X32.9154 Y36.1779 
G01 X32.9154 Y37.4821 
G01 X32.8884 Y37.5826 
G01 X32.8364 Y37.6728 
G01 X32.7628 Y37.7464 
G01 X32.6726 Y37.7985 
G01 X32.5721 Y37.8254 
G01 X31.9680 Y37.8254 
G01 X31.6294 Y38.1640 
G01 X31.5390 Y38.2544 
G01 X29.0044 Y40.7890 
G01 X28.9140 Y40.8794 
G01 X28.8076 Y40.9505 
G01 X28.6894 Y40.9994 
G01 X28.5640 Y41.0244 
G01 X24.9318 Y41.0244 
G01 X24.9318 Y41.0731 
G01 X24.9048 Y41.1736 
G01 X24.8528 Y41.2638 
G01 X24.7792 Y41.3374 
G01 X24.6890 Y41.3894 
G01 X24.5885 Y41.4164 
G01 X22.2491 Y41.4164 
G01 X22.1486 Y41.3894 
G01 X22.0584 Y41.3374 
G01 X21.9954 Y41.2744 
G01 X11.3940 Y41.2744 
G01 X11.3174 Y41.3510 
G01 X11.3174 Y41.4931 
G01 X11.2889 Y41.6730 
G01 X11.2326 Y41.8463 
G01 X11.1499 Y42.0086 
G01 X11.1494 Y42.0640 
G01 X11.1244 Y42.1894 
G01 X11.0755 Y42.3076 
G01 X11.0468 Y42.3506 
G01 X34.3506 Y42.3506 
G01 X34.3506 Y37.8254 
G01 X33.4679 Y37.8254 
G01 X33.3674 Y37.7985 
G01 X33.2772 Y37.7464 
G01 X33.2036 Y37.6728 
G01 X33.1515 Y37.5826 
G01 X33.1246 Y37.4821 
G01 X33.1246 Y36.1779 
G01 X33.1515 Y36.0774 
G01 X33.2036 Y35.9872 
G01 X33.2772 Y35.9136 
G01 X33.3506 Y35.8712 
G01 X33.3506 Y32.7288 
G01 X33.2646 Y32.6792 
G01 X33.1703 Y32.5849 
G01 X33.1036 Y32.4694 
G01 X33.0691 Y32.3406 
G01 X33.0691 Y31.1594 
G01 X33.1036 Y31.0306 
G01 X33.1703 Y30.9151 
G01 X33.2646 Y30.8208 
G01 X33.3801 Y30.7541 
G01 X33.4583 Y30.7332 
G01 X33.4245 Y30.6826 
G01 X33.3756 Y30.5644 
G01 X33.3506 Y30.4390 
G01 X33.3506 Y28.9188 
G01 X33.2646 Y28.8692 
G01 X33.1703 Y28.7749 
G01 X33.1036 Y28.6594 
G01 X33.0691 Y28.5306 
G01 X33.0691 Y27.3494 
G01 X33.1036 Y27.2206 
G01 X33.1703 Y27.1051 
G01 X33.2646 Y27.0108 
G01 X33.3801 Y26.9441 
G01 X33.5089 Y26.9096 
G01 X34.3091 Y26.9096 
G01 X34.4379 Y26.9441 
G01 X34.5534 Y27.0108 
G01 X34.6477 Y27.1051 
G01 X34.7144 Y27.2206 
G01 X34.7489 Y27.3494 
G01 X34.7489 Y28.5306 
G01 X34.7144 Y28.6594 
G01 X34.6494 Y28.7719 
G01 X34.6494 Y29.7426 
G01 X34.6894 Y29.7506 
G01 X34.8076 Y29.7995 
G01 X34.9140 Y29.8706 
G01 X35.4140 Y30.3706 
G01 X35.5044 Y30.4610 
G01 X35.5755 Y30.5674 
G01 X35.6244 Y30.6856 
G01 X35.6494 Y30.8110 
G01 X35.6494 Y43.0640 
G01 X35.6244 Y43.1894 
G01 X35.5755 Y43.3076 
G01 X35.5044 Y43.4140 
G01 X35.4140 Y43.5044 
G01 X35.3076 Y43.5755 
G01 X35.1894 Y43.6244 
G01 X35.0640 Y43.6494 
G01 X7.0610 Y43.6494 
G01 X6.9356 Y43.6244 
G01 X6.8174 Y43.5755 
G01 X6.7110 Y43.5044 
G01 X5.7110 Y42.5044 
G01 X5.6206 Y42.4140 
G01 X5.5495 Y42.3076 
G01 X5.5006 Y42.1894 
G01 X5.4756 Y42.0640 
G01 X5.4756 Y35.0154 
G01 X5.4548 Y35.0440 
G01 X5.3260 Y35.1728 
G01 X5.1786 Y35.2799 
G01 X5.0163 Y35.3626 
G01 X4.8430 Y35.4189 
G01 X4.6631 Y35.4474 
G01 X2.9569 Y35.4474 
G01 X2.7770 Y35.4189 
G01 X2.6037 Y35.3626 
G01 X2.4414 Y35.2799 
G01 X2.2940 Y35.1728 
G01 X2.1652 Y35.0440 
G01 X2.0581 Y34.8966 
G01 X1.9754 Y34.7343 
G01 X1.9191 Y34.5610 
G01 X1.8906 Y34.3811 
G01 X1.8906 Y34.1989 
G01 X1.9191 Y34.0190 
G01 X1.9754 Y33.8457 
G01 X2.0581 Y33.6834 
G01 X2.1652 Y33.5360 
G01 X2.2940 Y33.4072 
G01 X2.4414 Y33.3001 
G01 X2.6037 Y33.2174 
G01 X2.7770 Y33.1611 
G01 X2.9569 Y33.1326 
G01 X4.6631 Y33.1326 
G01 X4.8430 Y33.1611 
G01 X5.0163 Y33.2174 
G01 X5.1786 Y33.3001 
G01 X5.3260 Y33.4072 
G01 X5.4548 Y33.5360 
G01 X5.4756 Y33.5646 
G01 X5.4756 Y32.4754 
G01 X5.4548 Y32.5040 
G01 X5.3260 Y32.6328 
G01 X5.1786 Y32.7399 
G01 X5.0163 Y32.8226 
G01 X4.8430 Y32.8789 
G01 X4.6631 Y32.9074 
G01 X2.9569 Y32.9074 
G01 X2.7770 Y32.8789 
G01 X2.6037 Y32.8226 
G01 X2.4414 Y32.7399 
G01 X2.2940 Y32.6328 
G01 X2.1652 Y32.5040 
G01 X2.0581 Y32.3566 
G01 X1.9754 Y32.1943 
G01 X1.9191 Y32.0210 
G01 X1.8906 Y31.8411 
G01 X1.8906 Y31.6589 
G01 X1.9191 Y31.4790 
G01 X1.9754 Y31.3057 
G01 X2.0581 Y31.1434 
G01 X2.1652 Y30.9960 
G01 X2.2940 Y30.8672 
G01 X2.4414 Y30.7601 
G01 X2.6037 Y30.6774 
G01 X2.7770 Y30.6211 
G01 X2.9569 Y30.5926 
G01 X4.6631 Y30.5926 
G01 X4.8430 Y30.6211 
G01 X5.0163 Y30.6774 
G01 X5.1786 Y30.7601 
G01 X5.3260 Y30.8672 
G01 X5.4548 Y30.9960 
G01 X5.4756 Y31.0246 
G01 X5.4756 Y26.1254 
G01 X5.4548 Y26.1540 
G01 X5.3260 Y26.2828 
G01 X5.1786 Y26.3899 
G01 X5.0163 Y26.4726 
G01 X4.8430 Y26.5289 
G01 X4.6631 Y26.5574 
G01 X2.9569 Y26.5574 
G01 X2.7770 Y26.5289 
G01 X2.6037 Y26.4726 
G01 X2.4414 Y26.3899 
G01 X2.2940 Y26.2828 
G01 X2.1652 Y26.1540 
G01 X2.0581 Y26.0066 
G01 X1.9754 Y25.8443 
G01 X1.9191 Y25.6710 
G01 X1.8906 Y25.4911 
G01 X1.8906 Y25.3089 
G01 X1.9191 Y25.1290 
G01 X1.9754 Y24.9557 
G01 X2.0581 Y24.7934 
G01 X2.1652 Y24.6460 
G01 X2.2940 Y24.5172 
G01 X2.4414 Y24.4101 
G01 X2.6037 Y24.3274 
G01 X2.7770 Y24.2711 
G01 X2.9569 Y24.2426 
G01 X4.6631 Y24.2426 
G01 X4.8430 Y24.2711 
G01 X5.0163 Y24.3274 
G01 X5.1786 Y24.4101 
G01 X5.3260 Y24.5172 
G01 X5.4548 Y24.6460 
G01 X5.4756 Y24.6746 
G01 X5.4756 Y23.5854 
G01 X5.4548 Y23.6140 
G01 X5.3260 Y23.7428 
G01 X5.1786 Y23.8499 
G01 X5.0163 Y23.9326 
G01 X4.8430 Y23.9889 
G01 X4.6631 Y24.0174 
G01 X2.9569 Y24.0174 
G01 X2.7770 Y23.9889 
G01 X2.6037 Y23.9326 
G01 X2.4414 Y23.8499 
G01 X2.2940 Y23.7428 
G01 X2.1652 Y23.6140 
G01 X2.0581 Y23.4666 
G01 X1.9754 Y23.3043 
G01 X1.9191 Y23.1310 
G01 X1.8906 Y22.9511 
G01 X1.8906 Y22.7689 
G01 X1.9191 Y22.5890 
G01 X1.9754 Y22.4157 
G01 X2.0581 Y22.2534 
G01 X2.1652 Y22.1060 
G01 X2.2940 Y21.9772 
G01 X2.4414 Y21.8701 
G01 X2.6037 Y21.7874 
G01 X2.7770 Y21.7311 
G01 X2.9569 Y21.7026 
G01 X4.6631 Y21.7026 
G01 X4.8430 Y21.7311 
G01 X5.0163 Y21.7874 
G01 X5.1786 Y21.8701 
G01 X5.3260 Y21.9772 
G01 X5.4548 Y22.1060 
G01 X5.4756 Y22.1346 
G01 X5.4756 Y21.4360 
G01 X5.5006 Y21.3106 
G01 X5.5495 Y21.1924 
G01 X5.6206 Y21.0860 
G01 X5.7110 Y20.9956 
G01 X5.8174 Y20.9245 
G01 X5.9356 Y20.8756 
G01 X6.0610 Y20.8506 
G01 X7.6822 Y20.8506 
G01 X5.7110 Y18.8794 
G01 X5.6206 Y18.7890 
G01 X5.5495 Y18.6826 
G01 X5.5006 Y18.5644 
G01 X5.4756 Y18.4390 
G01 X5.4756 Y17.2354 
G01 X5.4548 Y17.2640 
G01 X5.3260 Y17.3928 
G01 X5.1786 Y17.4999 
G01 X5.0163 Y17.5826 
G01 X4.8430 Y17.6389 
G01 X4.6631 Y17.6674 
G01 X2.9569 Y17.6674 
G01 X2.7770 Y17.6389 
G01 X2.6037 Y17.5826 
G01 X2.4414 Y17.4999 
G01 X2.2940 Y17.3928 
G01 X2.1652 Y17.2640 
G01 X2.0581 Y17.1166 
G01 X1.9754 Y16.9543 
G01 X1.9191 Y16.7810 
G01 X1.8906 Y16.6011 
G01 X1.8906 Y16.4189 
G01 X1.9191 Y16.2390 
G01 X1.9754 Y16.0657 
G01 X2.0581 Y15.9034 
G01 X2.1652 Y15.7560 
G01 X2.2940 Y15.6272 
G01 X2.4414 Y15.5201 
G01 X2.6037 Y15.4374 
G01 X2.7770 Y15.3811 
G01 X2.9569 Y15.3526 
G01 X4.6631 Y15.3526 
G01 X4.8430 Y15.3811 
G01 X5.0163 Y15.4374 
G01 X5.1786 Y15.5201 
G01 X5.3260 Y15.6272 
G01 X5.4548 Y15.7560 
G01 X5.4756 Y15.7846 
G01 X5.4756 Y14.6954 
G01 X5.4548 Y14.7240 
G01 X5.3260 Y14.8528 
G01 X5.1786 Y14.9599 
G01 X5.0163 Y15.0426 
G01 X4.8430 Y15.0989 
G01 X4.6631 Y15.1274 
G01 X2.9569 Y15.1274 
G01 X2.7770 Y15.0989 
G01 X2.6037 Y15.0426 
G01 X2.4414 Y14.9599 
G01 X2.2940 Y14.8528 
G01 X2.1652 Y14.7240 
G01 X2.0581 Y14.5766 
G01 X1.9754 Y14.4143 
G01 X1.9191 Y14.2410 
G01 X1.8906 Y14.0611 
G01 X1.8906 Y13.8789 
G01 X1.9191 Y13.6990 
G01 X1.9754 Y13.5257 
G01 X2.0581 Y13.3634 
G01 X2.1652 Y13.2160 
G01 X2.2940 Y13.0872 
G01 X2.4414 Y12.9801 
G01 X2.6037 Y12.8974 
G01 X2.7770 Y12.8411 
G01 X2.9569 Y12.8126 
G01 X4.6631 Y12.8126 
G01 X4.8430 Y12.8411 
G01 X5.0163 Y12.8974 
G01 X5.1786 Y12.9801 
G01 X5.3260 Y13.0872 
G01 X5.4548 Y13.2160 
G01 X5.4756 Y13.2446 
G01 X5.4756 Y8.3454 
G01 X5.4548 Y8.3740 
G01 X5.3260 Y8.5028 
G01 X5.1786 Y8.6099 
G01 X5.0163 Y8.6926 
G01 X4.8430 Y8.7489 
G01 X4.6631 Y8.7774 
G01 X2.9569 Y8.7774 
G01 X2.7770 Y8.7489 
G01 X2.6037 Y8.6926 
G01 X2.4414 Y8.6099 
G01 X2.2940 Y8.5028 
G01 X2.1652 Y8.3740 
G01 X2.0581 Y8.2266 
G01 X1.9754 Y8.0643 
G01 X1.9191 Y7.8910 
G01 X1.8906 Y7.7111 
G01 X1.8906 Y7.5289 
G01 X1.9191 Y7.3490 
G01 X1.9754 Y7.1757 
G01 X2.0581 Y7.0134 
G01 X2.1652 Y6.8660 
G01 X2.2940 Y6.7372 
G01 X2.4414 Y6.6301 
G01 X2.6037 Y6.5474 
G01 X2.7770 Y6.4911 
G01 X2.9569 Y6.4626 
G01 X4.6631 Y6.4626 
G01 X4.8430 Y6.4911 
G01 X5.0163 Y6.5474 
G01 X5.1786 Y6.6301 
G01 X5.3260 Y6.7372 
G01 X5.4548 Y6.8660 
G01 X5.4756 Y6.8946 
G01 X5.4756 Y5.8054 
G01 X5.4548 Y5.8340 
G01 X5.3260 Y5.9628 
G01 X5.1786 Y6.0699 
G01 X5.0163 Y6.1526 
G01 X4.8430 Y6.2089 
G01 X4.6631 Y6.2374 
G01 X2.9569 Y6.2374 
G01 X2.7770 Y6.2089 
G01 X2.6037 Y6.1526 
G01 X2.4414 Y6.0699 
G01 X2.2940 Y5.9628 
G01 X2.1652 Y5.8340 
G01 X2.0581 Y5.6866 
G01 X1.9754 Y5.5243 
G01 X1.9191 Y5.3510 
G01 X1.8906 Y5.1711 
G01 X1.8906 Y4.9889 
G01 X1.9191 Y4.8090 
G01 X1.9754 Y4.6357 
G01 X2.0581 Y4.4734 
G01 X2.1652 Y4.3260 
G00 Z2.5400 
G00 X8.5522 Y10.2270 
G01 Z-0.1200 F100.00 
G01 X8.7270 Y10.0522 F230.00 
G01 X8.9269 Y9.9069 
G01 X9.1472 Y9.7947 
G01 X9.3823 Y9.7183 
G01 X9.6264 Y9.6796 
G01 X9.8736 Y9.6796 
G01 X10.1177 Y9.7183 
G01 X10.3528 Y9.7947 
G01 X10.5731 Y9.9069 
G01 X10.7730 Y10.0522 
G01 X10.9478 Y10.2270 
G01 X11.0931 Y10.4269 
G01 X11.2053 Y10.6472 
G01 X11.2817 Y10.8823 
G01 X11.3204 Y11.1264 
G01 X11.3204 Y11.3736 
G01 X11.2817 Y11.6177 
G01 X11.2215 Y11.8031 
G01 X15.3940 Y15.9756 
G01 X16.7846 Y15.9756 
G01 X16.7846 Y15.1579 
G01 X16.8115 Y15.0574 
G01 X16.8636 Y14.9672 
G01 X16.9372 Y14.8936 
G01 X17.0274 Y14.8415 
G01 X17.1279 Y14.8146 
G01 X17.6420 Y14.8146 
G01 X19.8506 Y12.6060 
G01 X19.8506 Y12.5154 
G01 X19.2206 Y11.8854 
G01 X19.2206 Y10.9746 
G01 X19.8646 Y10.3306 
G01 X20.7754 Y10.3306 
G01 X21.4194 Y10.9746 
G01 X21.4194 Y11.3823 
G01 X21.4356 Y11.3756 
G01 X21.5610 Y11.3506 
G01 X21.7606 Y11.3506 
G01 X21.7606 Y10.9746 
G01 X22.4046 Y10.3306 
G01 X23.3154 Y10.3306 
G01 X23.9594 Y10.9746 
G01 X23.9594 Y11.8854 
G01 X23.3154 Y12.5294 
G01 X22.6266 Y12.5294 
G01 X22.5576 Y12.5755 
G01 X22.4394 Y12.6244 
G01 X22.3140 Y12.6494 
G01 X22.2744 Y12.6494 
G01 X22.2744 Y14.8233 
G01 X22.3426 Y14.8415 
G01 X22.4328 Y14.8936 
G01 X22.5064 Y14.9672 
G01 X22.5585 Y15.0574 
G01 X22.5854 Y15.1579 
G01 X22.5854 Y16.0621 
G01 X22.5585 Y16.1626 
G01 X22.5064 Y16.2528 
G01 X22.4328 Y16.3264 
G01 X22.3426 Y16.3785 
G01 X22.2421 Y16.4054 
G01 X20.9379 Y16.4054 
G01 X20.8374 Y16.3785 
G01 X20.7472 Y16.3264 
G01 X20.6736 Y16.2528 
G01 X20.6215 Y16.1626 
G01 X20.5946 Y16.0621 
G01 X20.5946 Y15.1579 
G01 X20.6215 Y15.0574 
G01 X20.6736 Y14.9672 
G01 X20.7472 Y14.8936 
G01 X20.8374 Y14.8415 
G01 X20.9379 Y14.8146 
G01 X20.9756 Y14.8146 
G01 X20.9756 Y13.3178 
G01 X20.9140 Y13.3794 
G01 X18.7754 Y15.5180 
G01 X18.7754 Y16.0621 
G01 X18.7484 Y16.1626 
G01 X18.6964 Y16.2528 
G01 X18.6228 Y16.3264 
G01 X18.5326 Y16.3785 
G01 X18.4321 Y16.4054 
G01 X17.6988 Y16.4054 
G01 X17.9080 Y16.6146 
G01 X18.4321 Y16.6146 
G01 X18.5326 Y16.6415 
G01 X18.6228 Y16.6936 
G01 X18.6964 Y16.7672 
G01 X18.7484 Y16.8574 
G01 X18.7754 Y16.9579 
G01 X18.7754 Y17.8621 
G01 X18.7484 Y17.9626 
G01 X18.6964 Y18.0528 
G01 X18.6228 Y18.1264 
G01 X18.5326 Y18.1785 
G01 X18.4321 Y18.2054 
G01 X17.1279 Y18.2054 
G01 X17.0274 Y18.1785 
G01 X16.9372 Y18.1264 
G01 X16.8636 Y18.0528 
G01 X16.8115 Y17.9626 
G01 X16.7846 Y17.8621 
G01 X16.7846 Y17.3280 
G01 X16.7310 Y17.2744 
G01 X15.0610 Y17.2744 
G01 X14.9356 Y17.2494 
G01 X14.8174 Y17.2005 
G01 X14.7110 Y17.1294 
G01 X14.6206 Y17.0390 
G01 X10.3031 Y12.7215 
G01 X10.1177 Y12.7817 
G01 X9.8736 Y12.8204 
G01 X9.6264 Y12.8204 
G01 X9.3823 Y12.7817 
G01 X9.1472 Y12.7053 
G01 X8.9269 Y12.5931 
G01 X8.7270 Y12.4478 
G01 X8.5522 Y12.2730 
G01 X8.4069 Y12.0731 
G01 X8.2947 Y11.8528 
G01 X8.2183 Y11.6177 
G01 X8.1796 Y11.3736 
G01 X8.1796 Y11.1264 
G01 X8.2183 Y10.8823 
G01 X8.2947 Y10.6472 
G01 X8.4069 Y10.4269 
G01 X8.5522 Y10.2270 
G00 Z2.5400 
G00 X16.6806 Y10.9746 
G01 Z-0.1200 F100.00 
G01 X17.3246 Y10.3306 F230.00 
G01 X18.2354 Y10.3306 
G01 X18.8794 Y10.9746 
G01 X18.8794 Y11.8854 
G01 X18.2354 Y12.5294 
G01 X17.3246 Y12.5294 
G01 X16.6806 Y11.8854 
G01 X16.6806 Y10.9746 
G00 Z2.5400 
G00 X17.3246 Y9.9894 
G01 Z-0.1200 F100.00 
G01 X16.6806 Y9.3454 F230.00 
G01 X16.6806 Y8.4346 
G01 X16.8506 Y8.2646 
G01 X16.8506 Y6.0445 
G01 X16.7672 Y5.9964 
G01 X16.6936 Y5.9228 
G01 X16.6415 Y5.8326 
G01 X16.6146 Y5.7321 
G01 X16.6146 Y4.4279 
G01 X16.6415 Y4.3274 
G01 X16.6936 Y4.2372 
G01 X16.7672 Y4.1636 
G01 X16.8574 Y4.1115 
G01 X16.9579 Y4.0846 
G01 X17.8621 Y4.0846 
G01 X17.9626 Y4.1115 
G01 X18.0528 Y4.1636 
G01 X18.1264 Y4.2372 
G01 X18.1785 Y4.3274 
G01 X18.2054 Y4.4279 
G01 X18.2054 Y5.7321 
G01 X18.1785 Y5.8326 
G01 X18.1494 Y5.8829 
G01 X18.1494 Y5.9756 
G01 X37.1890 Y5.9756 
G01 X37.3144 Y6.0006 
G01 X37.4326 Y6.0495 
G01 X37.5390 Y6.1206 
G01 X37.6294 Y6.2110 
G01 X37.7005 Y6.3174 
G01 X37.7494 Y6.4356 
G01 X37.7744 Y6.5610 
G01 X37.7744 Y21.0640 
G01 X37.7494 Y21.1894 
G01 X37.7005 Y21.3076 
G01 X37.6294 Y21.4140 
G01 X37.5390 Y21.5044 
G01 X34.7489 Y24.2945 
G01 X34.7489 Y24.7206 
G01 X34.7144 Y24.8494 
G01 X34.6477 Y24.9649 
G01 X34.5534 Y25.0592 
G01 X34.4379 Y25.1259 
G01 X34.3091 Y25.1604 
G01 X33.5089 Y25.1604 
G01 X33.3801 Y25.1259 
G01 X33.2646 Y25.0592 
G01 X33.1703 Y24.9649 
G01 X33.1036 Y24.8494 
G01 X33.0691 Y24.7206 
G01 X33.0691 Y23.5394 
G01 X33.1036 Y23.4106 
G01 X33.1703 Y23.2951 
G01 X33.2646 Y23.2008 
G01 X33.3801 Y23.1341 
G01 X33.5089 Y23.0996 
G01 X34.1070 Y23.0996 
G01 X36.4756 Y20.7310 
G01 X36.4756 Y7.2744 
G01 X18.1494 Y7.2744 
G01 X18.1494 Y7.7906 
G01 X18.2354 Y7.7906 
G01 X18.8794 Y8.4346 
G01 X18.8794 Y9.3454 
G01 X18.2354 Y9.9894 
G01 X17.3246 Y9.9894 
G00 Z2.5400 
G00 X19.8646 Y9.9894 
G01 Z-0.1200 F100.00 
G01 X19.2206 Y9.3454 F230.00 
G01 X19.2206 Y8.4346 
G01 X19.8646 Y7.7906 
G01 X20.7754 Y7.7906 
G01 X21.4194 Y8.4346 
G01 X21.4194 Y9.3454 
G01 X20.7754 Y9.9894 
G01 X19.8646 Y9.9894 
G00 Z2.5400 
G00 X22.4046 Y9.9894 
G01 Z-0.1200 F100.00 
G01 X21.7606 Y9.3454 F230.00 
G01 X21.7606 Y8.4346 
G01 X22.4046 Y7.7906 
G01 X23.3154 Y7.7906 
G01 X23.9594 Y8.4346 
G01 X23.9594 Y9.3454 
G01 X23.3154 Y9.9894 
G01 X22.4046 Y9.9894 
G00 Z2.5400 
G00 X24.9446 Y9.9894 
G01 Z-0.1200 F100.00 
G01 X24.3006 Y9.3454 F230.00 
G01 X24.3006 Y8.4346 
G01 X24.9446 Y7.7906 
G01 X25.8554 Y7.7906 
G01 X26.4994 Y8.4346 
G01 X26.4994 Y9.3454 
G01 X25.8554 Y9.9894 
G01 X24.9446 Y9.9894 
G00 Z2.5400 
G00 X27.0522 Y13.8520 
G01 Z-0.1200 F100.00 
G01 X27.2270 Y13.6772 F230.00 
G01 X27.4269 Y13.5319 
G01 X27.6472 Y13.4197 
G01 X27.8823 Y13.3433 
G01 X28.1264 Y13.3046 
G01 X28.3736 Y13.3046 
G01 X28.6177 Y13.3433 
G01 X28.8528 Y13.4197 
G01 X29.0731 Y13.5319 
G01 X29.2730 Y13.6772 
G01 X29.4478 Y13.8520 
G01 X29.5931 Y14.0519 
G01 X29.7053 Y14.2722 
G01 X29.7714 Y14.4756 
G01 X33.9390 Y14.4756 
G01 X34.0644 Y14.5006 
G01 X34.1826 Y14.5495 
G01 X34.2890 Y14.6206 
G01 X34.3506 Y14.6822 
G01 X34.3506 Y14.2965 
G01 X34.2573 Y14.2817 
G01 X34.0222 Y14.2053 
G01 X33.8019 Y14.0931 
G01 X33.6020 Y13.9478 
G01 X33.4272 Y13.7730 
G01 X33.2819 Y13.5731 
G01 X33.1697 Y13.3528 
G01 X33.0933 Y13.1177 
G01 X33.0546 Y12.8736 
G01 X33.0546 Y12.6264 
G01 X33.0933 Y12.3823 
G01 X33.1697 Y12.1472 
G01 X33.2819 Y11.9269 
G01 X33.4272 Y11.7270 
G01 X33.6020 Y11.5522 
G01 X33.8019 Y11.4069 
G01 X34.0222 Y11.2947 
G01 X34.2573 Y11.2183 
G01 X34.5014 Y11.1796 
G01 X34.7486 Y11.1796 
G01 X34.9927 Y11.2183 
G01 X35.2278 Y11.2947 
G01 X35.4481 Y11.4069 
G01 X35.6480 Y11.5522 
G01 X35.8228 Y11.7270 
G01 X35.9681 Y11.9269 
G01 X36.0803 Y12.1472 
G01 X36.1567 Y12.3823 
G01 X36.1954 Y12.6264 
G01 X36.1954 Y12.8736 
G01 X36.1567 Y13.1177 
G01 X36.0803 Y13.3528 
G01 X35.9681 Y13.5731 
G01 X35.8228 Y13.7730 
G01 X35.6494 Y13.9465 
G01 X35.6494 Y17.4390 
G01 X35.6244 Y17.5644 
G01 X35.5755 Y17.6826 
G01 X35.5044 Y17.7890 
G01 X35.4140 Y17.8794 
G01 X34.9140 Y18.3794 
G01 X34.8076 Y18.4505 
G01 X34.6894 Y18.4994 
G01 X34.6494 Y18.5074 
G01 X34.6494 Y19.4881 
G01 X34.7144 Y19.6006 
G01 X34.7489 Y19.7294 
G01 X34.7489 Y20.9106 
G01 X34.7144 Y21.0394 
G01 X34.6477 Y21.1549 
G01 X34.5534 Y21.2492 
G01 X34.4379 Y21.3159 
G01 X34.3091 Y21.3504 
G01 X33.5089 Y21.3504 
G01 X33.3801 Y21.3159 
G01 X33.2646 Y21.2492 
G01 X33.1703 Y21.1549 
G01 X33.1036 Y21.0394 
G01 X33.0691 Y20.9106 
G01 X33.0691 Y19.7294 
G01 X33.1036 Y19.6006 
G01 X33.1703 Y19.4851 
G01 X33.2646 Y19.3908 
G01 X33.3506 Y19.3412 
G01 X33.3506 Y17.8110 
G01 X33.3756 Y17.6856 
G01 X33.4245 Y17.5674 
G01 X33.4526 Y17.5253 
G01 X33.3801 Y17.5059 
G01 X33.2646 Y17.4392 
G01 X33.1703 Y17.3449 
G01 X33.1036 Y17.2294 
G01 X33.0691 Y17.1006 
G01 X33.0691 Y15.9194 
G01 X33.1036 Y15.7906 
G01 X33.1130 Y15.7744 
G01 X32.9270 Y15.7744 
G01 X32.9364 Y15.7906 
G01 X32.9709 Y15.9194 
G01 X32.9709 Y17.1006 
G01 X32.9364 Y17.2294 
G01 X32.8697 Y17.3449 
G01 X32.7754 Y17.4392 
G01 X32.6599 Y17.5059 
G01 X32.5311 Y17.5404 
G01 X31.7309 Y17.5404 
G01 X31.6021 Y17.5059 
G01 X31.4866 Y17.4392 
G01 X31.3923 Y17.3449 
G01 X31.3516 Y17.2744 
G01 X30.2690 Y17.2744 
G01 X27.0954 Y20.4480 
G01 X27.0954 Y20.9721 
G01 X27.0684 Y21.0726 
G01 X27.0164 Y21.1628 
G01 X26.9428 Y21.2364 
G01 X26.8526 Y21.2885 
G01 X26.7521 Y21.3154 
G01 X25.8479 Y21.3154 
G01 X25.7474 Y21.2885 
G01 X25.6572 Y21.2364 
G01 X25.5836 Y21.1628 
G01 X25.5315 Y21.0726 
G01 X25.5046 Y20.9721 
G01 X25.5046 Y19.6679 
G01 X25.5315 Y19.5674 
G01 X25.5836 Y19.4772 
G01 X25.6572 Y19.4036 
G01 X25.7474 Y19.3515 
G01 X25.8479 Y19.3246 
G01 X26.3820 Y19.3246 
G01 X29.4956 Y16.2110 
G01 X29.5860 Y16.1206 
G01 X29.6924 Y16.0495 
G01 X29.8106 Y16.0006 
G01 X29.9360 Y15.9756 
G01 X31.2911 Y15.9756 
G01 X31.2911 Y15.9194 
G01 X31.3256 Y15.7906 
G01 X31.3350 Y15.7744 
G01 X29.5377 Y15.7744 
G01 X29.4478 Y15.8980 
G01 X29.2730 Y16.0728 
G01 X29.0731 Y16.2181 
G01 X28.8528 Y16.3303 
G01 X28.6177 Y16.4067 
G01 X28.3736 Y16.4454 
G01 X28.1264 Y16.4454 
G01 X27.8823 Y16.4067 
G01 X27.6472 Y16.3303 
G01 X27.4269 Y16.2181 
G01 X27.2270 Y16.0728 
G01 X27.0522 Y15.8980 
G01 X26.9069 Y15.6981 
G01 X26.7947 Y15.4778 
G01 X26.7183 Y15.2427 
G01 X26.6796 Y14.9986 
G01 X26.6796 Y14.7514 
G01 X26.7183 Y14.5073 
G01 X26.7947 Y14.2722 
G01 X26.9069 Y14.0519 
G01 X27.0522 Y13.8520 
G00 Z2.5400 
G00 X24.4046 Y17.5138 
G01 Z-0.1200 F100.00 
G01 X19.9140 Y22.0044 F230.00 
G01 X19.8076 Y22.0755 
G01 X19.6894 Y22.1244 
G01 X19.5640 Y22.1494 
G01 X6.7744 Y22.1494 
G01 X6.7744 Y39.0868 
G01 X6.8660 Y38.9952 
G01 X7.0134 Y38.8881 
G01 X7.1757 Y38.8054 
G01 X7.3490 Y38.7491 
G01 X7.5289 Y38.7206 
G01 X7.7111 Y38.7206 
G01 X7.8910 Y38.7491 
G01 X8.0643 Y38.8054 
G01 X8.2047 Y38.8769 
G01 X11.9610 Y35.1206 
G01 X12.0674 Y35.0495 
G01 X12.1856 Y35.0006 
G01 X12.3110 Y34.9756 
G01 X21.9621 Y34.9756 
G01 X21.9848 Y34.9362 
G01 X22.0584 Y34.8626 
G01 X22.1486 Y34.8105 
G01 X22.2491 Y34.7836 
G01 X24.5885 Y34.7836 
G01 X24.6890 Y34.8105 
G01 X24.7792 Y34.8626 
G01 X24.8528 Y34.9362 
G01 X24.9048 Y35.0264 
G01 X24.9318 Y35.1269 
G01 X24.9318 Y36.4503 
G01 X24.9048 Y36.5508 
G01 X24.8528 Y36.6410 
G01 X24.7792 Y36.7146 
G01 X24.6890 Y36.7666 
G01 X24.5885 Y36.7936 
G01 X22.2491 Y36.7936 
G01 X22.1486 Y36.7666 
G01 X22.0584 Y36.7146 
G01 X21.9848 Y36.6410 
G01 X21.9327 Y36.5508 
G01 X21.9058 Y36.4503 
G01 X21.9058 Y36.2744 
G01 X18.7164 Y36.2744 
G01 X18.7164 Y39.9521 
G01 X18.7101 Y39.9756 
G01 X21.9058 Y39.9756 
G01 X21.9058 Y39.7497 
G01 X21.9327 Y39.6492 
G01 X21.9848 Y39.5590 
G01 X22.0584 Y39.4854 
G01 X22.1486 Y39.4333 
G01 X22.2491 Y39.4064 
G01 X24.5885 Y39.4064 
G01 X24.6890 Y39.4333 
G01 X24.7792 Y39.4854 
G01 X24.8528 Y39.5590 
G01 X24.9048 Y39.6492 
G01 X24.9253 Y39.7256 
G01 X28.2310 Y39.7256 
G01 X30.2066 Y37.7500 
G01 X27.4810 Y35.0244 
G01 X26.8110 Y35.0244 
G01 X26.6856 Y34.9994 
G01 X26.5674 Y34.9505 
G01 X26.4610 Y34.8794 
G01 X26.3706 Y34.7890 
G01 X24.3270 Y32.7454 
G01 X24.0479 Y32.7454 
G01 X23.9474 Y32.7184 
G01 X23.8572 Y32.6664 
G01 X23.7836 Y32.5928 
G01 X23.7315 Y32.5026 
G01 X23.7046 Y32.4021 
G01 X23.7046 Y31.0979 
G01 X23.7315 Y30.9974 
G01 X23.7836 Y30.9072 
G01 X23.8506 Y30.8402 
G01 X23.8506 Y28.8498 
G01 X23.7836 Y28.7828 
G01 X23.7315 Y28.6926 
G01 X23.7046 Y28.5921 
G01 X23.7046 Y27.2879 
G01 X23.7315 Y27.1874 
G01 X23.7836 Y27.0972 
G01 X23.8506 Y27.0302 
G01 X23.8506 Y25.0398 
G01 X23.7836 Y24.9728 
G01 X23.7315 Y24.8826 
G01 X23.7046 Y24.7821 
G01 X23.7046 Y23.4779 
G01 X23.7315 Y23.3774 
G01 X23.7836 Y23.2872 
G01 X23.8506 Y23.2202 
G01 X23.8506 Y21.2298 
G01 X23.7836 Y21.1628 
G01 X23.7315 Y21.0726 
G01 X23.7046 Y20.9721 
G01 X23.7046 Y20.0888 
G01 X14.3794 Y29.4140 
G01 X14.2890 Y29.5044 
G01 X14.1826 Y29.5755 
G01 X14.0644 Y29.6244 
G01 X13.9390 Y29.6494 
