(.../Personal Projects/pcb-gcode/pcb-gcode.ulp)
(Copyright 2005 - 2012 by John Johnson)
(See readme.txt for licensing terms.)
(This file generated from the board:)
(.../esp01-4xMosFET/Mosfetboard.brd)
(Current profile is .../pcb-gcode/profiles/generic.pp  )
(This file generated 1/1/19 4:07 PM)
(Settings from pcb-machine.h)
(spindle on time = 0.5000)
(  Tool Size)
(0.1800 )
(spindle speed = 30000.0000)
(tool change at 0.0000 0.0000 10.0000 )
(feed rate xy = F230.00 )
(feed rate z  = F100.00 )
(Z Axis Settings)
(  High     Up        Down     Drill)
(10.0000 	2.5400 	-0.1200 	-3.0000 )
(Settings from pcb-defaults.h)
(isolate min = 0.0254)
(isolate max = 0.4000)
(isolate step = 0.1400)
(Generated top outlines, top drill, bottom outlines, bottom drill, )
(Unit of measure: mm)
(Metric Mode)
G21
(Absolute Coordinates)
G90
S30000
G00 Z10.0000 
G00 X0.0000 Y0.0000 
M03
G04 P0.500000
G00 Z2.5400 
G00 X2.3665 Y4.5207 
G01 Z-0.1200 F100.00 
G01 X2.2705 Y4.6644 F230.00 
G01 X2.2043 Y4.8241 
G01 X2.1706 Y4.9936 
G01 X2.1706 Y5.1664 
G01 X2.2043 Y5.3359 
G01 X2.2705 Y5.4956 
G01 X2.3665 Y5.6393 
G01 X2.4887 Y5.7615 
G01 X2.6324 Y5.8575 
G01 X2.7921 Y5.9237 
G01 X2.9616 Y5.9574 
G01 X4.6584 Y5.9574 
G01 X4.8279 Y5.9237 
G01 X4.9876 Y5.8575 
G01 X5.1313 Y5.7615 
G01 X5.1894 Y5.7034 
G01 X8.6318 Y5.7034 
G01 X9.5146 Y6.5862 
G01 X9.5146 Y6.8730 
G01 X9.5322 Y6.9154 
G01 X9.5646 Y6.9478 
G01 X9.6070 Y6.9654 
G01 X10.0584 Y6.9654 
G01 X10.0986 Y6.9734 
G01 X10.3914 Y6.9734 
G01 X10.4316 Y6.9654 
G01 X11.0530 Y6.9654 
G01 X11.0954 Y6.9478 
G01 X11.1278 Y6.9154 
G01 X11.1454 Y6.8730 
G01 X11.1454 Y5.8270 
G01 X11.1278 Y5.7846 
G01 X11.0954 Y5.7522 
G01 X11.0530 Y5.7346 
G01 X10.4316 Y5.7346 
G01 X10.4249 Y5.7333 
G01 X9.2874 Y4.5958 
G01 X9.1853 Y4.5275 
G01 X9.0718 Y4.4806 
G01 X8.9514 Y4.4566 
G01 X5.1894 Y4.4566 
G01 X5.1313 Y4.3985 
G01 X4.9876 Y4.3025 
G01 X4.8279 Y4.2363 
G01 X4.6584 Y4.2026 
G01 X2.9616 Y4.2026 
G01 X2.7921 Y4.2363 
G01 X2.6324 Y4.3025 
G01 X2.4887 Y4.3985 
G01 X2.3665 Y4.5207 
G00 Z2.5400 
G00 X2.4306 Y6.9966 
G01 Z-0.1200 F100.00 
G01 X1.2086 Y6.9966 F230.00 
G01 X1.0882 Y7.0206 
G01 X0.9747 Y7.0675 
G01 X0.8726 Y7.1358 
G01 X0.7858 Y7.2226 
G01 X0.7176 Y7.3247 
G01 X0.6706 Y7.4382 
G01 X0.6466 Y7.5586 
G01 X0.6466 Y34.3514 
G01 X0.6706 Y34.4718 
G01 X0.7176 Y34.5853 
G01 X0.7858 Y34.6874 
G01 X0.8726 Y34.7742 
G01 X0.9747 Y34.8424 
G01 X1.0882 Y34.8894 
G01 X1.2086 Y34.9134 
G01 X2.4306 Y34.9134 
G01 X2.4887 Y34.9715 
G01 X2.6324 Y35.0675 
G01 X2.7921 Y35.1337 
G01 X2.9616 Y35.1674 
G01 X3.1866 Y35.1674 
G01 X3.1866 Y40.7014 
G01 X3.2106 Y40.8218 
G01 X3.2576 Y40.9353 
G01 X3.3258 Y41.0374 
G01 X3.4126 Y41.1242 
G01 X3.5147 Y41.1924 
G01 X3.6282 Y41.2394 
G01 X3.7486 Y41.2634 
G01 X6.7426 Y41.2634 
G01 X6.7426 Y41.4884 
G01 X6.7763 Y41.6579 
G01 X6.8425 Y41.8176 
G01 X6.9385 Y41.9613 
G01 X7.0607 Y42.0835 
G01 X7.2044 Y42.1795 
G01 X7.3641 Y42.2457 
G01 X7.5336 Y42.2794 
G01 X7.7064 Y42.2794 
G01 X7.8759 Y42.2457 
G01 X8.0356 Y42.1795 
G01 X8.1793 Y42.0835 
G01 X8.3015 Y41.9613 
G01 X8.3975 Y41.8176 
G01 X8.4637 Y41.6579 
G01 X8.4974 Y41.4884 
G01 X8.4974 Y39.7916 
G01 X8.4637 Y39.6221 
G01 X8.3975 Y39.4624 
G01 X8.3015 Y39.3187 
G01 X8.1793 Y39.1965 
G01 X8.0356 Y39.1005 
G01 X7.8759 Y39.0343 
G01 X7.7064 Y39.0006 
G01 X7.5336 Y39.0006 
G01 X7.3641 Y39.0343 
G01 X7.2044 Y39.1005 
G01 X7.0607 Y39.1965 
G01 X6.9385 Y39.3187 
G01 X6.8425 Y39.4624 
G01 X6.7763 Y39.6221 
G01 X6.7426 Y39.7916 
G01 X6.7426 Y40.0166 
G01 X4.4334 Y40.0166 
G01 X4.4334 Y35.1674 
G01 X4.6584 Y35.1674 
G01 X4.8279 Y35.1337 
G01 X4.9876 Y35.0675 
G01 X5.1313 Y34.9715 
G01 X5.2535 Y34.8493 
G01 X5.3495 Y34.7056 
G01 X5.4157 Y34.5459 
G01 X5.4494 Y34.3764 
G01 X5.4494 Y34.2036 
G01 X5.4157 Y34.0341 
G01 X5.3495 Y33.8744 
G01 X5.2535 Y33.7307 
G01 X5.1313 Y33.6085 
G01 X4.9876 Y33.5125 
G01 X4.8279 Y33.4463 
G01 X4.6584 Y33.4126 
G01 X2.9616 Y33.4126 
G01 X2.7921 Y33.4463 
G01 X2.6324 Y33.5125 
G01 X2.4887 Y33.6085 
G01 X2.4306 Y33.6666 
G01 X1.8934 Y33.6666 
G01 X1.8934 Y26.0234 
G01 X2.4306 Y26.0234 
G01 X2.4887 Y26.0815 
G01 X2.6324 Y26.1775 
G01 X2.7921 Y26.2437 
G01 X2.9616 Y26.2774 
G01 X4.6584 Y26.2774 
G01 X4.8279 Y26.2437 
G01 X4.9876 Y26.1775 
G01 X5.1313 Y26.0815 
G01 X5.2535 Y25.9593 
G01 X5.3495 Y25.8156 
G01 X5.4157 Y25.6559 
G01 X5.4494 Y25.4864 
G01 X5.4494 Y25.3136 
G01 X5.4157 Y25.1441 
G01 X5.3495 Y24.9844 
G01 X5.2535 Y24.8407 
G01 X5.1313 Y24.7185 
G01 X4.9876 Y24.6225 
G01 X4.8279 Y24.5563 
G01 X4.6584 Y24.5226 
G01 X2.9616 Y24.5226 
G01 X2.7921 Y24.5563 
G01 X2.6324 Y24.6225 
G01 X2.4887 Y24.7185 
G01 X2.4306 Y24.7766 
G01 X1.8934 Y24.7766 
G01 X1.8934 Y17.1334 
G01 X2.4306 Y17.1334 
G01 X2.4887 Y17.1915 
G01 X2.6324 Y17.2875 
G01 X2.7921 Y17.3537 
G01 X2.9616 Y17.3874 
G01 X4.6584 Y17.3874 
G01 X4.8279 Y17.3537 
G01 X4.9876 Y17.2875 
G01 X5.1313 Y17.1915 
G01 X5.2535 Y17.0693 
G01 X5.3495 Y16.9256 
G01 X5.4157 Y16.7659 
G01 X5.4494 Y16.5964 
G01 X5.4494 Y16.4236 
G01 X5.4157 Y16.2541 
G01 X5.3495 Y16.0944 
G01 X5.2535 Y15.9507 
G01 X5.1313 Y15.8285 
G01 X4.9876 Y15.7325 
G01 X4.8279 Y15.6663 
G01 X4.6584 Y15.6326 
G01 X2.9616 Y15.6326 
G01 X2.7921 Y15.6663 
G01 X2.6324 Y15.7325 
G01 X2.4887 Y15.8285 
G01 X2.4306 Y15.8866 
G01 X1.8934 Y15.8866 
G01 X1.8934 Y8.2434 
G01 X2.4306 Y8.2434 
G01 X2.4887 Y8.3015 
G01 X2.6324 Y8.3975 
G01 X2.7921 Y8.4637 
G01 X2.9616 Y8.4974 
G01 X4.6584 Y8.4974 
G01 X4.8279 Y8.4637 
G01 X4.9876 Y8.3975 
G01 X5.1313 Y8.3015 
G01 X5.2535 Y8.1793 
G01 X5.3495 Y8.0356 
G01 X5.4157 Y7.8759 
G01 X5.4494 Y7.7064 
G01 X5.4494 Y7.5336 
G01 X5.4157 Y7.3641 
G01 X5.3495 Y7.2044 
G01 X5.2535 Y7.0607 
G01 X5.1313 Y6.9385 
G01 X4.9876 Y6.8425 
G01 X4.8279 Y6.7763 
G01 X4.6584 Y6.7426 
G01 X2.9616 Y6.7426 
G01 X2.7921 Y6.7763 
G01 X2.6324 Y6.8425 
G01 X2.4887 Y6.9385 
G01 X2.4306 Y6.9966 
G00 Z2.5400 
G00 X2.4887 Y13.2885 
G01 Z-0.1200 F100.00 
G01 X2.3665 Y13.4107 F230.00 
G01 X2.2705 Y13.5544 
G01 X2.2043 Y13.7141 
G01 X2.1706 Y13.8836 
G01 X2.1706 Y14.0564 
G01 X2.2043 Y14.2259 
G01 X2.2705 Y14.3856 
G01 X2.3665 Y14.5293 
G01 X2.4887 Y14.6515 
G01 X2.6324 Y14.7475 
G01 X2.7921 Y14.8137 
G01 X2.9616 Y14.8474 
G01 X4.6584 Y14.8474 
G01 X4.8279 Y14.8137 
G01 X4.9876 Y14.7475 
G01 X5.1313 Y14.6515 
G01 X5.1894 Y14.5934 
G01 X8.8018 Y14.5934 
G01 X9.5146 Y15.3062 
G01 X9.5146 Y15.7630 
G01 X9.5322 Y15.8054 
G01 X9.5646 Y15.8378 
G01 X9.6070 Y15.8554 
G01 X10.2284 Y15.8554 
G01 X10.2686 Y15.8634 
G01 X10.3914 Y15.8634 
G01 X10.4316 Y15.8554 
G01 X11.0530 Y15.8554 
G01 X11.0954 Y15.8378 
G01 X11.1278 Y15.8054 
G01 X11.1454 Y15.7630 
G01 X11.1454 Y14.7170 
G01 X11.1278 Y14.6746 
G01 X11.0954 Y14.6422 
G01 X11.0530 Y14.6246 
G01 X10.5962 Y14.6246 
G01 X9.4574 Y13.4858 
G01 X9.3553 Y13.4176 
G01 X9.2418 Y13.3706 
G01 X9.1214 Y13.3466 
G01 X5.1894 Y13.3466 
G01 X5.1313 Y13.2885 
G01 X4.9876 Y13.1925 
G01 X4.8279 Y13.1263 
G01 X4.6584 Y13.0926 
G01 X2.9616 Y13.0926 
G01 X2.7921 Y13.1263 
G01 X2.6324 Y13.1925 
G01 X2.4887 Y13.2885 
G00 Z2.5400 
G00 X8.9094 Y12.2343 
G01 Z-0.1200 F100.00 
G01 X9.0737 Y12.3536 F230.00 
G01 X9.2547 Y12.4459 
G01 X9.4478 Y12.5086 
G01 X9.6484 Y12.5404 
G01 X9.8516 Y12.5404 
G01 X10.0522 Y12.5086 
G01 X10.2453 Y12.4459 
G01 X10.3633 Y12.3857 
G01 X11.7234 Y13.7458 
G01 X11.7146 Y13.7670 
G01 X11.7146 Y14.8130 
G01 X11.7322 Y14.8554 
G01 X11.7646 Y14.8878 
G01 X11.8070 Y14.9054 
G01 X13.2530 Y14.9054 
G01 X13.2954 Y14.8878 
G01 X13.3278 Y14.8554 
G01 X13.3454 Y14.8130 
G01 X13.3454 Y13.7670 
G01 X13.3278 Y13.7246 
G01 X13.2954 Y13.6922 
G01 X13.2530 Y13.6746 
G01 X12.4944 Y13.6746 
G01 X12.4944 Y13.5764 
G01 X12.4692 Y13.4824 
G01 X12.4206 Y13.3982 
G01 X12.3518 Y13.3294 
G01 X10.8857 Y11.8633 
G01 X10.9459 Y11.7453 
G01 X11.0086 Y11.5522 
G01 X11.0404 Y11.3516 
G01 X11.0404 Y11.1484 
G01 X11.0086 Y10.9478 
G01 X10.9459 Y10.7547 
G01 X10.8536 Y10.5737 
G01 X10.7343 Y10.4094 
G01 X10.5906 Y10.2657 
G01 X10.4263 Y10.1463 
G01 X10.2453 Y10.0541 
G01 X10.0522 Y9.9914 
G01 X9.8516 Y9.9596 
G01 X9.6484 Y9.9596 
G01 X9.4478 Y9.9914 
G01 X9.2547 Y10.0541 
G01 X9.0737 Y10.1463 
G01 X8.9094 Y10.2657 
G01 X8.7657 Y10.4094 
G01 X8.6463 Y10.5737 
G01 X8.5541 Y10.7547 
G01 X8.4914 Y10.9478 
G01 X8.4596 Y11.1484 
G01 X8.4596 Y11.3516 
G01 X8.4914 Y11.5522 
G01 X8.5541 Y11.7453 
G01 X8.6463 Y11.9263 
G01 X8.7657 Y12.0906 
G01 X8.9094 Y12.2343 
G00 Z2.5400 
G00 X12.0458 Y12.2302 
G01 Z-0.1200 F100.00 
G01 X13.4956 Y13.6800 F230.00 
G01 X13.4956 Y14.9000 
G01 X13.3400 Y15.0556 
G01 X12.9796 Y15.0556 
G01 X12.8592 Y15.0796 
G01 X12.7457 Y15.1265 
G01 X12.6436 Y15.1948 
G01 X12.5568 Y15.2816 
G01 X12.2638 Y15.5746 
G01 X11.8070 Y15.5746 
G01 X11.7646 Y15.5922 
G01 X11.7322 Y15.6246 
G01 X11.7146 Y15.6670 
G01 X11.7146 Y16.7130 
G01 X11.7322 Y16.7554 
G01 X11.7646 Y16.7878 
G01 X11.8070 Y16.8054 
G01 X11.9066 Y16.8054 
G01 X11.9066 Y20.7842 
G01 X11.9306 Y20.9046 
G01 X11.9776 Y21.0181 
G01 X12.0458 Y21.1202 
G01 X13.4956 Y22.5700 
G01 X13.4956 Y23.7900 
G01 X13.3400 Y23.9456 
G01 X12.9796 Y23.9456 
G01 X12.8592 Y23.9696 
G01 X12.7457 Y24.0165 
G01 X12.6436 Y24.0848 
G01 X12.5568 Y24.1716 
G01 X12.2638 Y24.4646 
G01 X11.8070 Y24.4646 
G01 X11.7646 Y24.4822 
G01 X11.7322 Y24.5146 
G01 X11.7146 Y24.5570 
G01 X11.7146 Y25.6030 
G01 X11.7322 Y25.6454 
G01 X11.7646 Y25.6778 
G01 X11.8070 Y25.6954 
G01 X11.9066 Y25.6954 
G01 X11.9066 Y29.6742 
G01 X11.9306 Y29.7946 
G01 X11.9776 Y29.9081 
G01 X12.0458 Y30.0102 
G01 X13.4956 Y31.4600 
G01 X13.4956 Y32.6800 
G01 X13.3400 Y32.8356 
G01 X12.9796 Y32.8356 
G01 X12.8592 Y32.8596 
G01 X12.7457 Y32.9066 
G01 X12.6436 Y32.9748 
G01 X12.5568 Y33.0616 
G01 X12.2638 Y33.3546 
G01 X11.8070 Y33.3546 
G01 X11.7646 Y33.3722 
G01 X11.7322 Y33.4046 
G01 X11.7146 Y33.4470 
G01 X11.7146 Y34.4930 
G01 X11.7322 Y34.5354 
G01 X11.7646 Y34.5678 
G01 X11.8070 Y34.5854 
G01 X11.9066 Y34.5854 
G01 X11.9066 Y38.0118 
G01 X11.6658 Y38.2526 
G01 X10.7206 Y39.1978 
G01 X10.5756 Y39.1005 
G01 X10.4159 Y39.0343 
G01 X10.2464 Y39.0006 
G01 X10.0736 Y39.0006 
G01 X9.9041 Y39.0343 
G01 X9.7444 Y39.1005 
G01 X9.6007 Y39.1965 
G01 X9.4785 Y39.3187 
G01 X9.3825 Y39.4624 
G01 X9.3163 Y39.6221 
G01 X9.2826 Y39.7916 
G01 X9.2826 Y41.4884 
G01 X9.3163 Y41.6579 
G01 X9.3825 Y41.8176 
G01 X9.4785 Y41.9613 
G01 X9.6007 Y42.0835 
G01 X9.7444 Y42.1795 
G01 X9.9041 Y42.2457 
G01 X10.0736 Y42.2794 
G01 X10.2464 Y42.2794 
G01 X10.4159 Y42.2457 
G01 X10.5756 Y42.1795 
G01 X10.7193 Y42.0835 
G01 X10.8415 Y41.9613 
G01 X10.9375 Y41.8176 
G01 X11.0037 Y41.6579 
G01 X11.0374 Y41.4884 
G01 X11.0374 Y40.6442 
G01 X12.3447 Y39.3369 
G01 X12.3574 Y39.3442 
G01 X12.4514 Y39.3694 
G01 X12.5486 Y39.3694 
G01 X12.6426 Y39.3442 
G01 X12.7268 Y39.2956 
G01 X12.7956 Y39.2268 
G01 X12.8442 Y39.1426 
G01 X12.8641 Y39.0683 
G01 X12.8725 Y39.0652 
G01 X12.9521 Y39.0093 
G01 X13.0145 Y38.9347 
G01 X13.0555 Y38.8465 
G01 X13.0723 Y38.7507 
G01 X13.0636 Y38.6538 
G01 X13.0494 Y38.6148 
G01 X13.0824 Y38.5653 
G01 X13.1294 Y38.4518 
G01 X13.1534 Y38.3314 
G01 X13.1534 Y34.5854 
G01 X13.2530 Y34.5854 
G01 X13.2954 Y34.5678 
G01 X13.3278 Y34.5354 
G01 X13.3454 Y34.4930 
G01 X13.3454 Y34.0824 
G01 X13.6596 Y34.0824 
G01 X13.7801 Y34.0584 
G01 X13.8935 Y34.0114 
G01 X13.9956 Y33.9432 
G01 X14.0825 Y33.8564 
G01 X14.5164 Y33.4225 
G01 X14.6032 Y33.3356 
G01 X14.6714 Y33.2335 
G01 X14.7184 Y33.1201 
G01 X14.7424 Y32.9996 
G01 X14.7424 Y31.1404 
G01 X14.7184 Y31.0199 
G01 X14.6714 Y30.9065 
G01 X14.6032 Y30.8044 
G01 X13.1534 Y29.3545 
G01 X13.1534 Y25.6954 
G01 X13.2530 Y25.6954 
G01 X13.2954 Y25.6778 
G01 X13.3278 Y25.6454 
G01 X13.3454 Y25.6030 
G01 X13.3454 Y25.1924 
G01 X13.6596 Y25.1924 
G01 X13.7801 Y25.1684 
G01 X13.8935 Y25.1214 
G01 X13.9956 Y25.0532 
G01 X14.0825 Y24.9664 
G01 X14.5164 Y24.5325 
G01 X14.6032 Y24.4456 
G01 X14.6714 Y24.3435 
G01 X14.7184 Y24.2301 
G01 X14.7424 Y24.1096 
G01 X14.7424 Y22.2504 
G01 X14.7184 Y22.1299 
G01 X14.6714 Y22.0165 
G01 X14.6032 Y21.9144 
G01 X13.1534 Y20.4645 
G01 X13.1534 Y16.8054 
G01 X13.2530 Y16.8054 
G01 X13.2954 Y16.7878 
G01 X13.3278 Y16.7554 
G01 X13.3454 Y16.7130 
G01 X13.3454 Y16.3024 
G01 X13.6596 Y16.3024 
G01 X13.7801 Y16.2784 
G01 X13.8935 Y16.2314 
G01 X13.9956 Y16.1632 
G01 X14.0825 Y16.0764 
G01 X14.5164 Y15.6425 
G01 X14.6032 Y15.5556 
G01 X14.6714 Y15.4535 
G01 X14.7184 Y15.3401 
G01 X14.7424 Y15.2196 
G01 X14.7424 Y14.9760 
G01 X14.7676 Y14.9692 
G01 X14.8518 Y14.9206 
G01 X14.9206 Y14.8518 
G01 X17.5230 Y12.2494 
G01 X18.1194 Y12.2494 
G01 X18.5994 Y11.7694 
G01 X18.5994 Y11.0906 
G01 X18.1194 Y10.6106 
G01 X17.4406 Y10.6106 
G01 X16.9606 Y11.0906 
G01 X16.9606 Y11.7670 
G01 X14.7424 Y13.9852 
G01 X14.7424 Y13.7826 
G01 X14.8085 Y13.7089 
G01 X14.8521 Y13.6219 
G01 X14.8716 Y13.5267 
G01 X14.8659 Y13.4296 
G01 X14.8352 Y13.3373 
G01 X14.7816 Y13.2561 
G01 X14.7089 Y13.1915 
G01 X14.6956 Y13.1848 
G01 X14.6714 Y13.1265 
G01 X14.6032 Y13.0244 
G01 X13.1534 Y11.5745 
G01 X13.1534 Y7.9154 
G01 X13.2530 Y7.9154 
G01 X13.2954 Y7.8978 
G01 X13.3278 Y7.8654 
G01 X13.3454 Y7.8230 
G01 X13.3454 Y7.3694 
G01 X18.1736 Y7.3694 
G01 X18.2676 Y7.3442 
G01 X18.3518 Y7.2956 
G01 X18.4206 Y7.2268 
G01 X20.7220 Y4.9254 
G01 X22.1330 Y4.9254 
G01 X22.1754 Y4.9078 
G01 X22.2078 Y4.8754 
G01 X22.2254 Y4.8330 
G01 X22.2254 Y2.7870 
G01 X22.2078 Y2.7446 
G01 X22.1754 Y2.7122 
G01 X22.1330 Y2.6946 
G01 X20.5870 Y2.6946 
G01 X20.5446 Y2.7122 
G01 X20.5122 Y2.7446 
G01 X20.4946 Y2.7870 
G01 X20.4946 Y4.1080 
G01 X17.9720 Y6.6306 
G01 X13.0403 Y6.6306 
G01 X13.0321 Y6.6288 
G01 X12.9918 Y6.6306 
G01 X12.9514 Y6.6306 
G01 X12.9433 Y6.6328 
G01 X12.9350 Y6.6331 
G01 X12.8964 Y6.6453 
G01 X12.8574 Y6.6558 
G01 X12.8502 Y6.6599 
G01 X12.8422 Y6.6625 
G01 X12.8082 Y6.6842 
G01 X12.6316 Y6.6846 
G01 X12.5914 Y6.6766 
G01 X12.4686 Y6.6766 
G01 X12.4284 Y6.6846 
G01 X11.8070 Y6.6846 
G01 X11.7646 Y6.7022 
G01 X11.7322 Y6.7346 
G01 X11.7146 Y6.7770 
G01 X11.7146 Y7.8230 
G01 X11.7322 Y7.8654 
G01 X11.7646 Y7.8978 
G01 X11.8070 Y7.9154 
G01 X11.9066 Y7.9154 
G01 X11.9066 Y11.8942 
G01 X11.9306 Y12.0146 
G01 X11.9776 Y12.1281 
G01 X12.0458 Y12.2302 
G00 Z2.5400 
G00 X11.8070 Y6.0154 
G01 Z-0.1200 F100.00 
G01 X13.2530 Y6.0154 F230.00 
G01 X13.2954 Y5.9978 
G01 X13.3278 Y5.9654 
G01 X13.3454 Y5.9230 
G01 X13.3454 Y5.1312 
G01 X13.3643 Y5.0781 
G01 X13.3721 Y4.9811 
G01 X13.3545 Y4.8855 
G01 X13.3128 Y4.7976 
G01 X13.2498 Y4.7236 
G01 X13.1697 Y4.6683 
G01 X13.0781 Y4.6357 
G01 X12.9811 Y4.6279 
G01 X12.8855 Y4.6454 
G01 X12.8227 Y4.6753 
G01 X11.6357 Y3.4883 
G01 X11.6959 Y3.3703 
G01 X11.7586 Y3.1772 
G01 X11.7904 Y2.9766 
G01 X11.7904 Y2.7734 
G01 X11.7586 Y2.5728 
G01 X11.6959 Y2.3797 
G01 X11.6036 Y2.1987 
G01 X11.4843 Y2.0344 
G01 X11.3406 Y1.8907 
G01 X11.1763 Y1.7713 
G01 X10.9953 Y1.6791 
G01 X10.8022 Y1.6164 
G01 X10.6016 Y1.5846 
G01 X10.3984 Y1.5846 
G01 X10.1978 Y1.6164 
G01 X10.0047 Y1.6791 
G01 X9.8237 Y1.7713 
G01 X9.6594 Y1.8907 
G01 X9.5157 Y2.0344 
G01 X9.3963 Y2.1987 
G01 X9.3041 Y2.3797 
G01 X9.2414 Y2.5728 
G01 X9.2096 Y2.7734 
G01 X9.2096 Y2.9766 
G01 X9.2414 Y3.1772 
G01 X9.3041 Y3.3703 
G01 X9.3963 Y3.5513 
G01 X9.5157 Y3.7156 
G01 X9.6594 Y3.8593 
G01 X9.8237 Y3.9786 
G01 X10.0047 Y4.0709 
G01 X10.1978 Y4.1336 
G01 X10.3984 Y4.1654 
G01 X10.6016 Y4.1654 
G01 X10.8022 Y4.1336 
G01 X10.9953 Y4.0709 
G01 X11.1133 Y4.0107 
G01 X11.8872 Y4.7846 
G01 X11.8070 Y4.7846 
G01 X11.7646 Y4.8022 
G01 X11.7322 Y4.8346 
G01 X11.7146 Y4.8770 
G01 X11.7146 Y5.9230 
G01 X11.7322 Y5.9654 
G01 X11.7646 Y5.9978 
G01 X11.8070 Y6.0154 
G00 Z2.5400 
G00 X16.9606 Y8.5506 
G01 Z-0.1200 F100.00 
G01 X16.9606 Y9.2294 F230.00 
G01 X17.4406 Y9.7094 
G01 X18.1194 Y9.7094 
G01 X18.5994 Y9.2294 
G01 X18.5994 Y8.5506 
G01 X18.1194 Y8.0706 
G01 X17.4406 Y8.0706 
G01 X16.9606 Y8.5506 
G00 Z2.5400 
G00 X19.5006 Y8.5506 
G01 Z-0.1200 F100.00 
G01 X19.5006 Y9.2294 F230.00 
G01 X19.9806 Y9.7094 
G01 X20.6594 Y9.7094 
G01 X21.1394 Y9.2294 
G01 X21.1394 Y8.6330 
G01 X24.8470 Y4.9254 
G01 X24.9030 Y4.9254 
G01 X25.0056 Y5.0280 
G01 X25.0056 Y8.1256 
G01 X24.5806 Y8.5506 
G01 X24.5806 Y9.2294 
G01 X25.0606 Y9.7094 
G01 X25.7394 Y9.7094 
G01 X26.0794 Y9.3694 
G01 X36.7556 Y9.3694 
G01 X36.7556 Y24.3470 
G01 X29.8161 Y31.2865 
G01 X29.6772 Y31.2414 
G01 X29.4766 Y31.2096 
G01 X29.2734 Y31.2096 
G01 X29.0728 Y31.2414 
G01 X28.8797 Y31.3041 
G01 X28.6987 Y31.3964 
G01 X28.5344 Y31.5157 
G01 X28.3907 Y31.6594 
G01 X28.2714 Y31.8237 
G01 X28.1791 Y32.0047 
G01 X28.1164 Y32.1978 
G01 X28.0846 Y32.3984 
G01 X28.0846 Y32.6016 
G01 X28.1164 Y32.8022 
G01 X28.1791 Y32.9953 
G01 X28.2393 Y33.1133 
G01 X26.5232 Y34.8294 
G01 X26.4544 Y34.8982 
G01 X26.4058 Y34.9824 
G01 X26.3806 Y35.0764 
G01 X26.3806 Y35.6382 
G01 X26.2547 Y35.6791 
G01 X26.0737 Y35.7713 
G01 X25.9094 Y35.8907 
G01 X25.7657 Y36.0344 
G01 X25.6464 Y36.1987 
G01 X25.5541 Y36.3797 
G01 X25.4914 Y36.5728 
G01 X25.4596 Y36.7734 
G01 X25.4596 Y36.9766 
G01 X25.4914 Y37.1772 
G01 X25.5541 Y37.3703 
G01 X25.6464 Y37.5513 
G01 X25.7657 Y37.7156 
G01 X25.9094 Y37.8593 
G01 X26.0737 Y37.9786 
G01 X26.2547 Y38.0709 
G01 X26.4478 Y38.1336 
G01 X26.6484 Y38.1654 
G01 X26.8516 Y38.1654 
G01 X27.0522 Y38.1336 
G01 X27.2453 Y38.0709 
G01 X27.4263 Y37.9786 
G01 X27.5906 Y37.8593 
G01 X27.7343 Y37.7156 
G01 X27.8536 Y37.5513 
G01 X27.9459 Y37.3703 
G01 X28.0086 Y37.1772 
G01 X28.0404 Y36.9766 
G01 X28.0404 Y36.7734 
G01 X28.0086 Y36.5728 
G01 X27.9459 Y36.3797 
G01 X27.8536 Y36.1987 
G01 X27.7343 Y36.0344 
G01 X27.5906 Y35.8907 
G01 X27.4263 Y35.7713 
G01 X27.2453 Y35.6791 
G01 X27.1194 Y35.6382 
G01 X27.1194 Y35.2780 
G01 X28.7617 Y33.6357 
G01 X28.8797 Y33.6959 
G01 X29.0728 Y33.7586 
G01 X29.2734 Y33.7904 
G01 X29.4766 Y33.7904 
G01 X29.6772 Y33.7586 
G01 X29.8703 Y33.6959 
G01 X30.0513 Y33.6036 
G01 X30.2156 Y33.4843 
G01 X30.3593 Y33.3406 
G01 X30.4786 Y33.1763 
G01 X30.5709 Y32.9953 
G01 X30.6336 Y32.8022 
G01 X30.6654 Y32.6016 
G01 X30.6654 Y32.3984 
G01 X30.6336 Y32.1978 
G01 X30.5709 Y32.0047 
G01 X30.4786 Y31.8237 
G01 X30.4135 Y31.7340 
G01 X37.4206 Y24.7268 
G01 X37.4692 Y24.6426 
G01 X37.4944 Y24.5486 
G01 X37.4944 Y8.9514 
G01 X37.4692 Y8.8574 
G01 X37.4206 Y8.7732 
G01 X37.3518 Y8.7044 
G01 X37.2676 Y8.6558 
G01 X37.1736 Y8.6306 
G01 X26.2194 Y8.6306 
G01 X26.2194 Y8.5506 
G01 X25.7444 Y8.0756 
G01 X25.7444 Y4.8264 
G01 X25.7192 Y4.7324 
G01 X25.6706 Y4.6482 
G01 X25.6018 Y4.5794 
G01 X25.2254 Y4.2030 
G01 X25.2254 Y2.7870 
G01 X25.2078 Y2.7446 
G01 X25.1754 Y2.7122 
G01 X25.1330 Y2.6946 
G01 X23.5870 Y2.6946 
G01 X23.5446 Y2.7122 
G01 X23.5122 Y2.7446 
G01 X23.4946 Y2.7870 
G01 X23.4946 Y4.8330 
G01 X23.5122 Y4.8754 
G01 X23.5446 Y4.9078 
G01 X23.5870 Y4.9254 
G01 X23.8022 Y4.9254 
G01 X20.6570 Y8.0706 
G01 X19.9806 Y8.0706 
G01 X19.5006 Y8.5506 
G00 Z2.5400 
G00 X19.5006 Y11.0906 
G01 Z-0.1200 F100.00 
G01 X19.5006 Y11.7694 F230.00 
G01 X19.9806 Y12.2494 
G01 X20.0056 Y12.2494 
G01 X20.0056 Y17.4236 
G01 X20.0308 Y17.5176 
G01 X20.0794 Y17.6018 
G01 X20.1482 Y17.6706 
G01 X20.2324 Y17.7192 
G01 X20.3264 Y17.7444 
G01 X30.0486 Y17.7444 
G01 X30.1426 Y17.7192 
G01 X30.2268 Y17.6706 
G01 X30.2956 Y17.6018 
G01 X34.0117 Y13.8857 
G01 X34.1297 Y13.9459 
G01 X34.3228 Y14.0086 
G01 X34.5234 Y14.0404 
G01 X34.7266 Y14.0404 
G01 X34.9272 Y14.0086 
G01 X35.1203 Y13.9459 
G01 X35.3013 Y13.8536 
G01 X35.4656 Y13.7343 
G01 X35.6093 Y13.5906 
G01 X35.7286 Y13.4263 
G01 X35.8209 Y13.2453 
G01 X35.8836 Y13.0522 
G01 X35.9154 Y12.8516 
G01 X35.9154 Y12.6484 
G01 X35.8836 Y12.4478 
G01 X35.8209 Y12.2547 
G01 X35.7286 Y12.0737 
G01 X35.6093 Y11.9094 
G01 X35.4656 Y11.7657 
G01 X35.3013 Y11.6463 
G01 X35.1203 Y11.5541 
G01 X34.9272 Y11.4914 
G01 X34.7266 Y11.4596 
G01 X34.5234 Y11.4596 
G01 X34.3228 Y11.4914 
G01 X34.1297 Y11.5541 
G01 X33.9487 Y11.6463 
G01 X33.7844 Y11.7657 
G01 X33.6407 Y11.9094 
G01 X33.5213 Y12.0737 
G01 X33.4291 Y12.2547 
G01 X33.3664 Y12.4478 
G01 X33.3346 Y12.6484 
G01 X33.3346 Y12.8516 
G01 X33.3664 Y13.0522 
G01 X33.4291 Y13.2453 
G01 X33.4893 Y13.3633 
G01 X29.8470 Y17.0056 
G01 X20.7444 Y17.0056 
G01 X20.7444 Y12.1644 
G01 X21.1394 Y11.7694 
G01 X21.1394 Y11.0906 
G01 X20.6594 Y10.6106 
G01 X19.9806 Y10.6106 
G01 X19.5006 Y11.0906 
G00 Z2.5400 
G00 X22.0406 Y11.0906 
G01 Z-0.1200 F100.00 
G01 X22.0406 Y11.7694 F230.00 
G01 X22.5056 Y12.2344 
G01 X22.5056 Y14.9236 
G01 X22.5308 Y15.0176 
G01 X22.5794 Y15.1018 
G01 X22.6482 Y15.1706 
G01 X22.7324 Y15.2192 
G01 X22.8264 Y15.2444 
G01 X22.9236 Y15.2444 
G01 X27.0132 Y15.2444 
G01 X27.0541 Y15.3703 
G01 X27.1464 Y15.5513 
G01 X27.2657 Y15.7156 
G01 X27.4094 Y15.8593 
G01 X27.5737 Y15.9786 
G01 X27.7547 Y16.0709 
G01 X27.9478 Y16.1336 
G01 X28.1484 Y16.1654 
G01 X28.3516 Y16.1654 
G01 X28.5522 Y16.1336 
G01 X28.7453 Y16.0709 
G01 X28.9263 Y15.9786 
G01 X29.0906 Y15.8593 
G01 X29.2343 Y15.7156 
G01 X29.3536 Y15.5513 
G01 X29.4459 Y15.3703 
G01 X29.5086 Y15.1772 
G01 X29.5404 Y14.9766 
G01 X29.5404 Y14.7734 
G01 X29.5086 Y14.5728 
G01 X29.4459 Y14.3797 
G01 X29.3536 Y14.1987 
G01 X29.2343 Y14.0344 
G01 X29.0906 Y13.8907 
G01 X28.9263 Y13.7713 
G01 X28.7453 Y13.6791 
G01 X28.5522 Y13.6164 
G01 X28.3516 Y13.5846 
G01 X28.1484 Y13.5846 
G01 X27.9478 Y13.6164 
G01 X27.7547 Y13.6791 
G01 X27.5737 Y13.7713 
G01 X27.4094 Y13.8907 
G01 X27.2657 Y14.0344 
G01 X27.1464 Y14.1987 
G01 X27.0541 Y14.3797 
G01 X27.0132 Y14.5056 
G01 X23.2444 Y14.5056 
G01 X23.2444 Y12.2044 
G01 X23.6794 Y11.7694 
G01 X23.6794 Y11.0906 
G01 X23.1994 Y10.6106 
G01 X22.5206 Y10.6106 
G01 X22.0406 Y11.0906 
G00 Z2.5400 
G00 X22.5206 Y9.7094 
G01 Z-0.1200 F100.00 
G01 X23.1994 Y9.7094 F230.00 
G01 X23.6794 Y9.2294 
G01 X23.6794 Y8.5506 
G01 X23.1994 Y8.0706 
G01 X22.5206 Y8.0706 
G01 X22.0406 Y8.5506 
G01 X22.0406 Y9.2294 
G01 X22.5206 Y9.7094 
G00 Z2.5400 
G00 X24.5806 Y11.0906 
G01 Z-0.1200 F100.00 
G01 X24.5806 Y11.7694 F230.00 
G01 X25.0606 Y12.2494 
G01 X25.7394 Y12.2494 
G01 X26.2194 Y11.7694 
G01 X26.2194 Y11.0906 
G01 X25.7394 Y10.6106 
G01 X25.0606 Y10.6106 
G01 X24.5806 Y11.0906 
G00 Z2.5400 
G00 X10.0906 Y17.0157 
G01 Z-0.1200 F100.00 
G01 X9.9263 Y16.8964 F230.00 
G01 X9.7453 Y16.8041 
G01 X9.5522 Y16.7414 
G01 X9.3516 Y16.7096 
G01 X9.1484 Y16.7096 
G01 X8.9478 Y16.7414 
G01 X8.7547 Y16.8041 
G01 X8.5737 Y16.8964 
G01 X8.4094 Y17.0157 
G01 X8.2657 Y17.1594 
G01 X8.1463 Y17.3237 
G01 X8.0541 Y17.5047 
G01 X7.9914 Y17.6978 
G01 X7.9596 Y17.8984 
G01 X7.9596 Y18.1016 
G01 X7.9914 Y18.3022 
G01 X8.0541 Y18.4953 
G01 X8.1463 Y18.6763 
G01 X8.2657 Y18.8406 
G01 X8.4094 Y18.9843 
G01 X8.5737 Y19.1036 
G01 X8.7547 Y19.1959 
G01 X8.9478 Y19.2586 
G01 X9.1484 Y19.2904 
G01 X9.3516 Y19.2904 
G01 X9.5522 Y19.2586 
G01 X9.7453 Y19.1959 
G01 X9.8633 Y19.1357 
G01 X10.8806 Y20.1530 
G01 X10.8806 Y21.5486 
G01 X10.9058 Y21.6426 
G01 X10.9544 Y21.7268 
G01 X11.7965 Y22.5690 
G01 X11.7646 Y22.5822 
G01 X11.7322 Y22.6146 
G01 X11.7146 Y22.6570 
G01 X11.7146 Y23.7030 
G01 X11.7322 Y23.7454 
G01 X11.7646 Y23.7778 
G01 X11.8070 Y23.7954 
G01 X13.2530 Y23.7954 
G01 X13.2954 Y23.7778 
G01 X13.3278 Y23.7454 
G01 X13.3454 Y23.7030 
G01 X13.3454 Y22.6570 
G01 X13.3278 Y22.6146 
G01 X13.2954 Y22.5822 
G01 X13.2530 Y22.5646 
G01 X12.8205 Y22.5646 
G01 X12.8135 Y22.5541 
G01 X12.7956 Y22.5232 
G01 X12.7864 Y22.5140 
G01 X12.7791 Y22.5032 
G01 X12.7521 Y22.4797 
G01 X11.6194 Y21.3470 
G01 X11.6194 Y19.9514 
G01 X11.5942 Y19.8574 
G01 X11.5456 Y19.7732 
G01 X11.4768 Y19.7044 
G01 X10.3857 Y18.6133 
G01 X10.4459 Y18.4953 
G01 X10.5086 Y18.3022 
G01 X10.5404 Y18.1016 
G01 X10.5404 Y17.8984 
G01 X10.5086 Y17.6978 
G01 X10.4459 Y17.5047 
G01 X10.3536 Y17.3237 
G01 X10.2343 Y17.1594 
G01 X10.0906 Y17.0157 
G00 Z2.5400 
G00 X9.4574 Y22.3758 
G01 Z-0.1200 F100.00 
G01 X9.3553 Y22.3075 F230.00 
G01 X9.2418 Y22.2606 
G01 X9.1214 Y22.2366 
G01 X5.1894 Y22.2366 
G01 X5.1313 Y22.1785 
G01 X4.9876 Y22.0825 
G01 X4.8279 Y22.0163 
G01 X4.6584 Y21.9826 
G01 X2.9616 Y21.9826 
G01 X2.7921 Y22.0163 
G01 X2.6324 Y22.0825 
G01 X2.4887 Y22.1785 
G01 X2.3665 Y22.3007 
G01 X2.2705 Y22.4444 
G01 X2.2043 Y22.6041 
G01 X2.1706 Y22.7736 
G01 X2.1706 Y22.9464 
G01 X2.2043 Y23.1159 
G01 X2.2705 Y23.2756 
G01 X2.3665 Y23.4193 
G01 X2.4887 Y23.5415 
G01 X2.6324 Y23.6375 
G01 X2.7921 Y23.7037 
G01 X2.9616 Y23.7374 
G01 X4.6584 Y23.7374 
G01 X4.8279 Y23.7037 
G01 X4.9876 Y23.6375 
G01 X5.1313 Y23.5415 
G01 X5.1894 Y23.4834 
G01 X8.8018 Y23.4834 
G01 X9.5146 Y24.1962 
G01 X9.5146 Y24.6530 
G01 X9.5322 Y24.6954 
G01 X9.5646 Y24.7278 
G01 X9.6070 Y24.7454 
G01 X10.2284 Y24.7454 
G01 X10.2686 Y24.7534 
G01 X10.3914 Y24.7534 
G01 X10.4316 Y24.7454 
G01 X11.0530 Y24.7454 
G01 X11.0954 Y24.7278 
G01 X11.1278 Y24.6954 
G01 X11.1454 Y24.6530 
G01 X11.1454 Y23.6070 
G01 X11.1278 Y23.5646 
G01 X11.0954 Y23.5322 
G01 X11.0530 Y23.5146 
G01 X10.5962 Y23.5146 
G01 X9.4574 Y22.3758 
G00 Z2.5400 
G00 X9.4478 Y27.7414 
G01 Z-0.1200 F100.00 
G01 X9.2547 Y27.8041 F230.00 
G01 X9.0737 Y27.8964 
G01 X8.9094 Y28.0157 
G01 X8.7657 Y28.1594 
G01 X8.6463 Y28.3237 
G01 X8.5541 Y28.5047 
G01 X8.4914 Y28.6978 
G01 X8.4596 Y28.8984 
G01 X8.4596 Y29.1016 
G01 X8.4914 Y29.3022 
G01 X8.5541 Y29.4953 
G01 X8.6463 Y29.6763 
G01 X8.7657 Y29.8406 
G01 X8.9094 Y29.9843 
G01 X9.0737 Y30.1036 
G01 X9.2547 Y30.1959 
G01 X9.4478 Y30.2586 
G01 X9.6484 Y30.2904 
G01 X9.8516 Y30.2904 
G01 X10.0522 Y30.2586 
G01 X10.2453 Y30.1959 
G01 X10.3633 Y30.1357 
G01 X11.7322 Y31.5046 
G01 X11.7146 Y31.5470 
G01 X11.7146 Y32.5930 
G01 X11.7322 Y32.6354 
G01 X11.7646 Y32.6678 
G01 X11.8070 Y32.6854 
G01 X13.2530 Y32.6854 
G01 X13.2954 Y32.6678 
G01 X13.3278 Y32.6354 
G01 X13.3454 Y32.5930 
G01 X13.3454 Y31.5470 
G01 X13.3278 Y31.5046 
G01 X13.2954 Y31.4722 
G01 X13.2530 Y31.4546 
G01 X12.7270 Y31.4546 
G01 X10.8857 Y29.6133 
G01 X10.9459 Y29.4953 
G01 X11.0086 Y29.3022 
G01 X11.0404 Y29.1016 
G01 X11.0404 Y28.8984 
G01 X11.0086 Y28.6978 
G01 X10.9459 Y28.5047 
G01 X10.8536 Y28.3237 
G01 X10.7343 Y28.1594 
G01 X10.5906 Y28.0157 
G01 X10.4263 Y27.8964 
G01 X10.2453 Y27.8041 
G01 X10.0522 Y27.7414 
G01 X9.8516 Y27.7096 
G01 X9.6484 Y27.7096 
G01 X9.4478 Y27.7414 
G00 Z2.5400 
G00 X9.4574 Y31.2658 
G01 Z-0.1200 F100.00 
G01 X9.3553 Y31.1975 F230.00 
G01 X9.2418 Y31.1506 
G01 X9.1214 Y31.1266 
G01 X5.1894 Y31.1266 
G01 X5.1313 Y31.0685 
G01 X4.9876 Y30.9725 
G01 X4.8279 Y30.9063 
G01 X4.6584 Y30.8726 
G01 X2.9616 Y30.8726 
G01 X2.7921 Y30.9063 
G01 X2.6324 Y30.9725 
G01 X2.4887 Y31.0685 
G01 X2.3665 Y31.1907 
G01 X2.2705 Y31.3344 
G01 X2.2043 Y31.4941 
G01 X2.1706 Y31.6636 
G01 X2.1706 Y31.8364 
G01 X2.2043 Y32.0059 
G01 X2.2705 Y32.1656 
G01 X2.3665 Y32.3093 
G01 X2.4887 Y32.4315 
G01 X2.6324 Y32.5275 
G01 X2.7921 Y32.5937 
G01 X2.9616 Y32.6274 
G01 X4.6584 Y32.6274 
G01 X4.8279 Y32.5937 
G01 X4.9876 Y32.5275 
G01 X5.1313 Y32.4315 
G01 X5.1894 Y32.3734 
G01 X8.8018 Y32.3734 
G01 X9.5146 Y33.0862 
G01 X9.5146 Y33.5430 
G01 X9.5322 Y33.5854 
G01 X9.5646 Y33.6178 
G01 X9.6070 Y33.6354 
G01 X10.2284 Y33.6354 
G01 X10.2686 Y33.6434 
G01 X10.3914 Y33.6434 
G01 X10.4316 Y33.6354 
G01 X11.0530 Y33.6354 
G01 X11.0954 Y33.6178 
G01 X11.1278 Y33.5854 
G01 X11.1454 Y33.5430 
G01 X11.1454 Y32.4970 
G01 X11.1278 Y32.4546 
G01 X11.0954 Y32.4222 
G01 X11.0530 Y32.4046 
G01 X10.5962 Y32.4046 
G01 X9.4574 Y31.2658 
G00 Z2.5400 
G00 X2.2577 Y4.4314 
G01 Z-0.1200 F100.00 
G01 X2.1464 Y4.5981 F230.00 
G01 X2.0697 Y4.7832 
G01 X2.0306 Y4.9798 
G01 X2.0306 Y5.1802 
G01 X2.0697 Y5.3768 
G01 X2.1464 Y5.5619 
G01 X2.2577 Y5.7286 
G01 X2.3994 Y5.8703 
G01 X2.5661 Y5.9816 
G01 X2.7512 Y6.0583 
G01 X2.9478 Y6.0974 
G01 X4.6722 Y6.0974 
G01 X4.8688 Y6.0583 
G01 X5.0539 Y5.9816 
G01 X5.2206 Y5.8703 
G01 X5.2474 Y5.8434 
G01 X8.5738 Y5.8434 
G01 X9.3746 Y6.6442 
G01 X9.3746 Y6.8836 
G01 X9.3920 Y6.9486 
G01 X9.4256 Y7.0068 
G01 X9.4732 Y7.0544 
G01 X9.5314 Y7.0880 
G01 X9.5964 Y7.1054 
G01 X10.0446 Y7.1054 
G01 X10.0848 Y7.1134 
G01 X10.4052 Y7.1134 
G01 X10.4454 Y7.1054 
G01 X11.0636 Y7.1054 
G01 X11.1286 Y7.0880 
G01 X11.1868 Y7.0544 
G01 X11.2344 Y7.0068 
G01 X11.2680 Y6.9486 
G01 X11.2854 Y6.8836 
G01 X11.2854 Y5.8164 
G01 X11.2680 Y5.7514 
G01 X11.2344 Y5.6932 
G01 X11.1868 Y5.6456 
G01 X11.1286 Y5.6120 
G01 X11.0636 Y5.5946 
G01 X10.4842 Y5.5946 
G01 X9.3766 Y4.4870 
G01 X9.2516 Y4.4035 
G01 X9.1127 Y4.3459 
G01 X8.9652 Y4.3166 
G01 X5.2474 Y4.3166 
G01 X5.2206 Y4.2897 
G01 X5.0539 Y4.1784 
G01 X4.8688 Y4.1017 
G01 X4.6722 Y4.0626 
G01 X2.9478 Y4.0626 
G01 X2.7512 Y4.1017 
G01 X2.5661 Y4.1784 
G01 X2.3994 Y4.2897 
G01 X2.2577 Y4.4314 
G00 Z2.5400 
G00 X2.3726 Y6.8566 
G01 Z-0.1200 F100.00 
G01 X1.1948 Y6.8566 F230.00 
G01 X1.0473 Y6.8859 
G01 X0.9084 Y6.9435 
G01 X0.7834 Y7.0270 
G01 X0.6770 Y7.1334 
G01 X0.5935 Y7.2584 
G01 X0.5359 Y7.3973 
G01 X0.5066 Y7.5448 
G01 X0.5066 Y34.3652 
G01 X0.5359 Y34.5127 
G01 X0.5935 Y34.6516 
G01 X0.6770 Y34.7766 
G01 X0.7834 Y34.8830 
G01 X0.9084 Y34.9665 
G01 X1.0473 Y35.0241 
G01 X1.1948 Y35.0534 
G01 X2.3726 Y35.0534 
G01 X2.3994 Y35.0803 
G01 X2.5661 Y35.1916 
G01 X2.7512 Y35.2683 
G01 X2.9478 Y35.3074 
G01 X3.0466 Y35.3074 
G01 X3.0466 Y40.7152 
G01 X3.0759 Y40.8627 
G01 X3.1335 Y41.0016 
G01 X3.2170 Y41.1266 
G01 X3.3234 Y41.2330 
G01 X3.4484 Y41.3165 
G01 X3.5873 Y41.3741 
G01 X3.7348 Y41.4034 
G01 X6.6026 Y41.4034 
G01 X6.6026 Y41.5022 
G01 X6.6417 Y41.6988 
G01 X6.7184 Y41.8839 
G01 X6.8297 Y42.0506 
G01 X6.9714 Y42.1923 
G01 X7.1381 Y42.3036 
G01 X7.3232 Y42.3803 
G01 X7.5198 Y42.4194 
G01 X7.7202 Y42.4194 
G01 X7.9168 Y42.3803 
G01 X8.1019 Y42.3036 
G01 X8.2686 Y42.1923 
G01 X8.4103 Y42.0506 
G01 X8.5216 Y41.8839 
G01 X8.5983 Y41.6988 
G01 X8.6374 Y41.5022 
G01 X8.6374 Y39.7778 
G01 X8.5983 Y39.5812 
G01 X8.5216 Y39.3961 
G01 X8.4103 Y39.2294 
G01 X8.2686 Y39.0877 
G01 X8.1019 Y38.9764 
G01 X7.9168 Y38.8997 
G01 X7.7202 Y38.8606 
G01 X7.5198 Y38.8606 
G01 X7.3232 Y38.8997 
G01 X7.1381 Y38.9764 
G01 X6.9714 Y39.0877 
G01 X6.8297 Y39.2294 
G01 X6.7184 Y39.3961 
G01 X6.6417 Y39.5812 
G01 X6.6026 Y39.7778 
G01 X6.6026 Y39.8766 
G01 X4.5734 Y39.8766 
G01 X4.5734 Y35.3074 
G01 X4.6722 Y35.3074 
G01 X4.8688 Y35.2683 
G01 X5.0539 Y35.1916 
G01 X5.2206 Y35.0803 
G01 X5.3623 Y34.9386 
G01 X5.4736 Y34.7719 
G01 X5.5503 Y34.5868 
G01 X5.5894 Y34.3902 
G01 X5.5894 Y34.1898 
G01 X5.5503 Y33.9932 
G01 X5.4736 Y33.8081 
G01 X5.3623 Y33.6414 
G01 X5.2206 Y33.4997 
G01 X5.0539 Y33.3884 
G01 X4.8688 Y33.3117 
G01 X4.6722 Y33.2726 
G01 X2.9478 Y33.2726 
G01 X2.7512 Y33.3117 
G01 X2.5661 Y33.3884 
G01 X2.3994 Y33.4997 
G01 X2.3726 Y33.5266 
G01 X2.0334 Y33.5266 
G01 X2.0334 Y31.8643 
G01 X2.0697 Y32.0468 
G01 X2.1464 Y32.2319 
G01 X2.2577 Y32.3986 
G01 X2.3994 Y32.5403 
G01 X2.5661 Y32.6516 
G01 X2.7512 Y32.7283 
G01 X2.9478 Y32.7674 
G01 X4.6722 Y32.7674 
G01 X4.8688 Y32.7283 
G01 X5.0539 Y32.6516 
G01 X5.2206 Y32.5403 
G01 X5.2474 Y32.5134 
G01 X8.7438 Y32.5134 
G01 X9.3746 Y33.1442 
G01 X9.3746 Y33.5536 
G01 X9.3920 Y33.6186 
G01 X9.4256 Y33.6768 
G01 X9.4732 Y33.7244 
G01 X9.5314 Y33.7580 
G01 X9.5964 Y33.7754 
G01 X10.2146 Y33.7754 
G01 X10.2548 Y33.7834 
G01 X10.4052 Y33.7834 
G01 X10.4454 Y33.7754 
G01 X11.0636 Y33.7754 
G01 X11.1286 Y33.7580 
G01 X11.1868 Y33.7244 
G01 X11.2344 Y33.6768 
G01 X11.2680 Y33.6186 
G01 X11.2854 Y33.5536 
G01 X11.2854 Y32.4864 
G01 X11.2680 Y32.4214 
G01 X11.2344 Y32.3632 
G01 X11.1868 Y32.3156 
G01 X11.1286 Y32.2820 
G01 X11.0636 Y32.2646 
G01 X10.6542 Y32.2646 
G01 X9.5466 Y31.1570 
G01 X9.4216 Y31.0735 
G01 X9.2827 Y31.0159 
G01 X9.1352 Y30.9866 
G01 X5.2474 Y30.9866 
G01 X5.2206 Y30.9597 
G01 X5.0539 Y30.8484 
G01 X4.8688 Y30.7717 
G01 X4.6722 Y30.7326 
G01 X2.9478 Y30.7326 
G01 X2.7512 Y30.7717 
G01 X2.5661 Y30.8484 
G01 X2.3994 Y30.9597 
G01 X2.2577 Y31.1014 
G01 X2.1464 Y31.2681 
G01 X2.0697 Y31.4532 
G01 X2.0334 Y31.6357 
G01 X2.0334 Y26.1634 
G01 X2.3726 Y26.1634 
G01 X2.3994 Y26.1903 
G01 X2.5661 Y26.3016 
G01 X2.7512 Y26.3783 
G01 X2.9478 Y26.4174 
G01 X4.6722 Y26.4174 
G01 X4.8688 Y26.3783 
G01 X5.0539 Y26.3016 
G01 X5.2206 Y26.1903 
G01 X5.3623 Y26.0486 
G01 X5.4736 Y25.8819 
G01 X5.5503 Y25.6968 
G01 X5.5894 Y25.5002 
G01 X5.5894 Y25.2998 
G01 X5.5503 Y25.1032 
G01 X5.4736 Y24.9181 
G01 X5.3623 Y24.7514 
G01 X5.2206 Y24.6097 
G01 X5.0539 Y24.4984 
G01 X4.8688 Y24.4217 
G01 X4.6722 Y24.3826 
G01 X2.9478 Y24.3826 
G01 X2.7512 Y24.4217 
G01 X2.5661 Y24.4984 
G01 X2.3994 Y24.6097 
G01 X2.3726 Y24.6366 
G01 X2.0334 Y24.6366 
G01 X2.0334 Y22.9743 
G01 X2.0697 Y23.1568 
G01 X2.1464 Y23.3419 
G01 X2.2577 Y23.5086 
G01 X2.3994 Y23.6503 
G01 X2.5661 Y23.7616 
G01 X2.7512 Y23.8383 
G01 X2.9478 Y23.8774 
G01 X4.6722 Y23.8774 
G01 X4.8688 Y23.8383 
G01 X5.0539 Y23.7616 
G01 X5.2206 Y23.6503 
G01 X5.2474 Y23.6234 
G01 X8.7438 Y23.6234 
G01 X9.3746 Y24.2542 
G01 X9.3746 Y24.6636 
G01 X9.3920 Y24.7286 
G01 X9.4256 Y24.7868 
G01 X9.4732 Y24.8344 
G01 X9.5314 Y24.8680 
G01 X9.5964 Y24.8854 
G01 X10.2146 Y24.8854 
G01 X10.2548 Y24.8934 
G01 X10.4052 Y24.8934 
G01 X10.4454 Y24.8854 
G01 X11.0636 Y24.8854 
G01 X11.1286 Y24.8680 
G01 X11.1868 Y24.8344 
G01 X11.2344 Y24.7868 
G01 X11.2680 Y24.7286 
G01 X11.2854 Y24.6636 
G01 X11.2854 Y23.5964 
G01 X11.2680 Y23.5314 
G01 X11.2344 Y23.4732 
G01 X11.1868 Y23.4256 
G01 X11.1286 Y23.3920 
G01 X11.0636 Y23.3746 
G01 X10.6542 Y23.3746 
G01 X9.5466 Y22.2670 
G01 X9.4216 Y22.1835 
G01 X9.2827 Y22.1259 
G01 X9.1352 Y22.0966 
G01 X5.2474 Y22.0966 
G01 X5.2206 Y22.0697 
G01 X5.0539 Y21.9584 
G01 X4.8688 Y21.8817 
G01 X4.6722 Y21.8426 
G01 X2.9478 Y21.8426 
G01 X2.7512 Y21.8817 
G01 X2.5661 Y21.9584 
G01 X2.3994 Y22.0697 
G01 X2.2577 Y22.2114 
G01 X2.1464 Y22.3781 
G01 X2.0697 Y22.5632 
G01 X2.0334 Y22.7457 
G01 X2.0334 Y17.2734 
G01 X2.3726 Y17.2734 
G01 X2.3994 Y17.3003 
G01 X2.5661 Y17.4116 
G01 X2.7512 Y17.4883 
G01 X2.9478 Y17.5274 
G01 X4.6722 Y17.5274 
G01 X4.8688 Y17.4883 
G01 X5.0539 Y17.4116 
G01 X5.2206 Y17.3003 
G01 X5.3623 Y17.1586 
G01 X5.4736 Y16.9919 
G01 X5.5503 Y16.8068 
G01 X5.5894 Y16.6102 
G01 X5.5894 Y16.4098 
G01 X5.5503 Y16.2132 
G01 X5.4736 Y16.0281 
G01 X5.3623 Y15.8614 
G01 X5.2206 Y15.7197 
G01 X5.0539 Y15.6084 
G01 X4.8688 Y15.5317 
G01 X4.6722 Y15.4926 
G01 X2.9478 Y15.4926 
G01 X2.7512 Y15.5317 
G01 X2.5661 Y15.6084 
G01 X2.3994 Y15.7197 
G01 X2.3726 Y15.7466 
G01 X2.0334 Y15.7466 
G01 X2.0334 Y14.0843 
G01 X2.0697 Y14.2668 
G01 X2.1464 Y14.4519 
G01 X2.2577 Y14.6186 
G01 X2.3994 Y14.7603 
G01 X2.5661 Y14.8716 
G01 X2.7512 Y14.9483 
G01 X2.9478 Y14.9874 
G01 X4.6722 Y14.9874 
G01 X4.8688 Y14.9483 
G01 X5.0539 Y14.8716 
G01 X5.2206 Y14.7603 
G01 X5.2474 Y14.7334 
G01 X8.7438 Y14.7334 
G01 X9.3746 Y15.3642 
G01 X9.3746 Y15.7736 
G01 X9.3920 Y15.8386 
G01 X9.4256 Y15.8968 
G01 X9.4732 Y15.9444 
G01 X9.5314 Y15.9780 
G01 X9.5964 Y15.9954 
G01 X10.2146 Y15.9954 
G01 X10.2548 Y16.0034 
G01 X10.4052 Y16.0034 
G01 X10.4454 Y15.9954 
G01 X11.0636 Y15.9954 
G01 X11.1286 Y15.9780 
G01 X11.1868 Y15.9444 
G01 X11.2344 Y15.8968 
G01 X11.2680 Y15.8386 
G01 X11.2854 Y15.7736 
G01 X11.2854 Y14.7064 
G01 X11.2680 Y14.6414 
G01 X11.2344 Y14.5832 
G01 X11.1868 Y14.5356 
G01 X11.1286 Y14.5020 
G01 X11.0636 Y14.4846 
G01 X10.6542 Y14.4846 
G01 X9.5466 Y13.3770 
G01 X9.4216 Y13.2935 
G01 X9.2827 Y13.2359 
G01 X9.1352 Y13.2066 
G01 X5.2474 Y13.2066 
G01 X5.2206 Y13.1797 
G01 X5.0539 Y13.0684 
G01 X4.8688 Y12.9917 
G01 X4.6722 Y12.9526 
G01 X2.9478 Y12.9526 
G01 X2.7512 Y12.9917 
G01 X2.5661 Y13.0684 
G01 X2.3994 Y13.1797 
G01 X2.2577 Y13.3214 
G01 X2.1464 Y13.4881 
G01 X2.0697 Y13.6732 
G01 X2.0334 Y13.8557 
G01 X2.0334 Y8.3834 
G01 X2.3726 Y8.3834 
G01 X2.3994 Y8.4103 
G01 X2.5661 Y8.5216 
G01 X2.7512 Y8.5983 
G01 X2.9478 Y8.6374 
G01 X4.6722 Y8.6374 
G01 X4.8688 Y8.5983 
G01 X5.0539 Y8.5216 
G01 X5.2206 Y8.4103 
G01 X5.3623 Y8.2686 
G01 X5.4736 Y8.1019 
G01 X5.5503 Y7.9168 
G01 X5.5894 Y7.7202 
G01 X5.5894 Y7.5198 
G01 X5.5503 Y7.3232 
G01 X5.4736 Y7.1381 
G01 X5.3623 Y6.9714 
G01 X5.2206 Y6.8297 
G01 X5.0539 Y6.7184 
G01 X4.8688 Y6.6417 
G01 X4.6722 Y6.6026 
G01 X2.9478 Y6.6026 
G01 X2.7512 Y6.6417 
G01 X2.5661 Y6.7184 
G01 X2.3994 Y6.8297 
G01 X2.3726 Y6.8566 
G00 Z2.5400 
G00 X11.5746 Y6.7664 
G01 Z-0.1200 F100.00 
G01 X11.5746 Y7.8336 F230.00 
G01 X11.5920 Y7.8986 
G01 X11.6256 Y7.9568 
G01 X11.6732 Y8.0044 
G01 X11.7314 Y8.0380 
G01 X11.7666 Y8.0474 
G01 X11.7666 Y11.9079 
G01 X11.7959 Y12.0554 
G01 X11.8535 Y12.1944 
G01 X11.9370 Y12.3194 
G01 X13.1522 Y13.5346 
G01 X12.6281 Y13.5346 
G01 X12.5997 Y13.4284 
G01 X12.5326 Y13.3122 
G01 X12.4378 Y13.2174 
G01 X11.0567 Y11.8363 
G01 X11.0756 Y11.7991 
G01 X11.1452 Y11.5850 
G01 X11.1804 Y11.3626 
G01 X11.1804 Y11.1374 
G01 X11.1452 Y10.9150 
G01 X11.0756 Y10.7009 
G01 X10.9734 Y10.5003 
G01 X10.8410 Y10.3182 
G01 X10.6818 Y10.1590 
G01 X10.4997 Y10.0266 
G01 X10.2991 Y9.9244 
G01 X10.0850 Y9.8548 
G01 X9.8626 Y9.8196 
G01 X9.6374 Y9.8196 
G01 X9.4150 Y9.8548 
G01 X9.2009 Y9.9244 
G01 X9.0003 Y10.0266 
G01 X8.8182 Y10.1590 
G01 X8.6590 Y10.3182 
G01 X8.5266 Y10.5003 
G01 X8.4244 Y10.7009 
G01 X8.3548 Y10.9150 
G01 X8.3196 Y11.1374 
G01 X8.3196 Y11.3626 
G01 X8.3548 Y11.5850 
G01 X8.4244 Y11.7991 
G01 X8.5266 Y11.9997 
G01 X8.6590 Y12.1818 
G01 X8.8182 Y12.3410 
G01 X9.0003 Y12.4734 
G01 X9.2009 Y12.5756 
G01 X9.4150 Y12.6452 
G01 X9.6374 Y12.6804 
G01 X9.8626 Y12.6804 
G01 X10.0850 Y12.6452 
G01 X10.2991 Y12.5756 
G01 X10.3363 Y12.5567 
G01 X11.5746 Y13.7950 
G01 X11.5746 Y14.8236 
G01 X11.5920 Y14.8886 
G01 X11.6256 Y14.9468 
G01 X11.6732 Y14.9944 
G01 X11.7314 Y15.0280 
G01 X11.7964 Y15.0454 
G01 X12.6152 Y15.0454 
G01 X12.5544 Y15.0860 
G01 X12.4480 Y15.1924 
G01 X12.2058 Y15.4346 
G01 X11.7964 Y15.4346 
G01 X11.7314 Y15.4520 
G01 X11.6732 Y15.4856 
G01 X11.6256 Y15.5332 
G01 X11.5920 Y15.5914 
G01 X11.5746 Y15.6564 
G01 X11.5746 Y16.7236 
G01 X11.5920 Y16.7886 
G01 X11.6256 Y16.8468 
G01 X11.6732 Y16.8944 
G01 X11.7314 Y16.9280 
G01 X11.7666 Y16.9374 
G01 X11.7666 Y20.7980 
G01 X11.7959 Y20.9454 
G01 X11.8535 Y21.0844 
G01 X11.9370 Y21.2094 
G01 X13.1522 Y22.4246 
G01 X12.8950 Y22.4246 
G01 X12.8849 Y22.4096 
G01 X12.8476 Y22.3773 
G01 X11.7594 Y21.2890 
G01 X11.7594 Y19.9329 
G01 X11.7247 Y19.8034 
G01 X11.6576 Y19.6872 
G01 X11.5628 Y19.5924 
G01 X10.5567 Y18.5863 
G01 X10.5756 Y18.5491 
G01 X10.6452 Y18.3350 
G01 X10.6804 Y18.1126 
G01 X10.6804 Y17.8874 
G01 X10.6452 Y17.6650 
G01 X10.5756 Y17.4509 
G01 X10.4734 Y17.2503 
G01 X10.3410 Y17.0682 
G01 X10.1818 Y16.9090 
G01 X9.9997 Y16.7766 
G01 X9.7991 Y16.6744 
G01 X9.5850 Y16.6048 
G01 X9.3626 Y16.5696 
G01 X9.1374 Y16.5696 
G01 X8.9150 Y16.6048 
G01 X8.7009 Y16.6744 
G01 X8.5003 Y16.7766 
G01 X8.3182 Y16.9090 
G01 X8.1590 Y17.0682 
G01 X8.0266 Y17.2503 
G01 X7.9244 Y17.4509 
G01 X7.8548 Y17.6650 
G01 X7.8196 Y17.8874 
G01 X7.8196 Y18.1126 
G01 X7.8548 Y18.3350 
G01 X7.9244 Y18.5491 
G01 X8.0266 Y18.7497 
G01 X8.1590 Y18.9318 
G01 X8.3182 Y19.0910 
G01 X8.5003 Y19.2234 
G01 X8.7009 Y19.3256 
G01 X8.9150 Y19.3952 
G01 X9.1374 Y19.4304 
G01 X9.3626 Y19.4304 
G01 X9.5850 Y19.3952 
G01 X9.7991 Y19.3256 
G01 X9.8363 Y19.3067 
G01 X10.7406 Y20.2110 
G01 X10.7406 Y21.5671 
G01 X10.7753 Y21.6966 
G01 X10.8424 Y21.8128 
G01 X11.5990 Y22.5694 
G01 X11.5920 Y22.5814 
G01 X11.5746 Y22.6464 
G01 X11.5746 Y23.7136 
G01 X11.5920 Y23.7786 
G01 X11.6256 Y23.8368 
G01 X11.6732 Y23.8844 
G01 X11.7314 Y23.9180 
G01 X11.7964 Y23.9354 
G01 X12.6152 Y23.9354 
G01 X12.5544 Y23.9760 
G01 X12.4480 Y24.0824 
G01 X12.2058 Y24.3246 
G01 X11.7964 Y24.3246 
G01 X11.7314 Y24.3420 
G01 X11.6732 Y24.3756 
G01 X11.6256 Y24.4232 
G01 X11.5920 Y24.4814 
G01 X11.5746 Y24.5464 
G01 X11.5746 Y25.6136 
G01 X11.5920 Y25.6786 
G01 X11.6256 Y25.7368 
G01 X11.6732 Y25.7844 
G01 X11.7314 Y25.8180 
G01 X11.7666 Y25.8274 
G01 X11.7666 Y29.6880 
G01 X11.7959 Y29.8354 
G01 X11.8535 Y29.9744 
G01 X11.9370 Y30.0994 
G01 X13.1522 Y31.3146 
G01 X12.7850 Y31.3146 
G01 X11.0567 Y29.5863 
G01 X11.0756 Y29.5491 
G01 X11.1452 Y29.3350 
G01 X11.1804 Y29.1126 
G01 X11.1804 Y28.8874 
G01 X11.1452 Y28.6650 
G01 X11.0756 Y28.4509 
G01 X10.9734 Y28.2503 
G01 X10.8410 Y28.0682 
G01 X10.6818 Y27.9090 
G01 X10.4997 Y27.7766 
G01 X10.2991 Y27.6744 
G01 X10.0850 Y27.6048 
G01 X9.8626 Y27.5696 
G01 X9.6374 Y27.5696 
G01 X9.4150 Y27.6048 
G01 X9.2009 Y27.6744 
G01 X9.0003 Y27.7766 
G01 X8.8182 Y27.9090 
G01 X8.6590 Y28.0682 
G01 X8.5266 Y28.2503 
G01 X8.4244 Y28.4509 
G01 X8.3548 Y28.6650 
G01 X8.3196 Y28.8874 
G01 X8.3196 Y29.1126 
G01 X8.3548 Y29.3350 
G01 X8.4244 Y29.5491 
G01 X8.5266 Y29.7497 
G01 X8.6590 Y29.9318 
G01 X8.8182 Y30.0910 
G01 X9.0003 Y30.2234 
G01 X9.2009 Y30.3256 
G01 X9.4150 Y30.3952 
G01 X9.6374 Y30.4304 
G01 X9.8626 Y30.4304 
G01 X10.0850 Y30.3952 
G01 X10.2991 Y30.3256 
G01 X10.3363 Y30.3067 
G01 X11.5746 Y31.5450 
G01 X11.5746 Y32.6036 
G01 X11.5920 Y32.6686 
G01 X11.6256 Y32.7268 
G01 X11.6732 Y32.7744 
G01 X11.7314 Y32.8080 
G01 X11.7964 Y32.8254 
G01 X12.6152 Y32.8254 
G01 X12.5544 Y32.8660 
G01 X12.4480 Y32.9724 
G01 X12.2058 Y33.2146 
G01 X11.7964 Y33.2146 
G01 X11.7314 Y33.2320 
G01 X11.6732 Y33.2656 
G01 X11.6256 Y33.3132 
G01 X11.5920 Y33.3714 
G01 X11.5746 Y33.4364 
G01 X11.5746 Y34.5036 
G01 X11.5920 Y34.5686 
G01 X11.6256 Y34.6268 
G01 X11.6732 Y34.6744 
G01 X11.7314 Y34.7080 
G01 X11.7666 Y34.7174 
G01 X11.7666 Y37.9538 
G01 X11.5570 Y38.1634 
G01 X10.7031 Y39.0173 
G01 X10.6419 Y38.9764 
G01 X10.4568 Y38.8997 
G01 X10.2602 Y38.8606 
G01 X10.0598 Y38.8606 
G01 X9.8632 Y38.8997 
G01 X9.6781 Y38.9764 
G01 X9.5114 Y39.0877 
G01 X9.3697 Y39.2294 
G01 X9.2584 Y39.3961 
G01 X9.1817 Y39.5812 
G01 X9.1426 Y39.7778 
G01 X9.1426 Y41.5022 
G01 X9.1817 Y41.6988 
G01 X9.2584 Y41.8839 
G01 X9.3697 Y42.0506 
G01 X9.5114 Y42.1923 
G01 X9.6781 Y42.3036 
G01 X9.8632 Y42.3803 
G01 X10.0598 Y42.4194 
G01 X10.2602 Y42.4194 
G01 X10.4568 Y42.3803 
G01 X10.6419 Y42.3036 
G01 X10.8086 Y42.1923 
G01 X10.9503 Y42.0506 
G01 X11.0616 Y41.8839 
G01 X11.1383 Y41.6988 
G01 X11.1774 Y41.5022 
G01 X11.1774 Y40.7022 
G01 X12.3835 Y39.4961 
G01 X12.4329 Y39.5094 
G01 X12.5671 Y39.5094 
G01 X12.6966 Y39.4747 
G01 X12.8128 Y39.4076 
G01 X12.9076 Y39.3128 
G01 X12.9747 Y39.1966 
G01 X12.9853 Y39.1571 
G01 X13.0477 Y39.1133 
G01 X13.1337 Y39.0104 
G01 X13.1902 Y38.8888 
G01 X13.2133 Y38.7567 
G01 X13.2027 Y38.6373 
G01 X13.2065 Y38.6316 
G01 X13.2641 Y38.4927 
G01 X13.2934 Y38.3452 
G01 X13.2934 Y34.7174 
G01 X13.3286 Y34.7080 
G01 X13.3868 Y34.6744 
G01 X13.4344 Y34.6268 
G01 X13.4680 Y34.5686 
G01 X13.4854 Y34.5036 
G01 X13.4854 Y34.2224 
G01 X13.6734 Y34.2224 
G01 X13.8209 Y34.1931 
G01 X13.9598 Y34.1355 
G01 X14.0849 Y34.0520 
G01 X14.1912 Y33.9456 
G01 X14.6056 Y33.5312 
G01 X14.7120 Y33.4249 
G01 X14.7955 Y33.2998 
G01 X14.8531 Y33.1609 
G01 X14.8824 Y33.0134 
G01 X14.8824 Y31.1266 
G01 X14.8531 Y30.9791 
G01 X14.7955 Y30.8402 
G01 X14.7120 Y30.7151 
G01 X13.2934 Y29.2965 
G01 X13.2934 Y25.8274 
G01 X13.3286 Y25.8180 
G01 X13.3868 Y25.7844 
G01 X13.4344 Y25.7368 
G01 X13.4680 Y25.6786 
G01 X13.4854 Y25.6136 
G01 X13.4854 Y25.3324 
G01 X13.6734 Y25.3324 
G01 X13.8209 Y25.3031 
G01 X13.9598 Y25.2455 
G01 X14.0849 Y25.1620 
G01 X14.1912 Y25.0556 
G01 X14.6056 Y24.6412 
G01 X14.7120 Y24.5349 
G01 X14.7955 Y24.4098 
G01 X14.8531 Y24.2709 
G01 X14.8824 Y24.1234 
G01 X14.8824 Y22.2366 
G01 X14.8531 Y22.0891 
G01 X14.7955 Y21.9502 
G01 X14.7120 Y21.8251 
G01 X13.2934 Y20.4065 
G01 X13.2934 Y16.9374 
G01 X13.3286 Y16.9280 
G01 X13.3868 Y16.8944 
G01 X13.4344 Y16.8468 
G01 X13.4680 Y16.7886 
G01 X13.4854 Y16.7236 
G01 X13.4854 Y16.4424 
G01 X13.6734 Y16.4424 
G01 X13.8209 Y16.4131 
G01 X13.9598 Y16.3555 
G01 X14.0849 Y16.2720 
G01 X14.1912 Y16.1656 
G01 X14.6056 Y15.7512 
G01 X14.7120 Y15.6449 
G01 X14.7955 Y15.5198 
G01 X14.8531 Y15.3809 
G01 X14.8824 Y15.2334 
G01 X14.8824 Y15.0646 
G01 X14.9378 Y15.0326 
G01 X15.0326 Y14.9378 
G01 X17.5810 Y12.3894 
G01 X18.1774 Y12.3894 
G01 X18.7394 Y11.8274 
G01 X18.7394 Y11.0326 
G01 X18.1774 Y10.4706 
G01 X17.3826 Y10.4706 
G01 X16.8206 Y11.0326 
G01 X16.8206 Y11.7090 
G01 X15.0114 Y13.5182 
G01 X15.0045 Y13.4029 
G01 X14.9622 Y13.2756 
G01 X14.8884 Y13.1636 
G01 X14.8093 Y13.0934 
G01 X14.7955 Y13.0602 
G01 X14.7120 Y12.9351 
G01 X13.2934 Y11.5166 
G01 X13.2934 Y8.0474 
G01 X13.3286 Y8.0380 
G01 X13.3868 Y8.0044 
G01 X13.4344 Y7.9568 
G01 X13.4680 Y7.8986 
G01 X13.4854 Y7.8336 
G01 X13.4854 Y7.5094 
G01 X18.1921 Y7.5094 
G01 X18.3216 Y7.4747 
G01 X18.4378 Y7.4076 
G01 X18.5326 Y7.3128 
G01 X20.7800 Y5.0654 
G01 X22.1436 Y5.0654 
G01 X22.2086 Y5.0480 
G01 X22.2668 Y5.0144 
G01 X22.3144 Y4.9668 
G01 X22.3480 Y4.9086 
G01 X22.3654 Y4.8436 
G01 X22.3654 Y2.7764 
G01 X22.3480 Y2.7114 
G01 X22.3144 Y2.6532 
G01 X22.2668 Y2.6056 
G01 X22.2086 Y2.5720 
G01 X22.1436 Y2.5546 
G01 X20.5764 Y2.5546 
G01 X20.5114 Y2.5720 
G01 X20.4532 Y2.6056 
G01 X20.4056 Y2.6532 
G01 X20.3720 Y2.7114 
G01 X20.3546 Y2.7764 
G01 X20.3546 Y4.0500 
G01 X17.9140 Y6.4906 
G01 X13.0556 Y6.4906 
G01 X13.0443 Y6.4881 
G01 X12.9887 Y6.4906 
G01 X12.9329 Y6.4906 
G01 X12.9218 Y6.4936 
G01 X12.9103 Y6.4941 
G01 X12.8572 Y6.5109 
G01 X12.8034 Y6.5253 
G01 X12.7934 Y6.5311 
G01 X12.7825 Y6.5345 
G01 X12.7667 Y6.5446 
G01 X12.6454 Y6.5446 
G01 X12.6052 Y6.5366 
G01 X12.4548 Y6.5366 
G01 X12.4146 Y6.5446 
G01 X11.7964 Y6.5446 
G01 X11.7314 Y6.5620 
G01 X11.6732 Y6.5956 
G01 X11.6256 Y6.6432 
G01 X11.5920 Y6.7014 
G01 X11.5746 Y6.7664 
G00 Z2.5400 
G00 X11.6732 Y6.1044 
G01 Z-0.1200 F100.00 
G01 X11.7314 Y6.1380 F230.00 
G01 X11.7964 Y6.1554 
G01 X13.2636 Y6.1554 
G01 X13.3286 Y6.1380 
G01 X13.3868 Y6.1044 
G01 X13.4344 Y6.0568 
G01 X13.4680 Y5.9986 
G01 X13.4854 Y5.9336 
G01 X13.4854 Y5.1554 
G01 X13.5024 Y5.1077 
G01 X13.5131 Y4.9740 
G01 X13.4889 Y4.8421 
G01 X13.4314 Y4.7209 
G01 X13.3445 Y4.6188 
G01 X13.2341 Y4.5426 
G01 X13.1077 Y4.4976 
G01 X12.9740 Y4.4869 
G01 X12.8542 Y4.5088 
G01 X11.8067 Y3.4613 
G01 X11.8256 Y3.4241 
G01 X11.8952 Y3.2100 
G01 X11.9304 Y2.9876 
G01 X11.9304 Y2.7624 
G01 X11.8952 Y2.5400 
G01 X11.8256 Y2.3259 
G01 X11.7234 Y2.1253 
G01 X11.5910 Y1.9432 
G01 X11.4318 Y1.7839 
G01 X11.2497 Y1.6516 
G01 X11.0491 Y1.5494 
G01 X10.8350 Y1.4798 
G01 X10.6126 Y1.4446 
G01 X10.3874 Y1.4446 
G01 X10.1650 Y1.4798 
G01 X9.9509 Y1.5494 
G01 X9.7503 Y1.6516 
G01 X9.5682 Y1.7839 
G01 X9.4090 Y1.9432 
G01 X9.2766 Y2.1253 
G01 X9.1744 Y2.3259 
G01 X9.1048 Y2.5400 
G01 X9.0696 Y2.7624 
G01 X9.0696 Y2.9876 
G01 X9.1048 Y3.2100 
G01 X9.1744 Y3.4241 
G01 X9.2766 Y3.6247 
G01 X9.4090 Y3.8068 
G01 X9.5682 Y3.9660 
G01 X9.7503 Y4.0984 
G01 X9.9509 Y4.2006 
G01 X10.1650 Y4.2702 
G01 X10.3874 Y4.3054 
G01 X10.6126 Y4.3054 
G01 X10.8350 Y4.2702 
G01 X11.0491 Y4.2006 
G01 X11.0863 Y4.1817 
G01 X11.6367 Y4.7321 
G01 X11.6256 Y4.7432 
G01 X11.5920 Y4.8014 
G01 X11.5746 Y4.8664 
G01 X11.5746 Y5.9336 
G01 X11.5920 Y5.9986 
G01 X11.6256 Y6.0568 
G01 X11.6732 Y6.1044 
G00 Z2.5400 
G00 X16.8206 Y8.4926 
G01 Z-0.1200 F100.00 
G01 X16.8206 Y9.2874 F230.00 
G01 X17.3826 Y9.8494 
G01 X18.1774 Y9.8494 
G01 X18.7394 Y9.2874 
G01 X18.7394 Y8.4926 
G01 X18.1774 Y7.9306 
G01 X17.3826 Y7.9306 
G01 X16.8206 Y8.4926 
G00 Z2.5400 
G00 X19.3606 Y8.4926 
G01 Z-0.1200 F100.00 
G01 X19.3606 Y9.2874 F230.00 
G01 X19.9226 Y9.8494 
G01 X20.7174 Y9.8494 
G01 X21.2794 Y9.2874 
G01 X21.2794 Y8.6910 
G01 X24.8656 Y5.1048 
G01 X24.8656 Y8.0676 
G01 X24.4406 Y8.4926 
G01 X24.4406 Y9.2874 
G01 X25.0026 Y9.8494 
G01 X25.7974 Y9.8494 
G01 X26.1374 Y9.5094 
G01 X36.6156 Y9.5094 
G01 X36.6156 Y24.2890 
G01 X29.7777 Y31.1269 
G01 X29.7100 Y31.1048 
G01 X29.4876 Y31.0696 
G01 X29.2624 Y31.0696 
G01 X29.0400 Y31.1048 
G01 X28.8259 Y31.1744 
G01 X28.6253 Y31.2766 
G01 X28.4432 Y31.4090 
G01 X28.2840 Y31.5682 
G01 X28.1516 Y31.7503 
G01 X28.0494 Y31.9509 
G01 X27.9798 Y32.1650 
G01 X27.9446 Y32.3874 
G01 X27.9446 Y32.6126 
G01 X27.9798 Y32.8350 
G01 X28.0494 Y33.0491 
G01 X28.0683 Y33.0863 
G01 X26.4372 Y34.7174 
G01 X26.3424 Y34.8122 
G01 X26.2753 Y34.9284 
G01 X26.2406 Y35.0579 
G01 X26.2406 Y35.5365 
G01 X26.2009 Y35.5494 
G01 X26.0003 Y35.6516 
G01 X25.8182 Y35.7839 
G01 X25.6590 Y35.9432 
G01 X25.5266 Y36.1253 
G01 X25.4244 Y36.3259 
G01 X25.3548 Y36.5400 
G01 X25.3196 Y36.7624 
G01 X25.3196 Y36.9876 
G01 X25.3548 Y37.2100 
G01 X25.4244 Y37.4241 
G01 X25.5266 Y37.6247 
G01 X25.6590 Y37.8068 
G01 X25.8182 Y37.9660 
G01 X26.0003 Y38.0984 
G01 X26.2009 Y38.2006 
G01 X26.4150 Y38.2702 
G01 X26.6374 Y38.3054 
G01 X26.8626 Y38.3054 
G01 X27.0850 Y38.2702 
G01 X27.2991 Y38.2006 
G01 X27.4997 Y38.0984 
G01 X27.6818 Y37.9660 
G01 X27.8410 Y37.8068 
G01 X27.9734 Y37.6247 
G01 X28.0756 Y37.4241 
G01 X28.1452 Y37.2100 
G01 X28.1804 Y36.9876 
G01 X28.1804 Y36.7624 
G01 X28.1452 Y36.5400 
G01 X28.0756 Y36.3259 
G01 X27.9734 Y36.1253 
G01 X27.8410 Y35.9432 
G01 X27.6818 Y35.7839 
G01 X27.4997 Y35.6516 
G01 X27.2991 Y35.5494 
G01 X27.2594 Y35.5365 
G01 X27.2594 Y35.3360 
G01 X28.7887 Y33.8067 
G01 X28.8259 Y33.8256 
G01 X29.0400 Y33.8952 
G01 X29.2624 Y33.9304 
G01 X29.4876 Y33.9304 
G01 X29.7100 Y33.8952 
G01 X29.9241 Y33.8256 
G01 X30.1247 Y33.7234 
G01 X30.3068 Y33.5910 
G01 X30.4660 Y33.4318 
G01 X30.5984 Y33.2497 
G01 X30.7006 Y33.0491 
G01 X30.7702 Y32.8350 
G01 X30.8054 Y32.6126 
G01 X30.8054 Y32.3874 
G01 X30.7702 Y32.1650 
G01 X30.7006 Y31.9509 
G01 X30.5984 Y31.7503 
G01 X37.5326 Y24.8128 
G01 X37.5997 Y24.6966 
G01 X37.6344 Y24.5671 
G01 X37.6344 Y8.9329 
G01 X37.5997 Y8.8034 
G01 X37.5326 Y8.6872 
G01 X37.4378 Y8.5924 
G01 X37.3216 Y8.5253 
G01 X37.1921 Y8.4906 
G01 X26.3574 Y8.4906 
G01 X25.8844 Y8.0176 
G01 X25.8844 Y4.8079 
G01 X25.8497 Y4.6784 
G01 X25.7826 Y4.5622 
G01 X25.6878 Y4.4674 
G01 X25.3654 Y4.1450 
G01 X25.3654 Y2.7764 
G01 X25.3480 Y2.7114 
G01 X25.3144 Y2.6532 
G01 X25.2668 Y2.6056 
G01 X25.2086 Y2.5720 
G01 X25.1436 Y2.5546 
G01 X23.5764 Y2.5546 
G01 X23.5114 Y2.5720 
G01 X23.4532 Y2.6056 
G01 X23.4056 Y2.6532 
G01 X23.3720 Y2.7114 
G01 X23.3546 Y2.7764 
G01 X23.3546 Y4.8436 
G01 X23.3720 Y4.9086 
G01 X23.4056 Y4.9668 
G01 X23.4532 Y5.0144 
G01 X23.4925 Y5.0371 
G01 X20.5990 Y7.9306 
G01 X19.9226 Y7.9306 
G01 X19.3606 Y8.4926 
G00 Z2.5400 
G00 X19.3606 Y11.0326 
G01 Z-0.1200 F100.00 
G01 X19.3606 Y11.8274 F230.00 
G01 X19.8656 Y12.3324 
G01 X19.8656 Y17.4421 
G01 X19.9003 Y17.5716 
G01 X19.9674 Y17.6878 
G01 X20.0622 Y17.7826 
G01 X20.1784 Y17.8497 
G01 X20.3079 Y17.8844 
G01 X30.0671 Y17.8844 
G01 X30.1966 Y17.8497 
G01 X30.3128 Y17.7826 
G01 X30.4076 Y17.6878 
G01 X34.0387 Y14.0567 
G01 X34.0759 Y14.0756 
G01 X34.2900 Y14.1452 
G01 X34.5124 Y14.1804 
G01 X34.7376 Y14.1804 
G01 X34.9600 Y14.1452 
G01 X35.1741 Y14.0756 
G01 X35.3747 Y13.9734 
G01 X35.5568 Y13.8410 
G01 X35.7160 Y13.6818 
G01 X35.8484 Y13.4997 
G01 X35.9506 Y13.2991 
G01 X36.0202 Y13.0850 
G01 X36.0554 Y12.8626 
G01 X36.0554 Y12.6374 
G01 X36.0202 Y12.4150 
G01 X35.9506 Y12.2009 
G01 X35.8484 Y12.0003 
G01 X35.7160 Y11.8182 
G01 X35.5568 Y11.6590 
G01 X35.3747 Y11.5266 
G01 X35.1741 Y11.4244 
G01 X34.9600 Y11.3548 
G01 X34.7376 Y11.3196 
G01 X34.5124 Y11.3196 
G01 X34.2900 Y11.3548 
G01 X34.0759 Y11.4244 
G01 X33.8753 Y11.5266 
G01 X33.6932 Y11.6590 
G01 X33.5339 Y11.8182 
G01 X33.4016 Y12.0003 
G01 X33.2994 Y12.2009 
G01 X33.2298 Y12.4150 
G01 X33.1946 Y12.6374 
G01 X33.1946 Y12.8626 
G01 X33.2298 Y13.0850 
G01 X33.2994 Y13.2991 
G01 X33.3183 Y13.3363 
G01 X29.7890 Y16.8656 
G01 X20.8844 Y16.8656 
G01 X20.8844 Y12.2224 
G01 X21.2794 Y11.8274 
G01 X21.2794 Y11.0326 
G01 X20.7174 Y10.4706 
G01 X19.9226 Y10.4706 
G01 X19.3606 Y11.0326 
G00 Z2.5400 
G00 X21.9006 Y11.0326 
G01 Z-0.1200 F100.00 
G01 X21.9006 Y11.8274 F230.00 
G01 X22.3656 Y12.2924 
G01 X22.3656 Y14.9421 
G01 X22.4003 Y15.0716 
G01 X22.4674 Y15.1878 
G01 X22.5622 Y15.2826 
G01 X22.6784 Y15.3497 
G01 X22.8079 Y15.3844 
G01 X22.9421 Y15.3844 
G01 X26.9115 Y15.3844 
G01 X26.9244 Y15.4241 
G01 X27.0266 Y15.6247 
G01 X27.1590 Y15.8068 
G01 X27.3182 Y15.9660 
G01 X27.5003 Y16.0984 
G01 X27.7009 Y16.2006 
G01 X27.9150 Y16.2702 
G01 X28.1374 Y16.3054 
G01 X28.3626 Y16.3054 
G01 X28.5850 Y16.2702 
G01 X28.7991 Y16.2006 
G01 X28.9997 Y16.0984 
G01 X29.1818 Y15.9660 
G01 X29.3410 Y15.8068 
G01 X29.4734 Y15.6247 
G01 X29.5756 Y15.4241 
G01 X29.6452 Y15.2100 
G01 X29.6804 Y14.9876 
G01 X29.6804 Y14.7624 
G01 X29.6452 Y14.5400 
G01 X29.5756 Y14.3259 
G01 X29.4734 Y14.1253 
G01 X29.3410 Y13.9432 
G01 X29.1818 Y13.7840 
G01 X28.9997 Y13.6516 
G01 X28.7991 Y13.5494 
G01 X28.5850 Y13.4798 
G01 X28.3626 Y13.4446 
G01 X28.1374 Y13.4446 
G01 X27.9150 Y13.4798 
G01 X27.7009 Y13.5494 
G01 X27.5003 Y13.6516 
G01 X27.3182 Y13.7840 
G01 X27.1590 Y13.9432 
G01 X27.0266 Y14.1253 
G01 X26.9244 Y14.3259 
G01 X26.9115 Y14.3656 
G01 X23.3844 Y14.3656 
G01 X23.3844 Y12.2624 
G01 X23.8194 Y11.8274 
G01 X23.8194 Y11.0326 
G01 X23.2574 Y10.4706 
G01 X22.4626 Y10.4706 
G01 X21.9006 Y11.0326 
G00 Z2.5400 
G00 X22.4626 Y9.8494 
G01 Z-0.1200 F100.00 
G01 X23.2574 Y9.8494 F230.00 
G01 X23.8194 Y9.2874 
G01 X23.8194 Y8.4926 
G01 X23.2574 Y7.9306 
G01 X22.4626 Y7.9306 
G01 X21.9006 Y8.4926 
G01 X21.9006 Y9.2874 
G01 X22.4626 Y9.8494 
G00 Z2.5400 
G00 X24.4406 Y11.0326 
G01 Z-0.1200 F100.00 
G01 X24.4406 Y11.8274 F230.00 
G01 X25.0026 Y12.3894 
G01 X25.7974 Y12.3894 
G01 X26.3594 Y11.8274 
G01 X26.3594 Y11.0326 
G01 X25.7974 Y10.4706 
G01 X25.0026 Y10.4706 
G01 X24.4406 Y11.0326 
G00 Z2.5400 
G00 X2.1652 Y4.3260 
G01 Z-0.1200 F100.00 
G01 X2.0581 Y4.4734 F230.00 
G01 X1.9754 Y4.6357 
G01 X1.9191 Y4.8090 
G01 X1.8906 Y4.9889 
G01 X1.8906 Y5.1711 
G01 X1.9191 Y5.3510 
G01 X1.9754 Y5.5243 
G01 X2.0581 Y5.6866 
G01 X2.1652 Y5.8340 
G01 X2.2940 Y5.9628 
G01 X2.4414 Y6.0699 
G01 X2.6037 Y6.1526 
G01 X2.7770 Y6.2089 
G01 X2.9569 Y6.2374 
G01 X4.6631 Y6.2374 
G01 X4.8430 Y6.2089 
G01 X5.0163 Y6.1526 
G01 X5.1786 Y6.0699 
G01 X5.2977 Y5.9834 
G01 X8.5158 Y5.9834 
G01 X9.2346 Y6.7022 
G01 X9.2346 Y6.9021 
G01 X9.2615 Y7.0026 
G01 X9.3136 Y7.0928 
G01 X9.3872 Y7.1664 
G01 X9.4774 Y7.2184 
G01 X9.5779 Y7.2454 
G01 X10.0308 Y7.2454 
G01 X10.0710 Y7.2534 
G01 X10.4190 Y7.2534 
G01 X10.4592 Y7.2454 
G01 X11.0821 Y7.2454 
G01 X11.1826 Y7.2184 
G01 X11.2728 Y7.1664 
G01 X11.3464 Y7.0928 
G01 X11.3985 Y7.0026 
G01 X11.4254 Y6.9021 
G01 X11.4254 Y5.7979 
G01 X11.3985 Y5.6974 
G01 X11.3464 Y5.6072 
G01 X11.2728 Y5.5336 
G01 X11.1826 Y5.4815 
G01 X11.0821 Y5.4546 
G01 X10.5422 Y5.4546 
G01 X9.4659 Y4.3783 
G01 X9.3179 Y4.2794 
G01 X9.1535 Y4.2113 
G01 X8.9790 Y4.1766 
G01 X5.2977 Y4.1766 
G01 X5.1786 Y4.0901 
G01 X5.0163 Y4.0074 
G01 X4.8430 Y3.9511 
G01 X4.6631 Y3.9226 
G01 X2.9569 Y3.9226 
G01 X2.7770 Y3.9511 
G01 X2.6037 Y4.0074 
G01 X2.4414 Y4.0901 
G01 X2.2940 Y4.1972 
G01 X2.1652 Y4.3260 
G00 Z2.5400 
G00 X2.3223 Y6.7166 
G01 Z-0.1200 F100.00 
G01 X1.1810 Y6.7166 F230.00 
G01 X1.0065 Y6.7513 
G01 X0.8421 Y6.8194 
G01 X0.6941 Y6.9183 
G01 X0.5683 Y7.0441 
G01 X0.4694 Y7.1921 
G01 X0.4013 Y7.3565 
G01 X0.3666 Y7.5310 
G01 X0.3666 Y34.3790 
G01 X0.4013 Y34.5535 
G01 X0.4694 Y34.7179 
G01 X0.5683 Y34.8659 
G01 X0.6941 Y34.9917 
G01 X0.8421 Y35.0906 
G01 X1.0065 Y35.1587 
G01 X1.1810 Y35.1934 
G01 X2.3223 Y35.1934 
G01 X2.4414 Y35.2799 
G01 X2.6037 Y35.3626 
G01 X2.7770 Y35.4189 
G01 X2.9066 Y35.4394 
G01 X2.9066 Y40.7290 
G01 X2.9413 Y40.9035 
G01 X3.0094 Y41.0679 
G01 X3.1083 Y41.2159 
G01 X3.2341 Y41.3417 
G01 X3.3821 Y41.4406 
G01 X3.5465 Y41.5087 
G01 X3.7210 Y41.5434 
G01 X6.4706 Y41.5434 
G01 X6.4911 Y41.6730 
G01 X6.5474 Y41.8463 
G01 X6.6301 Y42.0086 
G01 X6.7372 Y42.1560 
G01 X6.8660 Y42.2848 
G01 X7.0134 Y42.3919 
G01 X7.1757 Y42.4746 
G01 X7.3490 Y42.5309 
G01 X7.5289 Y42.5594 
G01 X7.7111 Y42.5594 
G01 X7.8910 Y42.5309 
G01 X8.0643 Y42.4746 
G01 X8.2266 Y42.3919 
G01 X8.3740 Y42.2848 
G01 X8.5028 Y42.1560 
G01 X8.6099 Y42.0086 
G01 X8.6926 Y41.8463 
G01 X8.7489 Y41.6730 
G01 X8.7774 Y41.4931 
G01 X8.7774 Y39.7869 
G01 X8.7489 Y39.6070 
G01 X8.6926 Y39.4337 
G01 X8.6099 Y39.2714 
G01 X8.5028 Y39.1240 
G01 X8.3740 Y38.9952 
G01 X8.2266 Y38.8881 
G01 X8.0643 Y38.8054 
G01 X7.8910 Y38.7491 
G01 X7.7111 Y38.7206 
G01 X7.5289 Y38.7206 
G01 X7.3490 Y38.7491 
G01 X7.1757 Y38.8054 
G01 X7.0134 Y38.8881 
G01 X6.8660 Y38.9952 
G01 X6.7372 Y39.1240 
G01 X6.6301 Y39.2714 
G01 X6.5474 Y39.4337 
G01 X6.4911 Y39.6070 
G01 X6.4706 Y39.7366 
G01 X4.7134 Y39.7366 
G01 X4.7134 Y35.4394 
G01 X4.8430 Y35.4189 
G01 X5.0163 Y35.3626 
G01 X5.1786 Y35.2799 
G01 X5.3260 Y35.1728 
G01 X5.4548 Y35.0440 
G01 X5.5619 Y34.8966 
G01 X5.6446 Y34.7343 
G01 X5.7009 Y34.5610 
G01 X5.7294 Y34.3811 
G01 X5.7294 Y34.1989 
G01 X5.7009 Y34.0190 
G01 X5.6446 Y33.8457 
G01 X5.5619 Y33.6834 
G01 X5.4548 Y33.5360 
G01 X5.3260 Y33.4072 
G01 X5.1786 Y33.3001 
G01 X5.0163 Y33.2174 
G01 X4.8430 Y33.1611 
G01 X4.6631 Y33.1326 
G01 X2.9569 Y33.1326 
G01 X2.7770 Y33.1611 
G01 X2.6037 Y33.2174 
G01 X2.4414 Y33.3001 
G01 X2.3223 Y33.3866 
G01 X2.1734 Y33.3866 
G01 X2.1734 Y32.5122 
G01 X2.2940 Y32.6328 
G01 X2.4414 Y32.7399 
G01 X2.6037 Y32.8226 
G01 X2.7770 Y32.8789 
G01 X2.9569 Y32.9074 
G01 X4.6631 Y32.9074 
G01 X4.8430 Y32.8789 
G01 X5.0163 Y32.8226 
G01 X5.1786 Y32.7399 
G01 X5.2977 Y32.6534 
G01 X8.6858 Y32.6534 
G01 X9.2346 Y33.2022 
G01 X9.2346 Y33.5721 
G01 X9.2615 Y33.6726 
G01 X9.3136 Y33.7628 
G01 X9.3872 Y33.8364 
G01 X9.4774 Y33.8884 
G01 X9.5779 Y33.9154 
G01 X10.2008 Y33.9154 
G01 X10.2410 Y33.9234 
G01 X10.4190 Y33.9234 
G01 X10.4592 Y33.9154 
G01 X11.0821 Y33.9154 
G01 X11.1826 Y33.8884 
G01 X11.2728 Y33.8364 
G01 X11.3464 Y33.7628 
G01 X11.3985 Y33.6726 
G01 X11.4254 Y33.5721 
G01 X11.4254 Y32.4679 
G01 X11.3985 Y32.3674 
G01 X11.3464 Y32.2772 
G01 X11.2728 Y32.2036 
G01 X11.1826 Y32.1515 
G01 X11.0821 Y32.1246 
G01 X10.7122 Y32.1246 
G01 X9.6359 Y31.0483 
G01 X9.4879 Y30.9494 
G01 X9.3235 Y30.8813 
G01 X9.1490 Y30.8466 
G01 X5.2977 Y30.8466 
G01 X5.1786 Y30.7601 
G01 X5.0163 Y30.6774 
G01 X4.8430 Y30.6211 
G01 X4.6631 Y30.5926 
G01 X2.9569 Y30.5926 
G01 X2.7770 Y30.6211 
G01 X2.6037 Y30.6774 
G01 X2.4414 Y30.7601 
G01 X2.2940 Y30.8672 
G01 X2.1734 Y30.9878 
G01 X2.1734 Y26.3034 
G01 X2.3223 Y26.3034 
G01 X2.4414 Y26.3899 
G01 X2.6037 Y26.4726 
G01 X2.7770 Y26.5289 
G01 X2.9569 Y26.5574 
G01 X4.6631 Y26.5574 
G01 X4.8430 Y26.5289 
G01 X5.0163 Y26.4726 
G01 X5.1786 Y26.3899 
G01 X5.3260 Y26.2828 
G01 X5.4548 Y26.1540 
G01 X5.5619 Y26.0066 
G01 X5.6446 Y25.8443 
G01 X5.7009 Y25.6710 
G01 X5.7294 Y25.4911 
G01 X5.7294 Y25.3089 
G01 X5.7009 Y25.1290 
G01 X5.6446 Y24.9557 
G01 X5.5619 Y24.7934 
G01 X5.4548 Y24.6460 
G01 X5.3260 Y24.5172 
G01 X5.1786 Y24.4101 
G01 X5.0163 Y24.3274 
G01 X4.8430 Y24.2711 
G01 X4.6631 Y24.2426 
G01 X2.9569 Y24.2426 
G01 X2.7770 Y24.2711 
G01 X2.6037 Y24.3274 
G01 X2.4414 Y24.4101 
G01 X2.3223 Y24.4966 
G01 X2.1734 Y24.4966 
G01 X2.1734 Y23.6222 
G01 X2.2940 Y23.7428 
G01 X2.4414 Y23.8499 
G01 X2.6037 Y23.9326 
G01 X2.7770 Y23.9889 
G01 X2.9569 Y24.0174 
G01 X4.6631 Y24.0174 
G01 X4.8430 Y23.9889 
G01 X5.0163 Y23.9326 
G01 X5.1786 Y23.8499 
G01 X5.2977 Y23.7634 
G01 X8.6858 Y23.7634 
G01 X9.2346 Y24.3122 
G01 X9.2346 Y24.6821 
G01 X9.2615 Y24.7826 
G01 X9.3136 Y24.8728 
G01 X9.3872 Y24.9464 
G01 X9.4774 Y24.9984 
G01 X9.5779 Y25.0254 
G01 X10.2008 Y25.0254 
G01 X10.2410 Y25.0334 
G01 X10.4190 Y25.0334 
G01 X10.4592 Y25.0254 
G01 X11.0821 Y25.0254 
G01 X11.1826 Y24.9984 
G01 X11.2728 Y24.9464 
G01 X11.3464 Y24.8728 
G01 X11.3985 Y24.7826 
G01 X11.4254 Y24.6821 
G01 X11.4254 Y23.5779 
G01 X11.3985 Y23.4774 
G01 X11.3464 Y23.3872 
G01 X11.2728 Y23.3136 
G01 X11.1826 Y23.2615 
G01 X11.0821 Y23.2346 
G01 X10.7122 Y23.2346 
G01 X9.6359 Y22.1583 
G01 X9.4879 Y22.0594 
G01 X9.3235 Y21.9913 
G01 X9.1490 Y21.9566 
G01 X5.2977 Y21.9566 
G01 X5.1786 Y21.8701 
G01 X5.0163 Y21.7874 
G01 X4.8430 Y21.7311 
G01 X4.6631 Y21.7026 
G01 X2.9569 Y21.7026 
G01 X2.7770 Y21.7311 
G01 X2.6037 Y21.7874 
G01 X2.4414 Y21.8701 
G01 X2.2940 Y21.9772 
G01 X2.1734 Y22.0978 
G01 X2.1734 Y17.4134 
G01 X2.3223 Y17.4134 
G01 X2.4414 Y17.4999 
G01 X2.6037 Y17.5826 
G01 X2.7770 Y17.6389 
G01 X2.9569 Y17.6674 
G01 X4.6631 Y17.6674 
G01 X4.8430 Y17.6389 
G01 X5.0163 Y17.5826 
G01 X5.1786 Y17.4999 
G01 X5.3260 Y17.3928 
G01 X5.4548 Y17.2640 
G01 X5.5619 Y17.1166 
G01 X5.6446 Y16.9543 
G01 X5.7009 Y16.7810 
G01 X5.7294 Y16.6011 
G01 X5.7294 Y16.4189 
G01 X5.7009 Y16.2390 
G01 X5.6446 Y16.0657 
G01 X5.5619 Y15.9034 
G01 X5.4548 Y15.7560 
G01 X5.3260 Y15.6272 
G01 X5.1786 Y15.5201 
G01 X5.0163 Y15.4374 
G01 X4.8430 Y15.3811 
G01 X4.6631 Y15.3526 
G01 X2.9569 Y15.3526 
G01 X2.7770 Y15.3811 
G01 X2.6037 Y15.4374 
G01 X2.4414 Y15.5201 
G01 X2.3223 Y15.6066 
G01 X2.1734 Y15.6066 
G01 X2.1734 Y14.7322 
G01 X2.2940 Y14.8528 
G01 X2.4414 Y14.9599 
G01 X2.6037 Y15.0426 
G01 X2.7770 Y15.0989 
G01 X2.9569 Y15.1274 
G01 X4.6631 Y15.1274 
G01 X4.8430 Y15.0989 
G01 X5.0163 Y15.0426 
G01 X5.1786 Y14.9599 
G01 X5.2977 Y14.8734 
G01 X8.6858 Y14.8734 
G01 X9.2346 Y15.4222 
G01 X9.2346 Y15.7921 
G01 X9.2615 Y15.8926 
G01 X9.3136 Y15.9828 
G01 X9.3872 Y16.0564 
G01 X9.4774 Y16.1085 
G01 X9.5779 Y16.1354 
G01 X10.2008 Y16.1354 
G01 X10.2410 Y16.1434 
G01 X10.4190 Y16.1434 
G01 X10.4592 Y16.1354 
G01 X11.0821 Y16.1354 
G01 X11.1826 Y16.1085 
G01 X11.2728 Y16.0564 
G01 X11.3464 Y15.9828 
G01 X11.3985 Y15.8926 
G01 X11.4254 Y15.7921 
G01 X11.4254 Y14.6879 
G01 X11.3985 Y14.5874 
G01 X11.3464 Y14.4972 
G01 X11.2728 Y14.4236 
G01 X11.1826 Y14.3715 
G01 X11.0821 Y14.3446 
G01 X10.7122 Y14.3446 
G01 X9.6359 Y13.2683 
G01 X9.4879 Y13.1694 
G01 X9.3235 Y13.1013 
G01 X9.1490 Y13.0666 
G01 X5.2977 Y13.0666 
G01 X5.1786 Y12.9801 
G01 X5.0163 Y12.8974 
G01 X4.8430 Y12.8411 
G01 X4.6631 Y12.8126 
G01 X2.9569 Y12.8126 
G01 X2.7770 Y12.8411 
G01 X2.6037 Y12.8974 
G01 X2.4414 Y12.9801 
G01 X2.2940 Y13.0872 
G01 X2.1734 Y13.2078 
G01 X2.1734 Y8.5234 
G01 X2.3223 Y8.5234 
G01 X2.4414 Y8.6099 
G01 X2.6037 Y8.6926 
G01 X2.7770 Y8.7489 
G01 X2.9569 Y8.7774 
G01 X4.6631 Y8.7774 
G01 X4.8430 Y8.7489 
G01 X5.0163 Y8.6926 
G01 X5.1786 Y8.6099 
G01 X5.3260 Y8.5028 
G01 X5.4548 Y8.3740 
G01 X5.5619 Y8.2266 
G01 X5.6446 Y8.0643 
G01 X5.7009 Y7.8910 
G01 X5.7294 Y7.7111 
G01 X5.7294 Y7.5289 
G01 X5.7009 Y7.3490 
G01 X5.6446 Y7.1757 
G01 X5.5619 Y7.0134 
G01 X5.4548 Y6.8660 
G01 X5.3260 Y6.7372 
G01 X5.1786 Y6.6301 
G01 X5.0163 Y6.5474 
G01 X4.8430 Y6.4911 
G01 X4.6631 Y6.4626 
G01 X2.9569 Y6.4626 
G01 X2.7770 Y6.4911 
G01 X2.6037 Y6.5474 
G01 X2.4414 Y6.6301 
G01 X2.3223 Y6.7166 
G00 Z2.5400 
G00 X11.4346 Y6.7479 
G01 Z-0.1200 F100.00 
G01 X11.4346 Y7.8521 F230.00 
G01 X11.4615 Y7.9526 
G01 X11.5136 Y8.0428 
G01 X11.5872 Y8.1164 
G01 X11.6266 Y8.1391 
G01 X11.6266 Y11.9217 
G01 X11.6613 Y12.0963 
G01 X11.7294 Y12.2607 
G01 X11.8283 Y12.4086 
G01 X12.8142 Y13.3946 
G01 X12.7325 Y13.3946 
G01 X12.7005 Y13.3174 
G01 X12.6294 Y13.2110 
G01 X12.5390 Y13.1206 
G01 X11.2215 Y11.8031 
G01 X11.2817 Y11.6177 
G01 X11.3204 Y11.3736 
G01 X11.3204 Y11.1264 
G01 X11.2817 Y10.8823 
G01 X11.2053 Y10.6472 
G01 X11.0931 Y10.4269 
G01 X10.9478 Y10.2270 
G01 X10.7730 Y10.0522 
G01 X10.5731 Y9.9069 
G01 X10.3528 Y9.7947 
G01 X10.1177 Y9.7183 
G01 X9.8736 Y9.6796 
G01 X9.6264 Y9.6796 
G01 X9.3823 Y9.7183 
G01 X9.1472 Y9.7947 
G01 X8.9269 Y9.9069 
G01 X8.7270 Y10.0522 
G01 X8.5522 Y10.2270 
G01 X8.4069 Y10.4269 
G01 X8.2947 Y10.6472 
G01 X8.2183 Y10.8823 
G01 X8.1796 Y11.1264 
G01 X8.1796 Y11.3736 
G01 X8.2183 Y11.6177 
G01 X8.2947 Y11.8528 
G01 X8.4069 Y12.0731 
G01 X8.5522 Y12.2730 
G01 X8.7270 Y12.4478 
G01 X8.9269 Y12.5931 
G01 X9.1472 Y12.7053 
G01 X9.3823 Y12.7817 
G01 X9.6264 Y12.8204 
G01 X9.8736 Y12.8204 
G01 X10.1177 Y12.7817 
G01 X10.3031 Y12.7215 
G01 X11.4346 Y13.8530 
G01 X11.4346 Y14.8421 
G01 X11.4615 Y14.9426 
G01 X11.5136 Y15.0328 
G01 X11.5872 Y15.1064 
G01 X11.6774 Y15.1585 
G01 X11.7779 Y15.1854 
G01 X12.2570 Y15.1854 
G01 X12.1478 Y15.2946 
G01 X11.7779 Y15.2946 
G01 X11.6774 Y15.3215 
G01 X11.5872 Y15.3736 
G01 X11.5136 Y15.4472 
G01 X11.4615 Y15.5374 
G01 X11.4346 Y15.6379 
G01 X11.4346 Y16.7421 
G01 X11.4615 Y16.8426 
G01 X11.5136 Y16.9328 
G01 X11.5872 Y17.0064 
G01 X11.6266 Y17.0291 
G01 X11.6266 Y19.4582 
G01 X10.7215 Y18.5531 
G01 X10.7817 Y18.3677 
G01 X10.8204 Y18.1236 
G01 X10.8204 Y17.8764 
G01 X10.7817 Y17.6323 
G01 X10.7053 Y17.3972 
G01 X10.5931 Y17.1769 
G01 X10.4478 Y16.9770 
G01 X10.2730 Y16.8022 
G01 X10.0731 Y16.6569 
G01 X9.8528 Y16.5447 
G01 X9.6177 Y16.4683 
G01 X9.3736 Y16.4296 
G01 X9.1264 Y16.4296 
G01 X8.8823 Y16.4683 
G01 X8.6472 Y16.5447 
G01 X8.4269 Y16.6569 
G01 X8.2270 Y16.8022 
G01 X8.0522 Y16.9770 
G01 X7.9069 Y17.1769 
G01 X7.7947 Y17.3972 
G01 X7.7183 Y17.6323 
G01 X7.6796 Y17.8764 
G01 X7.6796 Y18.1236 
G01 X7.7183 Y18.3677 
G01 X7.7947 Y18.6028 
G01 X7.9069 Y18.8231 
G01 X8.0522 Y19.0230 
G01 X8.2270 Y19.1978 
G01 X8.4269 Y19.3431 
G01 X8.6472 Y19.4553 
G01 X8.8823 Y19.5317 
G01 X9.1264 Y19.5704 
G01 X9.3736 Y19.5704 
G01 X9.6177 Y19.5317 
G01 X9.8031 Y19.4715 
G01 X10.6006 Y20.2690 
G01 X10.6006 Y21.5640 
G01 X10.6256 Y21.6894 
G01 X10.6745 Y21.8076 
G01 X10.7456 Y21.9140 
G01 X11.4399 Y22.6083 
G01 X11.4346 Y22.6279 
G01 X11.4346 Y23.7321 
G01 X11.4615 Y23.8326 
G01 X11.5136 Y23.9228 
G01 X11.5872 Y23.9964 
G01 X11.6774 Y24.0484 
G01 X11.7779 Y24.0754 
G01 X12.2570 Y24.0754 
G01 X12.1478 Y24.1846 
G01 X11.7779 Y24.1846 
G01 X11.6774 Y24.2115 
G01 X11.5872 Y24.2636 
G01 X11.5136 Y24.3372 
G01 X11.4615 Y24.4274 
G01 X11.4346 Y24.5279 
G01 X11.4346 Y25.6321 
G01 X11.4615 Y25.7326 
G01 X11.5136 Y25.8228 
G01 X11.5872 Y25.8964 
G01 X11.6266 Y25.9191 
G01 X11.6266 Y29.7017 
G01 X11.6613 Y29.8763 
G01 X11.7294 Y30.0407 
G01 X11.7704 Y30.1020 
G01 X11.2215 Y29.5531 
G01 X11.2817 Y29.3677 
G01 X11.3204 Y29.1236 
G01 X11.3204 Y28.8764 
G01 X11.2817 Y28.6323 
G01 X11.2053 Y28.3972 
G01 X11.0931 Y28.1769 
G01 X10.9478 Y27.9770 
G01 X10.7730 Y27.8022 
G01 X10.5731 Y27.6569 
G01 X10.3528 Y27.5447 
G01 X10.1177 Y27.4683 
G01 X9.8736 Y27.4296 
G01 X9.6264 Y27.4296 
G01 X9.3823 Y27.4683 
G01 X9.1472 Y27.5447 
G01 X8.9269 Y27.6569 
G01 X8.7270 Y27.8022 
G01 X8.5522 Y27.9770 
G01 X8.4069 Y28.1769 
G01 X8.2947 Y28.3972 
G01 X8.2183 Y28.6323 
G01 X8.1796 Y28.8764 
G01 X8.1796 Y29.1236 
G01 X8.2183 Y29.3677 
G01 X8.2947 Y29.6028 
G01 X8.4069 Y29.8231 
G01 X8.5522 Y30.0230 
G01 X8.7270 Y30.1978 
G01 X8.9269 Y30.3431 
G01 X9.1472 Y30.4553 
G01 X9.3823 Y30.5317 
G01 X9.6264 Y30.5704 
G01 X9.8736 Y30.5704 
G01 X10.1177 Y30.5317 
G01 X10.3031 Y30.4715 
G01 X11.4346 Y31.6030 
G01 X11.4346 Y32.6221 
G01 X11.4615 Y32.7226 
G01 X11.5136 Y32.8128 
G01 X11.5872 Y32.8864 
G01 X11.6774 Y32.9385 
G01 X11.7779 Y32.9654 
G01 X12.2570 Y32.9654 
G01 X12.1478 Y33.0746 
G01 X11.7779 Y33.0746 
G01 X11.6774 Y33.1015 
G01 X11.5872 Y33.1536 
G01 X11.5136 Y33.2272 
G01 X11.4615 Y33.3174 
G01 X11.4346 Y33.4179 
G01 X11.4346 Y34.5221 
G01 X11.4615 Y34.6226 
G01 X11.5136 Y34.7128 
G01 X11.5872 Y34.7864 
G01 X11.6266 Y34.8091 
G01 X11.6266 Y37.8958 
G01 X11.4483 Y38.0741 
G01 X10.6790 Y38.8434 
G01 X10.6043 Y38.8054 
G01 X10.4310 Y38.7491 
G01 X10.2511 Y38.7206 
G01 X10.0689 Y38.7206 
G01 X9.8890 Y38.7491 
G01 X9.7157 Y38.8054 
G01 X9.5534 Y38.8881 
G01 X9.4060 Y38.9952 
G01 X9.2772 Y39.1240 
G01 X9.1701 Y39.2714 
G01 X9.0874 Y39.4337 
G01 X9.0311 Y39.6070 
G01 X9.0026 Y39.7869 
G01 X9.0026 Y41.4931 
G01 X9.0311 Y41.6730 
G01 X9.0874 Y41.8463 
G01 X9.1701 Y42.0086 
G01 X9.2772 Y42.1560 
G01 X9.4060 Y42.2848 
G01 X9.5534 Y42.3919 
G01 X9.7157 Y42.4746 
G01 X9.8890 Y42.5309 
G01 X10.0689 Y42.5594 
G01 X10.2511 Y42.5594 
G01 X10.4310 Y42.5309 
G01 X10.6043 Y42.4746 
G01 X10.7666 Y42.3919 
G01 X10.9140 Y42.2848 
G01 X11.0428 Y42.1560 
G01 X11.1499 Y42.0086 
G01 X11.2326 Y41.8463 
G01 X11.2889 Y41.6730 
G01 X11.3174 Y41.4931 
G01 X11.3174 Y40.7602 
G01 X12.4295 Y39.6481 
G01 X12.4360 Y39.6494 
G01 X12.5640 Y39.6494 
G01 X12.6894 Y39.6244 
G01 X12.8076 Y39.5755 
G01 X12.9140 Y39.5044 
G01 X13.0044 Y39.4140 
G01 X13.0755 Y39.3076 
G01 X13.0994 Y39.2500 
G01 X13.1865 Y39.1699 
G01 X13.2620 Y39.0666 
G01 X13.3159 Y38.9506 
G01 X13.3461 Y38.8263 
G01 X13.3515 Y38.6985 
G01 X13.3457 Y38.6613 
G01 X13.3987 Y38.5335 
G01 X13.4334 Y38.3590 
G01 X13.4334 Y34.8091 
G01 X13.4728 Y34.7864 
G01 X13.5464 Y34.7128 
G01 X13.5984 Y34.6226 
G01 X13.6254 Y34.5221 
G01 X13.6254 Y34.3624 
G01 X13.6872 Y34.3624 
G01 X13.8618 Y34.3277 
G01 X14.0262 Y34.2596 
G01 X14.1741 Y34.1607 
G01 X14.3000 Y34.0349 
G01 X14.6949 Y33.6400 
G01 X14.8207 Y33.5141 
G01 X14.9196 Y33.3662 
G01 X14.9877 Y33.2017 
G01 X15.0224 Y33.0272 
G01 X15.0224 Y31.1128 
G01 X14.9877 Y30.9382 
G01 X14.9196 Y30.7738 
G01 X14.8207 Y30.6259 
G01 X13.4334 Y29.2386 
G01 X13.4334 Y25.9191 
G01 X13.4728 Y25.8964 
G01 X13.5464 Y25.8228 
G01 X13.5984 Y25.7326 
G01 X13.6254 Y25.6321 
G01 X13.6254 Y25.4724 
G01 X13.6872 Y25.4724 
G01 X13.8618 Y25.4377 
G01 X14.0262 Y25.3696 
G01 X14.1741 Y25.2707 
G01 X14.3000 Y25.1449 
G01 X14.6949 Y24.7500 
G01 X14.8207 Y24.6241 
G01 X14.9196 Y24.4762 
G01 X14.9877 Y24.3117 
G01 X15.0224 Y24.1372 
G01 X15.0224 Y22.2228 
G01 X14.9877 Y22.0482 
G01 X14.9196 Y21.8838 
G01 X14.8207 Y21.7359 
G01 X13.4334 Y20.3486 
G01 X13.4334 Y17.0291 
G01 X13.4728 Y17.0064 
G01 X13.5464 Y16.9328 
G01 X13.5984 Y16.8426 
G01 X13.6254 Y16.7421 
G01 X13.6254 Y16.5824 
G01 X13.6872 Y16.5824 
G01 X13.8618 Y16.5477 
G01 X14.0262 Y16.4796 
G01 X14.1741 Y16.3807 
G01 X14.3000 Y16.2549 
G01 X14.6949 Y15.8600 
G01 X14.8207 Y15.7341 
G01 X14.9196 Y15.5862 
G01 X14.9877 Y15.4217 
G01 X15.0224 Y15.2472 
G01 X15.0224 Y15.1405 
G01 X15.0390 Y15.1294 
G01 X15.1294 Y15.0390 
G01 X17.6390 Y12.5294 
G01 X18.2354 Y12.5294 
G01 X18.8794 Y11.8854 
G01 X18.8794 Y10.9746 
G01 X18.2354 Y10.3306 
G01 X17.3246 Y10.3306 
G01 X16.6806 Y10.9746 
G01 X16.6806 Y11.6510 
G01 X15.0942 Y13.2374 
G01 X15.0774 Y13.1960 
G01 X15.0070 Y13.0892 
G01 X14.9245 Y13.0056 
G01 X14.9196 Y12.9938 
G01 X14.8207 Y12.8459 
G01 X13.4334 Y11.4586 
G01 X13.4334 Y8.1391 
G01 X13.4728 Y8.1164 
G01 X13.5464 Y8.0428 
G01 X13.5984 Y7.9526 
G01 X13.6254 Y7.8521 
G01 X13.6254 Y7.6494 
G01 X18.1890 Y7.6494 
G01 X18.3144 Y7.6244 
G01 X18.4326 Y7.5755 
G01 X18.5390 Y7.5044 
G01 X18.6294 Y7.4140 
G01 X20.8380 Y5.2054 
G01 X22.1621 Y5.2054 
G01 X22.2626 Y5.1784 
G01 X22.3528 Y5.1264 
G01 X22.4264 Y5.0528 
G01 X22.4784 Y4.9626 
G01 X22.5054 Y4.8621 
G01 X22.5054 Y2.7579 
G01 X22.4784 Y2.6574 
G01 X22.4264 Y2.5672 
G01 X22.3528 Y2.4936 
G01 X22.2626 Y2.4415 
G01 X22.1621 Y2.4146 
G01 X20.5579 Y2.4146 
G01 X20.4574 Y2.4415 
G01 X20.3672 Y2.4936 
G01 X20.2936 Y2.5672 
G01 X20.2415 Y2.6574 
G01 X20.2146 Y2.7579 
G01 X20.2146 Y3.9920 
G01 X17.8560 Y6.3506 
G01 X13.0068 Y6.3506 
G01 X12.9497 Y6.3494 
G01 X12.9429 Y6.3506 
G01 X12.9360 Y6.3506 
G01 X12.8800 Y6.3617 
G01 X12.8237 Y6.3717 
G01 X12.8173 Y6.3742 
G01 X12.8106 Y6.3756 
G01 X12.7578 Y6.3974 
G01 X12.7394 Y6.4046 
G01 X12.6592 Y6.4046 
G01 X12.6190 Y6.3966 
G01 X12.4410 Y6.3966 
G01 X12.4008 Y6.4046 
G01 X11.7779 Y6.4046 
G01 X11.6774 Y6.4315 
G01 X11.5872 Y6.4836 
G01 X11.5136 Y6.5572 
G01 X11.4615 Y6.6474 
G01 X11.4346 Y6.7479 
G00 Z2.5400 
G00 X11.5872 Y6.2164 
G01 Z-0.1200 F100.00 
G01 X11.6774 Y6.2684 F230.00 
G01 X11.7779 Y6.2954 
G01 X13.2821 Y6.2954 
G01 X13.3826 Y6.2684 
G01 X13.4728 Y6.2164 
G01 X13.5464 Y6.1428 
G01 X13.5984 Y6.0526 
G01 X13.6254 Y5.9521 
G01 X13.6254 Y5.1749 
G01 X13.6422 Y5.1158 
G01 X13.6524 Y4.9883 
G01 X13.6376 Y4.8613 
G01 X13.5983 Y4.7395 
G01 X13.5360 Y4.6278 
G01 X13.4531 Y4.5304 
G01 X13.3528 Y4.4510 
G01 X13.2389 Y4.3928 
G01 X13.1158 Y4.3578 
G01 X12.9883 Y4.3476 
G01 X12.9011 Y4.3577 
G01 X11.9715 Y3.4281 
G01 X12.0317 Y3.2427 
G01 X12.0704 Y2.9986 
G01 X12.0704 Y2.7514 
G01 X12.0317 Y2.5073 
G01 X11.9553 Y2.2722 
G01 X11.8431 Y2.0519 
G01 X11.6978 Y1.8520 
G01 X11.5230 Y1.6772 
G01 X11.3231 Y1.5319 
G01 X11.1028 Y1.4197 
G01 X10.8677 Y1.3433 
G01 X10.6236 Y1.3046 
G01 X10.3764 Y1.3046 
G01 X10.1323 Y1.3433 
G01 X9.8972 Y1.4197 
G01 X9.6769 Y1.5319 
G01 X9.4770 Y1.6772 
G01 X9.3022 Y1.8520 
G01 X9.1569 Y2.0519 
G01 X9.0447 Y2.2722 
G01 X8.9683 Y2.5073 
G01 X8.9296 Y2.7514 
G01 X8.9296 Y2.9986 
G01 X8.9683 Y3.2427 
G01 X9.0447 Y3.4778 
G01 X9.1569 Y3.6981 
G01 X9.3022 Y3.8980 
G01 X9.4770 Y4.0728 
G01 X9.6769 Y4.2181 
G01 X9.8972 Y4.3303 
G01 X10.1323 Y4.4067 
G01 X10.3764 Y4.4454 
G01 X10.6236 Y4.4454 
G01 X10.8677 Y4.4067 
G01 X11.0531 Y4.3465 
G01 X11.4599 Y4.7533 
G01 X11.4346 Y4.8479 
G01 X11.4346 Y5.9521 
G01 X11.4615 Y6.0526 
G01 X11.5136 Y6.1428 
G01 X11.5872 Y6.2164 
G00 Z2.5400 
G00 X16.6806 Y8.4346 
G01 Z-0.1200 F100.00 
G01 X16.6806 Y9.3454 F230.00 
G01 X17.3246 Y9.9894 
G01 X18.2354 Y9.9894 
G01 X18.8794 Y9.3454 
G01 X18.8794 Y8.4346 
G01 X18.2354 Y7.7906 
G01 X17.3246 Y7.7906 
G01 X16.6806 Y8.4346 
G00 Z2.5400 
G00 X19.2206 Y8.4346 
G01 Z-0.1200 F100.00 
G01 X19.2206 Y9.3454 F230.00 
G01 X19.8646 Y9.9894 
G01 X20.7754 Y9.9894 
G01 X21.4194 Y9.3454 
G01 X21.4194 Y8.7490 
G01 X24.7256 Y5.4428 
G01 X24.7256 Y8.0096 
G01 X24.3006 Y8.4346 
G01 X24.3006 Y9.3454 
G01 X24.9446 Y9.9894 
G01 X25.8554 Y9.9894 
G01 X26.1954 Y9.6494 
G01 X36.4756 Y9.6494 
G01 X36.4756 Y24.2310 
G01 X29.7389 Y30.9677 
G01 X29.4986 Y30.9296 
G01 X29.2514 Y30.9296 
G01 X29.0073 Y30.9683 
G01 X28.7722 Y31.0447 
G01 X28.5519 Y31.1569 
G01 X28.3520 Y31.3022 
G01 X28.1772 Y31.4770 
G01 X28.0319 Y31.6769 
G01 X27.9197 Y31.8972 
G01 X27.8433 Y32.1323 
G01 X27.8046 Y32.3764 
G01 X27.8046 Y32.6236 
G01 X27.8433 Y32.8677 
G01 X27.9035 Y33.0531 
G01 X26.3360 Y34.6206 
G01 X26.2456 Y34.7110 
G01 X26.1745 Y34.8174 
G01 X26.1256 Y34.9356 
G01 X26.1006 Y35.0610 
G01 X26.1006 Y35.4434 
G01 X25.9269 Y35.5319 
G01 X25.7270 Y35.6772 
G01 X25.5522 Y35.8520 
G01 X25.4069 Y36.0519 
G01 X25.2947 Y36.2722 
G01 X25.2183 Y36.5073 
G01 X25.1796 Y36.7514 
G01 X25.1796 Y36.9986 
G01 X25.2183 Y37.2427 
G01 X25.2947 Y37.4778 
G01 X25.4069 Y37.6981 
G01 X25.5522 Y37.8980 
G01 X25.7270 Y38.0728 
G01 X25.9269 Y38.2181 
G01 X26.1472 Y38.3303 
G01 X26.3823 Y38.4067 
G01 X26.6264 Y38.4454 
G01 X26.8736 Y38.4454 
G01 X27.1177 Y38.4067 
G01 X27.3528 Y38.3303 
G01 X27.5731 Y38.2181 
G01 X27.7730 Y38.0728 
G01 X27.9478 Y37.8980 
G01 X28.0931 Y37.6981 
G01 X28.2053 Y37.4778 
G01 X28.2817 Y37.2427 
G01 X28.3204 Y36.9986 
G01 X28.3204 Y36.7514 
G01 X28.2817 Y36.5073 
G01 X28.2053 Y36.2722 
G01 X28.0931 Y36.0519 
G01 X27.9478 Y35.8520 
G01 X27.7730 Y35.6772 
G01 X27.5731 Y35.5319 
G01 X27.3994 Y35.4434 
G01 X27.3994 Y35.3940 
G01 X28.8219 Y33.9715 
G01 X29.0073 Y34.0317 
G01 X29.2514 Y34.0704 
G01 X29.4986 Y34.0704 
G01 X29.7427 Y34.0317 
G01 X29.9778 Y33.9553 
G01 X30.1981 Y33.8431 
G01 X30.3980 Y33.6978 
G01 X30.5728 Y33.5230 
G01 X30.7181 Y33.3231 
G01 X30.8303 Y33.1028 
G01 X30.9067 Y32.8677 
G01 X30.9454 Y32.6236 
G01 X30.9454 Y32.3764 
G01 X30.9067 Y32.1323 
G01 X30.8303 Y31.8972 
G01 X30.7682 Y31.7752 
G01 X37.6294 Y24.9140 
G01 X37.7005 Y24.8076 
G01 X37.7494 Y24.6894 
G01 X37.7744 Y24.5640 
G01 X37.7744 Y8.9360 
G01 X37.7494 Y8.8106 
G01 X37.7005 Y8.6924 
G01 X37.6294 Y8.5860 
G01 X37.5390 Y8.4956 
G01 X37.4326 Y8.4245 
G01 X37.3144 Y8.3756 
G01 X37.1890 Y8.3506 
G01 X26.4154 Y8.3506 
G01 X26.0244 Y7.9596 
G01 X26.0244 Y4.8110 
G01 X25.9994 Y4.6856 
G01 X25.9505 Y4.5674 
G01 X25.8794 Y4.4610 
G01 X25.7890 Y4.3706 
G01 X25.5054 Y4.0870 
G01 X25.5054 Y2.7579 
G01 X25.4784 Y2.6574 
G01 X25.4264 Y2.5672 
G01 X25.3528 Y2.4936 
G01 X25.2626 Y2.4415 
G01 X25.1621 Y2.4146 
G01 X23.5579 Y2.4146 
G01 X23.4574 Y2.4415 
G01 X23.3672 Y2.4936 
G01 X23.2936 Y2.5672 
G01 X23.2415 Y2.6574 
G01 X23.2146 Y2.7579 
G01 X23.2146 Y4.8621 
G01 X23.2415 Y4.9626 
G01 X23.2882 Y5.0434 
G01 X20.5410 Y7.7906 
G01 X19.8646 Y7.7906 
G01 X19.2206 Y8.4346 
G00 Z2.5400 
G00 X21.7606 Y8.4346 
G01 Z-0.1200 F100.00 
G01 X21.7606 Y9.3454 F230.00 
G01 X22.4046 Y9.9894 
G01 X23.3154 Y9.9894 
G01 X23.9594 Y9.3454 
G01 X23.9594 Y8.4346 
G01 X23.3154 Y7.7906 
G01 X22.4046 Y7.7906 
G01 X21.7606 Y8.4346 
G00 Z2.5400 
G00 X21.7606 Y10.9746 
G01 Z-0.1200 F100.00 
G01 X21.7606 Y11.8854 F230.00 
G01 X22.2256 Y12.3504 
G01 X22.2256 Y14.9390 
G01 X22.2506 Y15.0644 
G01 X22.2995 Y15.1826 
G01 X22.3706 Y15.2890 
G01 X22.4610 Y15.3794 
G01 X22.5674 Y15.4505 
G01 X22.6856 Y15.4994 
G01 X22.8110 Y15.5244 
G01 X22.9390 Y15.5244 
G01 X26.8184 Y15.5244 
G01 X26.9069 Y15.6981 
G01 X27.0522 Y15.8980 
G01 X27.2270 Y16.0728 
G01 X27.4269 Y16.2181 
G01 X27.6472 Y16.3303 
G01 X27.8823 Y16.4067 
G01 X28.1264 Y16.4454 
G01 X28.3736 Y16.4454 
G01 X28.6177 Y16.4067 
G01 X28.8528 Y16.3303 
G01 X29.0731 Y16.2181 
G01 X29.2730 Y16.0728 
G01 X29.4478 Y15.8980 
G01 X29.5931 Y15.6981 
G01 X29.7053 Y15.4778 
G01 X29.7817 Y15.2427 
G01 X29.8204 Y14.9986 
G01 X29.8204 Y14.7514 
G01 X29.7817 Y14.5073 
G01 X29.7053 Y14.2722 
G01 X29.5931 Y14.0519 
G01 X29.4478 Y13.8520 
G01 X29.2730 Y13.6772 
G01 X29.0731 Y13.5319 
G01 X28.8528 Y13.4197 
G01 X28.6177 Y13.3433 
G01 X28.3736 Y13.3046 
G01 X28.1264 Y13.3046 
G01 X27.8823 Y13.3433 
G01 X27.6472 Y13.4197 
G01 X27.4269 Y13.5319 
G01 X27.2270 Y13.6772 
G01 X27.0522 Y13.8520 
G01 X26.9069 Y14.0519 
G01 X26.8184 Y14.2256 
G01 X23.5244 Y14.2256 
G01 X23.5244 Y12.3204 
G01 X23.9594 Y11.8854 
G01 X23.9594 Y10.9746 
G01 X23.3154 Y10.3306 
G01 X22.4046 Y10.3306 
G01 X21.7606 Y10.9746 
G00 Z2.5400 
G00 X21.4194 Y10.9746 
G01 Z-0.1200 F100.00 
G01 X20.7754 Y10.3306 F230.00 
G01 X19.8646 Y10.3306 
G01 X19.2206 Y10.9746 
G01 X19.2206 Y11.8854 
G01 X19.7256 Y12.3904 
G01 X19.7256 Y17.4390 
G01 X19.7506 Y17.5644 
G01 X19.7995 Y17.6826 
G01 X19.8706 Y17.7890 
G01 X19.9610 Y17.8794 
G01 X20.0674 Y17.9505 
G01 X20.1856 Y17.9994 
G01 X20.3110 Y18.0244 
G01 X30.0640 Y18.0244 
G01 X30.1894 Y17.9994 
G01 X30.3076 Y17.9505 
G01 X30.4140 Y17.8794 
G01 X30.5044 Y17.7890 
G01 X34.0719 Y14.2215 
G01 X34.2573 Y14.2817 
G01 X34.5014 Y14.3204 
G01 X34.7486 Y14.3204 
G01 X34.9927 Y14.2817 
G01 X35.2278 Y14.2053 
G01 X35.4481 Y14.0931 
G01 X35.6480 Y13.9478 
G01 X35.8228 Y13.7730 
G01 X35.9681 Y13.5731 
G01 X36.0803 Y13.3528 
G01 X36.1567 Y13.1177 
G01 X36.1954 Y12.8736 
G01 X36.1954 Y12.6264 
G01 X36.1567 Y12.3823 
G01 X36.0803 Y12.1472 
G01 X35.9681 Y11.9269 
G01 X35.8228 Y11.7270 
G01 X35.6480 Y11.5522 
G01 X35.4481 Y11.4069 
G01 X35.2278 Y11.2947 
G01 X34.9927 Y11.2183 
G01 X34.7486 Y11.1796 
G01 X34.5014 Y11.1796 
G01 X34.2573 Y11.2183 
G01 X34.0222 Y11.2947 
G01 X33.8019 Y11.4069 
G01 X33.6020 Y11.5522 
G01 X33.4272 Y11.7270 
G01 X33.2819 Y11.9269 
G01 X33.1697 Y12.1472 
G01 X33.0933 Y12.3823 
G01 X33.0546 Y12.6264 
G01 X33.0546 Y12.8736 
G01 X33.0933 Y13.1177 
G01 X33.1535 Y13.3031 
G01 X29.7310 Y16.7256 
G01 X21.0244 Y16.7256 
G01 X21.0244 Y12.2804 
G01 X21.4194 Y11.8854 
G01 X21.4194 Y10.9746 
G00 Z2.5400 
G00 X24.3006 Y10.9746 
G01 Z-0.1200 F100.00 
G01 X24.3006 Y11.8854 F230.00 
G01 X24.9446 Y12.5294 
G01 X25.8554 Y12.5294 
G01 X26.4994 Y11.8854 
G01 X26.4994 Y10.9746 
G01 X25.8554 Y10.3306 
G01 X24.9446 Y10.3306 
G01 X24.3006 Y10.9746 
G00 Z2.5400 
G00 X2.0584 Y4.2348 
G01 Z-0.1200 F100.00 
G01 X1.9384 Y4.4000 F230.00 
G01 X1.8457 Y4.5820 
G01 X1.7825 Y4.7762 
G01 X1.7506 Y4.9779 
G01 X1.7506 Y5.1821 
G01 X1.7825 Y5.3838 
G01 X1.8457 Y5.5780 
G01 X1.9384 Y5.7600 
G01 X2.0584 Y5.9252 
G01 X2.2028 Y6.0696 
G01 X2.3680 Y6.1896 
G01 X2.5500 Y6.2823 
G01 X2.7442 Y6.3454 
G01 X2.7729 Y6.3500 
G01 X2.7442 Y6.3545 
G01 X2.5500 Y6.4177 
G01 X2.3680 Y6.5104 
G01 X2.2768 Y6.5766 
G01 X1.1879 Y6.5766 
G01 X1.0257 Y6.6023 
G01 X0.8695 Y6.6530 
G01 X0.7231 Y6.7276 
G01 X0.5903 Y6.8241 
G01 X0.4741 Y6.9403 
G01 X0.3776 Y7.0731 
G01 X0.3030 Y7.2195 
G01 X0.2523 Y7.3757 
G01 X0.2266 Y7.5379 
G01 X0.2266 Y34.3721 
G01 X0.2523 Y34.5343 
G01 X0.3030 Y34.6905 
G01 X0.3776 Y34.8369 
G01 X0.4741 Y34.9697 
G01 X0.5903 Y35.0859 
G01 X0.7231 Y35.1824 
G01 X0.8695 Y35.2570 
G01 X1.0257 Y35.3077 
G01 X1.1879 Y35.3334 
G01 X2.2768 Y35.3334 
G01 X2.3680 Y35.3996 
G01 X2.5500 Y35.4923 
G01 X2.7442 Y35.5555 
G01 X2.7666 Y35.5590 
G01 X2.7666 Y40.7221 
G01 X2.7923 Y40.8843 
G01 X2.8430 Y41.0405 
G01 X2.9176 Y41.1869 
G01 X3.0141 Y41.3197 
G01 X3.1303 Y41.4359 
G01 X3.2631 Y41.5324 
G01 X3.4095 Y41.6070 
G01 X3.5657 Y41.6577 
G01 X3.7279 Y41.6834 
G01 X6.3510 Y41.6834 
G01 X6.3545 Y41.7058 
G01 X6.4177 Y41.9000 
G01 X6.5104 Y42.0820 
G01 X6.6304 Y42.2472 
G01 X6.7748 Y42.3916 
G01 X6.9400 Y42.5116 
G01 X7.1220 Y42.6043 
G01 X7.3162 Y42.6675 
G01 X7.5179 Y42.6994 
G01 X7.7221 Y42.6994 
G01 X7.9238 Y42.6675 
G01 X8.1180 Y42.6043 
G01 X8.3000 Y42.5116 
G01 X8.4652 Y42.3916 
G01 X8.6096 Y42.2472 
G01 X8.7296 Y42.0820 
G01 X8.8223 Y41.9000 
G01 X8.8855 Y41.7058 
G01 X8.8900 Y41.6771 
G01 X8.8945 Y41.7058 
G01 X8.9577 Y41.9000 
G01 X9.0504 Y42.0820 
G01 X9.1704 Y42.2472 
G01 X9.3148 Y42.3916 
G01 X9.4800 Y42.5116 
G01 X9.6620 Y42.6043 
G01 X9.8562 Y42.6675 
G01 X10.0579 Y42.6994 
G01 X10.2621 Y42.6994 
G01 X10.4638 Y42.6675 
G01 X10.6580 Y42.6043 
G01 X10.8400 Y42.5116 
G01 X11.0052 Y42.3916 
G01 X11.1496 Y42.2472 
G01 X11.2696 Y42.0820 
G01 X11.3623 Y41.9000 
G01 X11.4254 Y41.7058 
G01 X11.4574 Y41.5041 
G01 X11.4574 Y40.8182 
G01 X12.4862 Y39.7894 
G01 X12.5777 Y39.7894 
G01 X12.7303 Y39.7591 
G01 X12.8739 Y39.6996 
G01 X13.0032 Y39.6132 
G01 X13.1132 Y39.5032 
G01 X13.1996 Y39.3739 
G01 X13.2169 Y39.3321 
G01 X13.2914 Y39.2636 
G01 X13.3832 Y39.1381 
G01 X13.4487 Y38.9971 
G01 X13.4854 Y38.8460 
G01 X13.4920 Y38.6906 
G01 X13.4907 Y38.6827 
G01 X13.4970 Y38.6705 
G01 X13.5477 Y38.5143 
G01 X13.5734 Y38.3521 
G01 X13.5734 Y34.8838 
G01 X13.6584 Y34.7987 
G01 X13.7289 Y34.6767 
G01 X13.7654 Y34.5405 
G01 X13.7654 Y34.4889 
G01 X13.8426 Y34.4767 
G01 X13.9988 Y34.4260 
G01 X14.1451 Y34.3514 
G01 X14.2780 Y34.2549 
G01 X14.3941 Y34.1387 
G01 X14.7987 Y33.7341 
G01 X14.9149 Y33.6180 
G01 X15.0114 Y33.4851 
G01 X15.0860 Y33.3388 
G01 X15.1367 Y33.1826 
G01 X15.1624 Y33.0204 
G01 X15.1624 Y31.1196 
G01 X15.1367 Y30.9574 
G01 X15.0860 Y30.8012 
G01 X15.0114 Y30.6549 
G01 X14.9149 Y30.5220 
G01 X13.5734 Y29.1806 
G01 X13.5734 Y25.9938 
G01 X13.6584 Y25.9087 
G01 X13.7289 Y25.7867 
G01 X13.7654 Y25.6505 
G01 X13.7654 Y25.5989 
G01 X13.8426 Y25.5867 
G01 X13.9988 Y25.5360 
G01 X14.1451 Y25.4614 
G01 X14.2780 Y25.3649 
G01 X14.3941 Y25.2487 
G01 X14.7987 Y24.8441 
G01 X14.9149 Y24.7280 
G01 X15.0114 Y24.5951 
G01 X15.0860 Y24.4488 
G01 X15.1367 Y24.2926 
G01 X15.1624 Y24.1304 
G01 X15.1624 Y22.2296 
G01 X15.1367 Y22.0674 
G01 X15.0860 Y21.9112 
G01 X15.0114 Y21.7649 
G01 X14.9149 Y21.6320 
G01 X13.5734 Y20.2906 
G01 X13.5734 Y17.1038 
G01 X13.6584 Y17.0187 
G01 X13.7289 Y16.8967 
G01 X13.7654 Y16.7605 
G01 X13.7654 Y16.7089 
G01 X13.8426 Y16.6967 
G01 X13.9988 Y16.6460 
G01 X14.1451 Y16.5714 
G01 X14.2780 Y16.4749 
G01 X14.3941 Y16.3587 
G01 X14.7987 Y15.9541 
G01 X14.9149 Y15.8380 
G01 X15.0114 Y15.7051 
G01 X15.0860 Y15.5588 
G01 X15.1367 Y15.4026 
G01 X15.1624 Y15.2404 
G01 X15.1624 Y15.2040 
G01 X15.2382 Y15.1282 
G01 X17.6970 Y12.6694 
G01 X18.2934 Y12.6694 
G01 X19.0194 Y11.9434 
G01 X19.0194 Y10.9166 
G01 X18.2934 Y10.1906 
G01 X17.2666 Y10.1906 
G01 X16.5406 Y10.9166 
G01 X16.5406 Y11.5930 
G01 X15.1229 Y13.0107 
G01 X15.1163 Y13.0006 
G01 X15.0319 Y12.9152 
G01 X15.0114 Y12.8749 
G01 X14.9149 Y12.7420 
G01 X13.5734 Y11.4006 
G01 X13.5734 Y8.2138 
G01 X13.6584 Y8.1287 
G01 X13.7289 Y8.0067 
G01 X13.7654 Y7.8705 
G01 X13.7654 Y7.7894 
G01 X17.1278 Y7.7894 
G01 X16.5406 Y8.3766 
G01 X16.5406 Y9.4034 
G01 X17.2666 Y10.1294 
G01 X18.2934 Y10.1294 
G01 X19.0194 Y9.4034 
G01 X19.0194 Y8.3766 
G01 X18.3882 Y7.7454 
G01 X18.4989 Y7.6996 
G01 X18.6282 Y7.6132 
G01 X18.7382 Y7.5032 
G01 X20.8960 Y5.3454 
G01 X22.1805 Y5.3454 
G01 X22.3167 Y5.3089 
G01 X22.4387 Y5.2384 
G01 X22.5384 Y5.1387 
G01 X22.6089 Y5.0167 
G01 X22.6454 Y4.8805 
G01 X22.6454 Y2.7395 
G01 X22.6089 Y2.6033 
G01 X22.5384 Y2.4813 
G01 X22.4387 Y2.3816 
G01 X22.3167 Y2.3111 
G01 X22.1805 Y2.2746 
G01 X20.5395 Y2.2746 
G01 X20.4033 Y2.3111 
G01 X20.2813 Y2.3816 
G01 X20.1816 Y2.4813 
G01 X20.1111 Y2.6033 
G01 X20.0746 Y2.7395 
G01 X20.0746 Y3.9340 
G01 X17.7980 Y6.2106 
G01 X13.6689 Y6.2106 
G01 X13.7289 Y6.1067 
G01 X13.7654 Y5.9705 
G01 X13.7654 Y5.1944 
G01 X13.7806 Y5.1408 
G01 X13.7931 Y4.9858 
G01 X13.7751 Y4.8314 
G01 X13.7273 Y4.6834 
G01 X13.6515 Y4.5476 
G01 X13.5508 Y4.4292 
G01 X13.4288 Y4.3327 
G01 X13.2904 Y4.2618 
G01 X13.1408 Y4.2194 
G01 X12.9858 Y4.2069 
G01 X12.9522 Y4.2108 
G01 X12.1325 Y3.3911 
G01 X12.1811 Y3.2094 
G01 X12.2104 Y2.9871 
G01 X12.2104 Y2.7629 
G01 X12.1811 Y2.5406 
G01 X12.1231 Y2.3240 
G01 X12.0373 Y2.1169 
G01 X11.9252 Y1.9227 
G01 X11.7887 Y1.7448 
G01 X11.6302 Y1.5863 
G01 X11.4523 Y1.4498 
G01 X11.2581 Y1.3377 
G01 X11.0510 Y1.2519 
G01 X10.8344 Y1.1939 
G01 X10.6121 Y1.1646 
G01 X10.3879 Y1.1646 
G01 X10.1656 Y1.1939 
G01 X9.9490 Y1.2519 
G01 X9.7419 Y1.3377 
G01 X9.5477 Y1.4498 
G01 X9.3698 Y1.5863 
G01 X9.2113 Y1.7448 
G01 X9.0748 Y1.9227 
G01 X8.9627 Y2.1169 
G01 X8.8769 Y2.3240 
G01 X8.8189 Y2.5406 
G01 X8.7896 Y2.7629 
G01 X8.7896 Y2.9871 
G01 X8.8189 Y3.2094 
G01 X8.8769 Y3.4260 
G01 X8.9627 Y3.6331 
G01 X9.0748 Y3.8273 
G01 X9.2113 Y4.0052 
G01 X9.3489 Y4.1428 
G01 X9.2905 Y4.1130 
G01 X9.1343 Y4.0623 
G01 X8.9721 Y4.0366 
G01 X5.3431 Y4.0366 
G01 X5.2520 Y3.9704 
G01 X5.0700 Y3.8777 
G01 X4.8758 Y3.8145 
G01 X4.6741 Y3.7826 
G01 X2.9459 Y3.7826 
G01 X2.7442 Y3.8145 
G01 X2.5500 Y3.8777 
G01 X2.3680 Y3.9704 
G01 X2.2028 Y4.0904 
G01 X2.0584 Y4.2348 
G00 Z2.5400 
G00 X2.3134 Y8.6899 
G01 Z-0.1200 F100.00 
G01 X2.3680 Y8.7296 F230.00 
G01 X2.5500 Y8.8223 
G01 X2.7442 Y8.8855 
G01 X2.9459 Y8.9174 
G01 X4.6741 Y8.9174 
G01 X4.8758 Y8.8855 
G01 X5.0700 Y8.8223 
G01 X5.2520 Y8.7296 
G01 X5.4172 Y8.6096 
G01 X5.5616 Y8.4652 
G01 X5.6816 Y8.3000 
G01 X5.7743 Y8.1180 
G01 X5.8374 Y7.9238 
G01 X5.8694 Y7.7221 
G01 X5.8694 Y7.5179 
G01 X5.8374 Y7.3162 
G01 X5.7743 Y7.1220 
G01 X5.6816 Y6.9400 
G01 X5.5616 Y6.7748 
G01 X5.4172 Y6.6304 
G01 X5.2520 Y6.5104 
G01 X5.0700 Y6.4177 
G01 X4.8758 Y6.3545 
G01 X4.8471 Y6.3500 
G01 X4.8758 Y6.3454 
G01 X5.0700 Y6.2823 
G01 X5.2520 Y6.1896 
G01 X5.3431 Y6.1234 
G01 X8.4578 Y6.1234 
G01 X9.0946 Y6.7602 
G01 X9.0946 Y6.9205 
G01 X9.1311 Y7.0567 
G01 X9.2016 Y7.1787 
G01 X9.3013 Y7.2784 
G01 X9.4233 Y7.3489 
G01 X9.5595 Y7.3854 
G01 X10.0274 Y7.3854 
G01 X10.0779 Y7.3934 
G01 X10.4121 Y7.3934 
G01 X10.4626 Y7.3854 
G01 X11.1005 Y7.3854 
G01 X11.2367 Y7.3489 
G01 X11.2946 Y7.3155 
G01 X11.2946 Y7.8705 
G01 X11.3311 Y8.0067 
G01 X11.4016 Y8.1287 
G01 X11.4866 Y8.2138 
G01 X11.4866 Y11.8702 
G01 X11.3825 Y11.7661 
G01 X11.4311 Y11.5844 
G01 X11.4604 Y11.3621 
G01 X11.4604 Y11.1379 
G01 X11.4311 Y10.9156 
G01 X11.3731 Y10.6990 
G01 X11.2873 Y10.4919 
G01 X11.1752 Y10.2977 
G01 X11.0387 Y10.1198 
G01 X10.8802 Y9.9613 
G01 X10.7023 Y9.8248 
G01 X10.5081 Y9.7127 
G01 X10.3010 Y9.6269 
G01 X10.0844 Y9.5689 
G01 X9.8621 Y9.5396 
G01 X9.6379 Y9.5396 
G01 X9.4156 Y9.5689 
G01 X9.1990 Y9.6269 
G01 X8.9919 Y9.7127 
G01 X8.7977 Y9.8248 
G01 X8.6198 Y9.9613 
G01 X8.4613 Y10.1198 
G01 X8.3248 Y10.2977 
G01 X8.2127 Y10.4919 
G01 X8.1269 Y10.6990 
G01 X8.0689 Y10.9156 
G01 X8.0396 Y11.1379 
G01 X8.0396 Y11.3621 
G01 X8.0689 Y11.5844 
G01 X8.1269 Y11.8010 
G01 X8.2127 Y12.0081 
G01 X8.3248 Y12.2023 
G01 X8.4613 Y12.3802 
G01 X8.6198 Y12.5387 
G01 X8.7977 Y12.6752 
G01 X8.9919 Y12.7873 
G01 X9.1990 Y12.8731 
G01 X9.4156 Y12.9311 
G01 X9.6379 Y12.9604 
G01 X9.8621 Y12.9604 
G01 X10.0844 Y12.9311 
G01 X10.2661 Y12.8825 
G01 X11.2946 Y13.9110 
G01 X11.2946 Y14.2745 
G01 X11.2367 Y14.2411 
G01 X11.1005 Y14.2046 
G01 X10.7702 Y14.2046 
G01 X9.7397 Y13.1741 
G01 X9.6069 Y13.0776 
G01 X9.4605 Y13.0030 
G01 X9.3043 Y12.9523 
G01 X9.1421 Y12.9266 
G01 X5.3431 Y12.9266 
G01 X5.2520 Y12.8604 
G01 X5.0700 Y12.7677 
G01 X4.8758 Y12.7045 
G01 X4.6741 Y12.6726 
G01 X2.9459 Y12.6726 
G01 X2.7442 Y12.7045 
G01 X2.5500 Y12.7677 
G01 X2.3680 Y12.8604 
G01 X2.3134 Y12.9000 
G01 X2.3134 Y8.6899 
G00 Z2.5400 
G00 X2.3134 Y15.0399 
G01 Z-0.1200 F100.00 
G01 X2.3680 Y15.0796 F230.00 
G01 X2.5500 Y15.1723 
G01 X2.7442 Y15.2355 
G01 X2.7729 Y15.2400 
G01 X2.7442 Y15.2445 
G01 X2.5500 Y15.3077 
G01 X2.3680 Y15.4004 
G01 X2.3134 Y15.4400 
G01 X2.3134 Y15.0399 
G00 Z2.5400 
G00 X2.3134 Y17.5800 
G01 Z-0.1200 F100.00 
G01 X2.3680 Y17.6196 F230.00 
G01 X2.5500 Y17.7123 
G01 X2.7442 Y17.7754 
G01 X2.9459 Y17.8074 
G01 X4.6741 Y17.8074 
G01 X4.8758 Y17.7754 
G01 X5.0700 Y17.7123 
G01 X5.2520 Y17.6196 
G01 X5.4172 Y17.4996 
G01 X5.5616 Y17.3552 
G01 X5.6816 Y17.1900 
G01 X5.7743 Y17.0080 
G01 X5.8374 Y16.8138 
G01 X5.8694 Y16.6121 
G01 X5.8694 Y16.4079 
G01 X5.8374 Y16.2062 
G01 X5.7743 Y16.0120 
G01 X5.6816 Y15.8300 
G01 X5.5616 Y15.6648 
G01 X5.4172 Y15.5204 
G01 X5.2520 Y15.4004 
G01 X5.0700 Y15.3077 
G01 X4.8758 Y15.2445 
G01 X4.8471 Y15.2400 
G01 X4.8758 Y15.2355 
G01 X5.0700 Y15.1723 
G01 X5.2520 Y15.0796 
G01 X5.3431 Y15.0134 
G01 X8.6278 Y15.0134 
G01 X9.0946 Y15.4802 
G01 X9.0946 Y15.8105 
G01 X9.1311 Y15.9467 
G01 X9.2016 Y16.0687 
G01 X9.3013 Y16.1684 
G01 X9.4233 Y16.2389 
G01 X9.5595 Y16.2754 
G01 X10.1974 Y16.2754 
G01 X10.2479 Y16.2834 
G01 X10.4121 Y16.2834 
G01 X10.4626 Y16.2754 
G01 X11.1005 Y16.2754 
G01 X11.2367 Y16.2389 
G01 X11.2946 Y16.2055 
G01 X11.2946 Y16.7605 
G01 X11.3311 Y16.8967 
G01 X11.4016 Y17.0187 
G01 X11.4866 Y17.1038 
G01 X11.4866 Y19.1202 
G01 X10.8825 Y18.5161 
G01 X10.9311 Y18.3344 
G01 X10.9604 Y18.1121 
G01 X10.9604 Y17.8879 
G01 X10.9311 Y17.6656 
G01 X10.8731 Y17.4490 
G01 X10.7873 Y17.2419 
G01 X10.6752 Y17.0477 
G01 X10.5387 Y16.8698 
G01 X10.3802 Y16.7113 
G01 X10.2023 Y16.5748 
G01 X10.0081 Y16.4627 
G01 X9.8010 Y16.3769 
G01 X9.5844 Y16.3189 
G01 X9.3621 Y16.2896 
G01 X9.1379 Y16.2896 
G01 X8.9156 Y16.3189 
G01 X8.6990 Y16.3769 
G01 X8.4919 Y16.4627 
G01 X8.2977 Y16.5748 
G01 X8.1198 Y16.7113 
G01 X7.9613 Y16.8698 
G01 X7.8248 Y17.0477 
G01 X7.7127 Y17.2419 
G01 X7.6269 Y17.4490 
G01 X7.5689 Y17.6656 
G01 X7.5396 Y17.8879 
G01 X7.5396 Y18.1121 
G01 X7.5689 Y18.3344 
G01 X7.6269 Y18.5510 
G01 X7.7127 Y18.7581 
G01 X7.8248 Y18.9523 
G01 X7.9613 Y19.1302 
G01 X8.1198 Y19.2887 
G01 X8.2977 Y19.4252 
G01 X8.4919 Y19.5373 
G01 X8.6990 Y19.6231 
G01 X8.9156 Y19.6811 
G01 X9.1379 Y19.7104 
G01 X9.3621 Y19.7104 
G01 X9.5844 Y19.6811 
G01 X9.7661 Y19.6324 
G01 X10.4606 Y20.3270 
G01 X10.4606 Y21.5778 
G01 X10.4909 Y21.7303 
G01 X10.5504 Y21.8739 
G01 X10.6368 Y22.0032 
G01 X11.2946 Y22.6610 
G01 X11.2946 Y23.1645 
G01 X11.2367 Y23.1311 
G01 X11.1005 Y23.0946 
G01 X10.7702 Y23.0946 
G01 X9.7397 Y22.0641 
G01 X9.6069 Y21.9676 
G01 X9.4605 Y21.8930 
G01 X9.3043 Y21.8423 
G01 X9.1421 Y21.8166 
G01 X5.3431 Y21.8166 
G01 X5.2520 Y21.7504 
G01 X5.0700 Y21.6577 
G01 X4.8758 Y21.5945 
G01 X4.6741 Y21.5626 
G01 X2.9459 Y21.5626 
G01 X2.7442 Y21.5945 
G01 X2.5500 Y21.6577 
G01 X2.3680 Y21.7504 
G01 X2.3134 Y21.7900 
G01 X2.3134 Y17.5800 
G00 Z2.5400 
G00 X2.3134 Y23.9300 
G01 Z-0.1200 F100.00 
G01 X2.3680 Y23.9696 F230.00 
G01 X2.5500 Y24.0623 
G01 X2.7442 Y24.1255 
G01 X2.7729 Y24.1300 
G01 X2.7442 Y24.1345 
G01 X2.5500 Y24.1977 
G01 X2.3680 Y24.2904 
G01 X2.3134 Y24.3300 
G01 X2.3134 Y23.9300 
G00 Z2.5400 
G00 X2.3134 Y26.4700 
G01 Z-0.1200 F100.00 
G01 X2.3680 Y26.5096 F230.00 
G01 X2.5500 Y26.6023 
G01 X2.7442 Y26.6654 
G01 X2.9459 Y26.6974 
G01 X4.6741 Y26.6974 
G01 X4.8758 Y26.6654 
G01 X5.0700 Y26.6023 
G01 X5.2520 Y26.5096 
G01 X5.4172 Y26.3896 
G01 X5.5616 Y26.2452 
G01 X5.6816 Y26.0800 
G01 X5.7743 Y25.8980 
G01 X5.8374 Y25.7038 
G01 X5.8694 Y25.5021 
G01 X5.8694 Y25.2979 
G01 X5.8374 Y25.0962 
G01 X5.7743 Y24.9020 
G01 X5.6816 Y24.7200 
G01 X5.5616 Y24.5548 
G01 X5.4172 Y24.4104 
G01 X5.2520 Y24.2904 
G01 X5.0700 Y24.1977 
G01 X4.8758 Y24.1345 
G01 X4.8471 Y24.1300 
G01 X4.8758 Y24.1255 
G01 X5.0700 Y24.0623 
G01 X5.2520 Y23.9696 
G01 X5.3431 Y23.9034 
G01 X8.6278 Y23.9034 
G01 X9.0946 Y24.3702 
G01 X9.0946 Y24.7005 
G01 X9.1311 Y24.8367 
G01 X9.2016 Y24.9587 
G01 X9.3013 Y25.0584 
G01 X9.4233 Y25.1289 
G01 X9.5595 Y25.1654 
G01 X10.1974 Y25.1654 
G01 X10.2479 Y25.1734 
G01 X10.4121 Y25.1734 
G01 X10.4626 Y25.1654 
G01 X11.1005 Y25.1654 
G01 X11.2367 Y25.1289 
G01 X11.2946 Y25.0955 
G01 X11.2946 Y25.6505 
G01 X11.3311 Y25.7867 
G01 X11.4016 Y25.9087 
G01 X11.4866 Y25.9938 
G01 X11.4866 Y29.6202 
G01 X11.3825 Y29.5161 
G01 X11.4311 Y29.3344 
G01 X11.4604 Y29.1121 
G01 X11.4604 Y28.8879 
G01 X11.4311 Y28.6656 
G01 X11.3731 Y28.4490 
G01 X11.2873 Y28.2419 
G01 X11.1752 Y28.0477 
G01 X11.0387 Y27.8698 
G01 X10.8802 Y27.7113 
G01 X10.7023 Y27.5748 
G01 X10.5081 Y27.4627 
G01 X10.3010 Y27.3769 
G01 X10.0844 Y27.3189 
G01 X9.8621 Y27.2896 
G01 X9.6379 Y27.2896 
G01 X9.4156 Y27.3189 
G01 X9.1990 Y27.3769 
G01 X8.9919 Y27.4627 
G01 X8.7977 Y27.5748 
G01 X8.6198 Y27.7113 
G01 X8.4613 Y27.8698 
G01 X8.3248 Y28.0477 
G01 X8.2127 Y28.2419 
G01 X8.1269 Y28.4490 
G01 X8.0689 Y28.6656 
G01 X8.0396 Y28.8879 
G01 X8.0396 Y29.1121 
G01 X8.0689 Y29.3344 
G01 X8.1269 Y29.5510 
G01 X8.2127 Y29.7581 
G01 X8.3248 Y29.9523 
G01 X8.4613 Y30.1302 
G01 X8.6198 Y30.2887 
G01 X8.7977 Y30.4252 
G01 X8.9919 Y30.5373 
G01 X9.1990 Y30.6231 
G01 X9.4156 Y30.6811 
G01 X9.6379 Y30.7104 
G01 X9.8621 Y30.7104 
G01 X10.0844 Y30.6811 
G01 X10.2661 Y30.6324 
G01 X11.2946 Y31.6610 
G01 X11.2946 Y32.0545 
G01 X11.2367 Y32.0211 
G01 X11.1005 Y31.9846 
G01 X10.7702 Y31.9846 
G01 X9.7397 Y30.9541 
G01 X9.6069 Y30.8576 
G01 X9.4605 Y30.7830 
G01 X9.3043 Y30.7323 
G01 X9.1421 Y30.7066 
G01 X5.3431 Y30.7066 
G01 X5.2520 Y30.6404 
G01 X5.0700 Y30.5477 
G01 X4.8758 Y30.4845 
G01 X4.6741 Y30.4526 
G01 X2.9459 Y30.4526 
G01 X2.7442 Y30.4845 
G01 X2.5500 Y30.5477 
G01 X2.3680 Y30.6404 
G01 X2.3134 Y30.6800 
G01 X2.3134 Y26.4700 
G00 Z2.5400 
G00 X2.3134 Y32.8199 
G01 Z-0.1200 F100.00 
G01 X2.3680 Y32.8596 F230.00 
G01 X2.5500 Y32.9523 
G01 X2.7442 Y33.0155 
G01 X2.7729 Y33.0200 
G01 X2.7442 Y33.0245 
G01 X2.5500 Y33.0877 
G01 X2.3680 Y33.1804 
G01 X2.3134 Y33.2200 
G01 X2.3134 Y32.8199 
G00 Z2.5400 
G00 X4.8471 Y33.0200 
G01 Z-0.1200 F100.00 
G01 X4.8758 Y33.0155 F230.00 
G01 X5.0700 Y32.9523 
G01 X5.2520 Y32.8596 
G01 X5.3431 Y32.7934 
G01 X8.6278 Y32.7934 
G01 X9.0946 Y33.2602 
G01 X9.0946 Y33.5905 
G01 X9.1311 Y33.7267 
G01 X9.2016 Y33.8487 
G01 X9.3013 Y33.9484 
G01 X9.4233 Y34.0189 
G01 X9.5595 Y34.0554 
G01 X10.1974 Y34.0554 
G01 X10.2479 Y34.0634 
G01 X10.4121 Y34.0634 
G01 X10.4626 Y34.0554 
G01 X11.1005 Y34.0554 
G01 X11.2367 Y34.0189 
G01 X11.2946 Y33.9855 
G01 X11.2946 Y34.5405 
G01 X11.3311 Y34.6767 
G01 X11.4016 Y34.7987 
G01 X11.4866 Y34.8838 
G01 X11.4866 Y37.8378 
G01 X11.3541 Y37.9703 
G01 X10.6510 Y38.6734 
G01 X10.4638 Y38.6125 
G01 X10.2621 Y38.5806 
G01 X10.0579 Y38.5806 
G01 X9.8562 Y38.6125 
G01 X9.6620 Y38.6757 
G01 X9.4800 Y38.7684 
G01 X9.3148 Y38.8884 
G01 X9.1704 Y39.0328 
G01 X9.0504 Y39.1980 
G01 X8.9577 Y39.3800 
G01 X8.8945 Y39.5742 
G01 X8.8900 Y39.6029 
G01 X8.8855 Y39.5742 
G01 X8.8223 Y39.3800 
G01 X8.7296 Y39.1980 
G01 X8.6096 Y39.0328 
G01 X8.4652 Y38.8884 
G01 X8.3000 Y38.7684 
G01 X8.1180 Y38.6757 
G01 X7.9238 Y38.6125 
G01 X7.7221 Y38.5806 
G01 X7.5179 Y38.5806 
G01 X7.3162 Y38.6125 
G01 X7.1220 Y38.6757 
G01 X6.9400 Y38.7684 
G01 X6.7748 Y38.8884 
G01 X6.6304 Y39.0328 
G01 X6.5104 Y39.1980 
G01 X6.4177 Y39.3800 
G01 X6.3545 Y39.5742 
G01 X6.3510 Y39.5966 
G01 X4.8534 Y39.5966 
G01 X4.8534 Y35.5590 
G01 X4.8758 Y35.5555 
G01 X5.0700 Y35.4923 
G01 X5.2520 Y35.3996 
G01 X5.4172 Y35.2796 
G01 X5.5616 Y35.1352 
G01 X5.6816 Y34.9700 
G01 X5.7743 Y34.7880 
G01 X5.8374 Y34.5938 
G01 X5.8694 Y34.3921 
G01 X5.8694 Y34.1879 
G01 X5.8374 Y33.9862 
G01 X5.7743 Y33.7920 
G01 X5.6816 Y33.6100 
G01 X5.5616 Y33.4448 
G01 X5.4172 Y33.3004 
G01 X5.2520 Y33.1804 
G01 X5.0700 Y33.0877 
G01 X4.8758 Y33.0245 
G01 X4.8471 Y33.0200 
G00 Z2.5400 
G00 X26.1368 Y34.6218 
G01 Z-0.1200 F100.00 
G01 X26.0504 Y34.7511 F230.00 
G01 X25.9909 Y34.8947 
G01 X25.9606 Y35.0472 
G01 X25.9606 Y35.3558 
G01 X25.7977 Y35.4498 
G01 X25.6198 Y35.5863 
G01 X25.4613 Y35.7448 
G01 X25.3248 Y35.9227 
G01 X25.2127 Y36.1169 
G01 X25.1269 Y36.3240 
G01 X25.0689 Y36.5406 
G01 X25.0396 Y36.7629 
G01 X25.0396 Y36.9871 
G01 X25.0689 Y37.2094 
G01 X25.1269 Y37.4260 
G01 X25.2127 Y37.6331 
G01 X25.3248 Y37.8273 
G01 X25.4613 Y38.0052 
G01 X25.6198 Y38.1637 
G01 X25.7977 Y38.3002 
G01 X25.9919 Y38.4123 
G01 X26.1990 Y38.4981 
G01 X26.4156 Y38.5561 
G01 X26.6379 Y38.5854 
G01 X26.8621 Y38.5854 
G01 X27.0844 Y38.5561 
G01 X27.3010 Y38.4981 
G01 X27.5081 Y38.4123 
G01 X27.7023 Y38.3002 
G01 X27.8802 Y38.1637 
G01 X28.0387 Y38.0052 
G01 X28.1752 Y37.8273 
G01 X28.2873 Y37.6331 
G01 X28.3731 Y37.4260 
G01 X28.4311 Y37.2094 
G01 X28.4604 Y36.9871 
G01 X28.4604 Y36.7629 
G01 X28.4311 Y36.5406 
G01 X28.3731 Y36.3240 
G01 X28.2873 Y36.1169 
G01 X28.1752 Y35.9227 
G01 X28.0387 Y35.7448 
G01 X27.8802 Y35.5863 
G01 X27.7023 Y35.4498 
G01 X27.6004 Y35.3910 
G01 X28.8589 Y34.1324 
G01 X29.0406 Y34.1811 
G01 X29.2629 Y34.2104 
G01 X29.4871 Y34.2104 
G01 X29.7094 Y34.1811 
G01 X29.9260 Y34.1231 
G01 X30.1331 Y34.0373 
G01 X30.3273 Y33.9252 
G01 X30.5052 Y33.7887 
G01 X30.6637 Y33.6302 
G01 X30.8002 Y33.4523 
G01 X30.9123 Y33.2581 
G01 X30.9981 Y33.0510 
G01 X31.0561 Y32.8344 
G01 X31.0854 Y32.6121 
G01 X31.0854 Y32.3879 
G01 X31.0561 Y32.1656 
G01 X30.9981 Y31.9490 
G01 X30.9378 Y31.8035 
G01 X37.7382 Y25.0032 
G01 X37.8246 Y24.8739 
G01 X37.8841 Y24.7303 
G01 X37.9144 Y24.5778 
G01 X37.9144 Y8.9222 
G01 X37.8841 Y8.7697 
G01 X37.8246 Y8.6261 
G01 X37.7382 Y8.4968 
G01 X37.6282 Y8.3868 
G01 X37.4989 Y8.3004 
G01 X37.3553 Y8.2409 
G01 X37.2028 Y8.2106 
G01 X26.4734 Y8.2106 
G01 X26.1644 Y7.9016 
G01 X26.1644 Y4.7972 
G01 X26.1341 Y4.6447 
G01 X26.0746 Y4.5011 
G01 X25.9882 Y4.3718 
G01 X25.8782 Y4.2618 
G01 X25.6454 Y4.0290 
G01 X25.6454 Y2.7395 
G01 X25.6089 Y2.6033 
G01 X25.5384 Y2.4813 
G01 X25.4387 Y2.3816 
G01 X25.3167 Y2.3111 
G01 X25.1805 Y2.2746 
G01 X23.5395 Y2.2746 
G01 X23.4033 Y2.3111 
G01 X23.2813 Y2.3816 
G01 X23.1816 Y2.4813 
G01 X23.1111 Y2.6033 
G01 X23.0746 Y2.7395 
G01 X23.0746 Y4.8805 
G01 X23.1111 Y5.0167 
G01 X23.1132 Y5.0204 
G01 X20.4830 Y7.6506 
G01 X19.8066 Y7.6506 
G01 X19.0806 Y8.3766 
G01 X19.0806 Y9.4034 
G01 X19.8066 Y10.1294 
G01 X20.8334 Y10.1294 
G01 X21.5594 Y9.4034 
G01 X21.5594 Y8.8070 
G01 X21.6206 Y8.7458 
G01 X21.6206 Y9.4034 
G01 X22.3466 Y10.1294 
G01 X23.3734 Y10.1294 
G01 X24.0994 Y9.4034 
G01 X24.0994 Y8.3766 
G01 X23.3734 Y7.6506 
G01 X22.7158 Y7.6506 
G01 X24.5856 Y5.7808 
G01 X24.5856 Y7.9516 
G01 X24.1606 Y8.3766 
G01 X24.1606 Y9.4034 
G01 X24.8866 Y10.1294 
G01 X25.9134 Y10.1294 
G01 X26.2534 Y9.7894 
G01 X36.3356 Y9.7894 
G01 X36.3356 Y24.1730 
G01 X29.6920 Y30.8166 
G01 X29.4871 Y30.7896 
G01 X29.2629 Y30.7896 
G01 X29.0406 Y30.8189 
G01 X28.8240 Y30.8769 
G01 X28.6169 Y30.9627 
G01 X28.4227 Y31.0748 
G01 X28.2448 Y31.2113 
G01 X28.0863 Y31.3698 
G01 X27.9498 Y31.5477 
G01 X27.8377 Y31.7419 
G01 X27.7519 Y31.9490 
G01 X27.6939 Y32.1656 
G01 X27.6646 Y32.3879 
G01 X27.6646 Y32.6121 
G01 X27.6939 Y32.8344 
G01 X27.7425 Y33.0161 
G01 X26.2468 Y34.5118 
G01 X26.1368 Y34.6218 
G00 Z2.5400 
G00 X27.1198 Y16.1637 
G01 Z-0.1200 F100.00 
G01 X27.2977 Y16.3002 F230.00 
G01 X27.4919 Y16.4123 
G01 X27.6990 Y16.4981 
G01 X27.9156 Y16.5561 
G01 X28.1379 Y16.5854 
G01 X28.3621 Y16.5854 
G01 X28.5844 Y16.5561 
G01 X28.8010 Y16.4981 
G01 X29.0081 Y16.4123 
G01 X29.2023 Y16.3002 
G01 X29.3802 Y16.1637 
G01 X29.5387 Y16.0052 
G01 X29.6752 Y15.8273 
G01 X29.7873 Y15.6331 
G01 X29.8731 Y15.4260 
G01 X29.9311 Y15.2094 
G01 X29.9604 Y14.9871 
G01 X29.9604 Y14.7629 
G01 X29.9311 Y14.5406 
G01 X29.8731 Y14.3240 
G01 X29.7873 Y14.1169 
G01 X29.6752 Y13.9227 
G01 X29.5387 Y13.7448 
G01 X29.3802 Y13.5863 
G01 X29.2023 Y13.4498 
G01 X29.0081 Y13.3377 
G01 X28.8010 Y13.2519 
G01 X28.5844 Y13.1939 
G01 X28.3621 Y13.1646 
G01 X28.1379 Y13.1646 
G01 X27.9156 Y13.1939 
G01 X27.6990 Y13.2519 
G01 X27.4919 Y13.3377 
G01 X27.2977 Y13.4498 
G01 X27.1198 Y13.5863 
G01 X26.9613 Y13.7448 
G01 X26.8248 Y13.9227 
G01 X26.7308 Y14.0856 
G01 X23.6644 Y14.0856 
G01 X23.6644 Y12.3784 
G01 X24.0994 Y11.9434 
G01 X24.0994 Y10.9166 
G01 X23.3734 Y10.1906 
G01 X22.3466 Y10.1906 
G01 X21.6206 Y10.9166 
G01 X21.6206 Y11.9434 
G01 X22.0856 Y12.4084 
G01 X22.0856 Y14.9527 
G01 X22.1159 Y15.1053 
G01 X22.1754 Y15.2489 
G01 X22.2618 Y15.3782 
G01 X22.3718 Y15.4882 
G01 X22.5011 Y15.5746 
G01 X22.6447 Y15.6341 
G01 X22.7972 Y15.6644 
G01 X22.9528 Y15.6644 
G01 X26.7308 Y15.6644 
G01 X26.8248 Y15.8273 
G01 X26.9613 Y16.0052 
G01 X27.1198 Y16.1637 
G00 Z2.5400 
G00 X29.6730 Y16.5856 
G01 Z-0.1200 F100.00 
G01 X21.1644 Y16.5856 F230.00 
G01 X21.1644 Y12.3384 
G01 X21.5594 Y11.9434 
G01 X21.5594 Y10.9166 
G01 X20.8334 Y10.1906 
G01 X19.8066 Y10.1906 
G01 X19.0806 Y10.9166 
G01 X19.0806 Y11.9434 
G01 X19.5856 Y12.4484 
G01 X19.5856 Y17.4528 
G01 X19.6159 Y17.6053 
G01 X19.6754 Y17.7489 
G01 X19.7618 Y17.8782 
G01 X19.8718 Y17.9882 
G01 X20.0011 Y18.0746 
G01 X20.1447 Y18.1341 
G01 X20.2972 Y18.1644 
G01 X30.0778 Y18.1644 
