(.../Personal Projects/pcb-gcode/pcb-gcode.ulp)
(Copyright 2005 - 2012 by John Johnson)
(See readme.txt for licensing terms.)
(This file generated from the board:)
(.../esp01-4xMosFET/Mosfetboard.brd)
(Current profile is .../pcb-gcode/profiles/generic.pp  )
(This file generated 12/30/18 12:05 AM)
(Settings from pcb-machine.h)
(spindle on time = 0.5000)
(spindle speed = 20000.0000)
(tool change at 0.0000 0.0000 10.0000 )
(feed rate xy = F0.00  )
(feed rate z  = F150.00 )
(Z Axis Settings)
(  High     Up        Down     Drill)
(10.0000 	2.5400 	-0.1200 	-3.0000 )
(Settings from pcb-defaults.h)
(isolate min = 0.0254)
(isolate max = 0.4000)
(isolate step = 0.1400)
(Generated top outlines, top drill, bottom outlines, bottom drill, )
(Unit of measure: mm)
( Tool|       Size       |  Min Sub |  Max Sub |   Count )
( T01  0.350mm 0.0138in 0.0000in 0.0000in )
( T02  0.900mm 0.0354in 0.0000in 0.0000in )
( T03  1.016mm 0.0400in 0.0000in 0.0000in )
( T04  1.100mm 0.0433in 0.0000in 0.0000in )
(Metric Mode)
G21
(Absolute Coordinates)
G90
S20000
G00 Z10.0000 
G00 X0.0000 Y0.0000 
M03
G04 P0.500000
M05
M06 T01  ; 0.3500 
G01 Z0.0000 F150.00 
M06 
G00 Z2.5400 
M03
G04 P0.500000
G00 Z2.540000
G00 X9.0000 Y19.5000 
G01 Z-3.0000 F150.00 
G01 Z2.540000
(R2.5400  P1.000000)
G00 X17.9600 Y20.7700 
G01 Z-3.000000
G01 Z2.540000
G00 X9.2300 Y28.7300 
G01 Z-3.000000
G01 Z2.540000
G00 X10.5000 Y9.9600 
G01 Z-3.000000
G01 Z2.540000
M05
G00 Z10.0000 
G00 X0.0000 Y0.0000 
M06 T02  ; 0.9000 
G01 Z0.0000 F150.00 
M06 
G00 Z2.5400 
M03
G04 P0.500000
G00 Z2.540000
G00 X17.7800 Y8.8900 
G01 Z-3.0000 F150.00 
G01 Z2.540000
(R2.5400  P1.000000)
G00 X17.7800 Y11.4300 
G01 Z-3.000000
G01 Z2.540000
G00 X20.3200 Y11.4300 
G01 Z-3.000000
G01 Z2.540000
G00 X20.3200 Y8.8900 
G01 Z-3.000000
G01 Z2.540000
G00 X22.8600 Y8.8900 
G01 Z-3.000000
G01 Z2.540000
G00 X22.8600 Y11.4300 
G01 Z-3.000000
G01 Z2.540000
G00 X25.4000 Y11.4300 
G01 Z-3.000000
G01 Z2.540000
G00 X25.4000 Y8.8900 
G01 Z-3.000000
G01 Z2.540000
M05
G00 Z10.0000 
G00 X0.0000 Y0.0000 
M06 T03  ; 1.0160 
G01 Z0.0000 F150.00 
M06 
G00 Z2.5400 
M03
G04 P0.500000
G00 Z2.540000
G00 X3.8100 Y5.0800 
G01 Z-3.0000 F150.00 
G01 Z2.540000
(R2.5400  P1.000000)
G00 X3.8100 Y7.6200 
G01 Z-3.000000
G01 Z2.540000
G00 X3.8100 Y13.9700 
G01 Z-3.000000
G01 Z2.540000
G00 X3.8100 Y16.5100 
G01 Z-3.000000
G01 Z2.540000
G00 X3.8100 Y22.8600 
G01 Z-3.000000
G01 Z2.540000
G00 X3.8100 Y25.4000 
G01 Z-3.000000
G01 Z2.540000
G00 X3.8100 Y31.7500 
G01 Z-3.000000
G01 Z2.540000
G00 X3.8100 Y34.2900 
G01 Z-3.000000
G01 Z2.540000
G00 X7.6200 Y40.6400 
G01 Z-3.000000
G01 Z2.540000
G00 X10.1600 Y40.6400 
G01 Z-3.000000
G01 Z2.540000
M05
G00 Z10.0000 
G00 X0.0000 Y0.0000 
M06 T04  ; 1.1000 
G01 Z0.0000 F150.00 
M06 
G00 Z2.5400 
M03
G04 P0.500000
G00 Z2.540000
G00 X0.0000 Y0.0000 
G01 Z-3.0000 F150.00 
G01 Z2.540000
(R2.5400  P1.000000)
G00 X31.7500 Y0.0000 
G01 Z-3.000000
G01 Z2.540000
G00 X31.7500 Y44.4500 
G01 Z-3.000000
G01 Z2.540000
G00 X0.0000 Y44.4500 
G01 Z-3.000000
G01 Z2.540000
T01 
G00 Z10.0000 
M05
M02
