(.../Personal Projects/pcb-gcode/pcb-gcode.ulp)
(Copyright 2005 - 2012 by John Johnson)
(See readme.txt for licensing terms.)
(This file generated from the board:)
(.../esp01-4xMosFET/Mosfetboard.brd)
(Current profile is .../pcb-gcode/profiles/generic.pp  )
(This file generated 12/30/18 12:05 AM)
(Settings from pcb-machine.h)
(spindle on time = 0.5000)
(spindle speed = 15000.0000)
(milling depth = -1.7000)
(tool change at 0.0000 0.0000 10.0000 )
(feed rate xy = F250.00 )
(feed rate z  = F80.00 )
(Z Axis Settings)
(  High     Up        Down     Drill)
(10.0000 	2.5400 	-0.1200 	-3.0000 )
(Settings from pcb-defaults.h)
(isolate min = 0.0254)
(isolate max = 0.4000)
(isolate step = 0.1400)
(Generated top outlines, top drill, bottom outlines, bottom drill, )
(Unit of measure: mm)
(Metric Mode)
G21
(Absolute Coordinates)
G90
S15000
G00 Z10.0000 
G00 X0.0000 Y0.0000 
M03
G04 P0.500000
G00 Z2.5400 
G01 Z-0.4250 F80.00 
G01 X6.3500 Y0.0000 F250.00 
G00 Z2.5400 
G00 X7.6200 Y0.0000 
G01 Z-0.4250 F80.00 
G01 X31.7500 Y0.0000 F250.00 
G01 X31.7500 Y7.6200 
G00 Z2.5400 
G00 X31.7500 Y8.8900 
G01 Z-0.4250 F80.00 
G01 X31.7500 Y44.4500 F250.00 
G01 X17.7800 Y44.4500 
G00 Z2.5400 
G00 X15.2400 Y44.4500 
G01 Z-0.4250 F80.00 
G01 X0.0000 Y44.4500 F250.00 
G01 X0.0000 Y26.6700 
G00 Z2.5400 
G00 X0.0000 Y24.1300 
G01 Z-0.4250 F80.00 
G01 X0.0000 Y0.0000 F250.00 
G00 Z2.5400 
G01 Z-0.8500 F80.00 
G01 X6.3500 Y0.0000 F250.00 
G00 Z2.5400 
G00 X7.6200 Y0.0000 
G01 Z-0.8500 F80.00 
G01 X31.7500 Y0.0000 F250.00 
G01 X31.7500 Y7.6200 
G00 Z2.5400 
G00 X31.7500 Y8.8900 
G01 Z-0.8500 F80.00 
G01 X31.7500 Y44.4500 F250.00 
G01 X17.7800 Y44.4500 
G00 Z2.5400 
G00 X15.2400 Y44.4500 
G01 Z-0.8500 F80.00 
G01 X0.0000 Y44.4500 F250.00 
G01 X0.0000 Y26.6700 
G00 Z2.5400 
G00 X0.0000 Y24.1300 
G01 Z-0.8500 F80.00 
G01 X0.0000 Y0.0000 F250.00 
G00 Z2.5400 
G01 Z-1.2750 F80.00 
G01 X6.3500 Y0.0000 F250.00 
G00 Z2.5400 
G00 X7.6200 Y0.0000 
G01 Z-1.2750 F80.00 
G01 X31.7500 Y0.0000 F250.00 
G01 X31.7500 Y7.6200 
G00 Z2.5400 
G00 X31.7500 Y8.8900 
G01 Z-1.2750 F80.00 
G01 X31.7500 Y44.4500 F250.00 
G01 X17.7800 Y44.4500 
G00 Z2.5400 
G00 X15.2400 Y44.4500 
G01 Z-1.2750 F80.00 
G01 X0.0000 Y44.4500 F250.00 
G01 X0.0000 Y26.6700 
G00 Z2.5400 
G00 X0.0000 Y24.1300 
G01 Z-1.2750 F80.00 
G01 X0.0000 Y0.0000 F250.00 
G00 Z2.5400 
G01 Z-1.7000 F80.00 
G01 X6.3500 Y0.0000 F250.00 
G00 Z2.5400 
G00 X7.6200 Y0.0000 
G01 Z-1.7000 F80.00 
G01 X31.7500 Y0.0000 F250.00 
G01 X31.7500 Y7.6200 
G00 Z2.5400 
G00 X31.7500 Y8.8900 
G01 Z-1.7000 F80.00 
G01 X31.7500 Y44.4500 F250.00 
G01 X17.7800 Y44.4500 
G00 Z2.5400 
G00 X15.2400 Y44.4500 
G01 Z-1.7000 F80.00 
G01 X0.0000 Y44.4500 F250.00 
G01 X0.0000 Y26.6700 
G00 Z2.5400 
G00 X0.0000 Y24.1300 
G01 Z-1.7000 F80.00 
G01 X0.0000 Y0.0000 F250.00 
G00 Z10.0000 
M05
M02
