(.../Personal Projects/pcb-gcode/pcb-gcode.ulp)
(Copyright 2005 - 2012 by John Johnson)
(See readme.txt for licensing terms.)
(This file generated from the board:)
(.../esp01-4xMosFET/Mosfetboard.brd)
(Current profile is .../pcb-gcode/profiles/generic.pp  )
(This file generated 12/30/18 12:04 AM)
(Settings from pcb-machine.h)
(spindle on time = 0.5000)
(  Tool Size)
(0.1800 )
(spindle speed = 30000.0000)
(tool change at 0.0000 0.0000 10.0000 )
(feed rate xy = F230.00 )
(feed rate z  = F100.00 )
(Z Axis Settings)
(  High     Up        Down     Drill)
(10.0000 	2.5400 	-0.1200 	-3.0000 )
(Settings from pcb-defaults.h)
(isolate min = 0.0254)
(isolate max = 0.4000)
(isolate step = 0.1400)
(Generated top outlines, top drill, bottom outlines, bottom drill, )
(Unit of measure: mm)
(Metric Mode)
G21
(Absolute Coordinates)
G90
S30000
G00 Z10.0000 
G00 X0.0000 Y0.0000 
M03
G04 P0.500000
G00 Z2.5400 
G00 X2.3665 Y4.5207 
G01 Z-0.1200 F100.00 
G01 X2.2705 Y4.6644 F230.00 
G01 X2.2043 Y4.8241 
G01 X2.1706 Y4.9936 
G01 X2.1706 Y5.1664 
G01 X2.2043 Y5.3359 
G01 X2.2705 Y5.4956 
G01 X2.3665 Y5.6393 
G01 X2.4887 Y5.7615 
G01 X2.6324 Y5.8575 
G01 X2.7921 Y5.9237 
G01 X2.9616 Y5.9574 
G01 X4.6584 Y5.9574 
G01 X4.8279 Y5.9237 
G01 X4.9876 Y5.8575 
G01 X5.1313 Y5.7615 
G01 X5.1894 Y5.7034 
G01 X8.6318 Y5.7034 
G01 X9.5146 Y6.5862 
G01 X9.5146 Y6.8730 
G01 X9.5322 Y6.9154 
G01 X9.5646 Y6.9478 
G01 X9.6070 Y6.9654 
G01 X10.0584 Y6.9654 
G01 X10.0986 Y6.9734 
G01 X10.3914 Y6.9734 
G01 X10.4316 Y6.9654 
G01 X11.0530 Y6.9654 
G01 X11.0954 Y6.9478 
G01 X11.1278 Y6.9154 
G01 X11.1454 Y6.8730 
G01 X11.1454 Y5.8270 
G01 X11.1278 Y5.7846 
G01 X11.0954 Y5.7522 
G01 X11.0530 Y5.7346 
G01 X10.4316 Y5.7346 
G01 X10.4249 Y5.7333 
G01 X9.2874 Y4.5958 
G01 X9.1853 Y4.5275 
G01 X9.0718 Y4.4806 
G01 X8.9514 Y4.4566 
G01 X5.1894 Y4.4566 
G01 X5.1313 Y4.3985 
G01 X4.9876 Y4.3025 
G01 X4.8279 Y4.2363 
G01 X4.6584 Y4.2026 
G01 X2.9616 Y4.2026 
G01 X2.7921 Y4.2363 
G01 X2.6324 Y4.3025 
G01 X2.4887 Y4.3985 
G01 X2.3665 Y4.5207 
G00 Z2.5400 
G00 X2.4306 Y6.9966 
G01 Z-0.1200 F100.00 
G01 X1.2086 Y6.9966 F230.00 
G01 X1.0882 Y7.0206 
G01 X0.9747 Y7.0675 
G01 X0.8726 Y7.1358 
G01 X0.7858 Y7.2226 
G01 X0.7176 Y7.3247 
G01 X0.6706 Y7.4382 
G01 X0.6466 Y7.5586 
G01 X0.6466 Y34.3514 
G01 X0.6706 Y34.4718 
G01 X0.7176 Y34.5853 
G01 X0.7858 Y34.6874 
G01 X0.8726 Y34.7742 
G01 X0.9747 Y34.8424 
G01 X1.0882 Y34.8894 
G01 X1.2086 Y34.9134 
G01 X2.4306 Y34.9134 
G01 X2.4887 Y34.9715 
G01 X2.6324 Y35.0675 
G01 X2.7921 Y35.1337 
G01 X2.9616 Y35.1674 
G01 X3.1866 Y35.1674 
G01 X3.1866 Y40.7014 
G01 X3.2106 Y40.8218 
G01 X3.2576 Y40.9353 
G01 X3.3258 Y41.0374 
G01 X3.4126 Y41.1242 
G01 X3.5147 Y41.1924 
G01 X3.6282 Y41.2394 
G01 X3.7486 Y41.2634 
G01 X6.7426 Y41.2634 
G01 X6.7426 Y41.4884 
G01 X6.7763 Y41.6579 
G01 X6.8425 Y41.8176 
G01 X6.9385 Y41.9613 
G01 X7.0607 Y42.0835 
G01 X7.2044 Y42.1795 
G01 X7.3641 Y42.2457 
G01 X7.5336 Y42.2794 
G01 X7.7064 Y42.2794 
G01 X7.8759 Y42.2457 
G01 X8.0356 Y42.1795 
G01 X8.1793 Y42.0835 
G01 X8.3015 Y41.9613 
G01 X8.3975 Y41.8176 
G01 X8.4637 Y41.6579 
G01 X8.4974 Y41.4884 
G01 X8.4974 Y39.7916 
G01 X8.4637 Y39.6221 
G01 X8.3975 Y39.4624 
G01 X8.3015 Y39.3187 
G01 X8.1793 Y39.1965 
G01 X8.0356 Y39.1005 
G01 X7.8759 Y39.0343 
G01 X7.7064 Y39.0006 
G01 X7.5336 Y39.0006 
G01 X7.3641 Y39.0343 
G01 X7.2044 Y39.1005 
G01 X7.0607 Y39.1965 
G01 X6.9385 Y39.3187 
G01 X6.8425 Y39.4624 
G01 X6.7763 Y39.6221 
G01 X6.7426 Y39.7916 
G01 X6.7426 Y40.0166 
G01 X4.4334 Y40.0166 
G01 X4.4334 Y35.1674 
G01 X4.6584 Y35.1674 
G01 X4.8279 Y35.1337 
G01 X4.9876 Y35.0675 
G01 X5.1313 Y34.9715 
G01 X5.2535 Y34.8493 
G01 X5.3495 Y34.7056 
G01 X5.4157 Y34.5459 
G01 X5.4494 Y34.3764 
G01 X5.4494 Y34.2036 
G01 X5.4157 Y34.0341 
G01 X5.3495 Y33.8744 
G01 X5.2535 Y33.7307 
G01 X5.1313 Y33.6085 
G01 X4.9876 Y33.5125 
G01 X4.8279 Y33.4463 
G01 X4.6584 Y33.4126 
G01 X2.9616 Y33.4126 
G01 X2.7921 Y33.4463 
G01 X2.6324 Y33.5125 
G01 X2.4887 Y33.6085 
G01 X2.4306 Y33.6666 
G01 X1.8934 Y33.6666 
G01 X1.8934 Y26.0234 
G01 X2.4306 Y26.0234 
G01 X2.4887 Y26.0815 
G01 X2.6324 Y26.1775 
G01 X2.7921 Y26.2437 
G01 X2.9616 Y26.2774 
G01 X4.6584 Y26.2774 
G01 X4.8279 Y26.2437 
G01 X4.9876 Y26.1775 
G01 X5.1313 Y26.0815 
G01 X5.2535 Y25.9593 
G01 X5.3495 Y25.8156 
G01 X5.4157 Y25.6559 
G01 X5.4494 Y25.4864 
G01 X5.4494 Y25.3136 
G01 X5.4157 Y25.1441 
G01 X5.3495 Y24.9844 
G01 X5.2535 Y24.8407 
G01 X5.1313 Y24.7185 
G01 X4.9876 Y24.6225 
G01 X4.8279 Y24.5563 
G01 X4.6584 Y24.5226 
G01 X2.9616 Y24.5226 
G01 X2.7921 Y24.5563 
G01 X2.6324 Y24.6225 
G01 X2.4887 Y24.7185 
G01 X2.4306 Y24.7766 
G01 X1.8934 Y24.7766 
G01 X1.8934 Y17.1334 
G01 X2.4306 Y17.1334 
G01 X2.4887 Y17.1915 
G01 X2.6324 Y17.2875 
G01 X2.7921 Y17.3537 
G01 X2.9616 Y17.3874 
G01 X4.6584 Y17.3874 
G01 X4.8279 Y17.3537 
G01 X4.9876 Y17.2875 
G01 X5.1313 Y17.1915 
G01 X5.2535 Y17.0693 
G01 X5.3495 Y16.9256 
G01 X5.4157 Y16.7659 
G01 X5.4494 Y16.5964 
G01 X5.4494 Y16.4236 
G01 X5.4157 Y16.2541 
G01 X5.3495 Y16.0944 
G01 X5.2535 Y15.9507 
G01 X5.1313 Y15.8285 
G01 X4.9876 Y15.7325 
G01 X4.8279 Y15.6663 
G01 X4.6584 Y15.6326 
G01 X2.9616 Y15.6326 
G01 X2.7921 Y15.6663 
G01 X2.6324 Y15.7325 
G01 X2.4887 Y15.8285 
G01 X2.4306 Y15.8866 
G01 X1.8934 Y15.8866 
G01 X1.8934 Y8.2434 
G01 X2.4306 Y8.2434 
G01 X2.4887 Y8.3015 
G01 X2.6324 Y8.3975 
G01 X2.7921 Y8.4637 
G01 X2.9616 Y8.4974 
G01 X4.6584 Y8.4974 
G01 X4.8279 Y8.4637 
G01 X4.9876 Y8.3975 
G01 X5.1313 Y8.3015 
G01 X5.2535 Y8.1793 
G01 X5.3495 Y8.0356 
G01 X5.4157 Y7.8759 
G01 X5.4494 Y7.7064 
G01 X5.4494 Y7.5336 
G01 X5.4157 Y7.3641 
G01 X5.3495 Y7.2044 
G01 X5.2535 Y7.0607 
G01 X5.1313 Y6.9385 
G01 X4.9876 Y6.8425 
G01 X4.8279 Y6.7763 
G01 X4.6584 Y6.7426 
G01 X2.9616 Y6.7426 
G01 X2.7921 Y6.7763 
G01 X2.6324 Y6.8425 
G01 X2.4887 Y6.9385 
G01 X2.4306 Y6.9966 
G00 Z2.5400 
G00 X2.4887 Y13.2885 
G01 Z-0.1200 F100.00 
G01 X2.3665 Y13.4107 F230.00 
G01 X2.2705 Y13.5544 
G01 X2.2043 Y13.7141 
G01 X2.1706 Y13.8836 
G01 X2.1706 Y14.0564 
G01 X2.2043 Y14.2259 
G01 X2.2705 Y14.3856 
G01 X2.3665 Y14.5293 
G01 X2.4887 Y14.6515 
G01 X2.6324 Y14.7475 
G01 X2.7921 Y14.8137 
G01 X2.9616 Y14.8474 
G01 X4.6584 Y14.8474 
G01 X4.8279 Y14.8137 
G01 X4.9876 Y14.7475 
G01 X5.1313 Y14.6515 
G01 X5.1894 Y14.5934 
G01 X8.8018 Y14.5934 
G01 X9.5146 Y15.3062 
G01 X9.5146 Y15.7630 
G01 X9.5322 Y15.8054 
G01 X9.5646 Y15.8378 
G01 X9.6070 Y15.8554 
G01 X10.2284 Y15.8554 
G01 X10.2686 Y15.8634 
G01 X10.3914 Y15.8634 
G01 X10.4316 Y15.8554 
G01 X11.0530 Y15.8554 
G01 X11.0954 Y15.8378 
G01 X11.1278 Y15.8054 
G01 X11.1454 Y15.7630 
G01 X11.1454 Y14.7170 
G01 X11.1278 Y14.6746 
G01 X11.0954 Y14.6422 
G01 X11.0530 Y14.6246 
G01 X10.5962 Y14.6246 
G01 X9.4574 Y13.4858 
G01 X9.3553 Y13.4176 
G01 X9.2418 Y13.3706 
G01 X9.1214 Y13.3466 
G01 X5.1894 Y13.3466 
G01 X5.1313 Y13.2885 
G01 X4.9876 Y13.1925 
G01 X4.8279 Y13.1263 
G01 X4.6584 Y13.0926 
G01 X2.9616 Y13.0926 
G01 X2.7921 Y13.1263 
G01 X2.6324 Y13.1925 
G01 X2.4887 Y13.2885 
G00 Z2.5400 
G00 X10.2732 Y12.7956 
G01 Z-0.1200 F100.00 
G01 X11.7146 Y14.2370 F230.00 
G01 X11.7146 Y14.8130 
G01 X11.7322 Y14.8554 
G01 X11.7646 Y14.8878 
G01 X11.8070 Y14.9054 
G01 X13.2530 Y14.9054 
G01 X13.2954 Y14.8878 
G01 X13.3278 Y14.8554 
G01 X13.3454 Y14.8130 
G01 X13.3454 Y13.7670 
G01 X13.3278 Y13.7246 
G01 X13.2954 Y13.6922 
G01 X13.2530 Y13.6746 
G01 X12.1970 Y13.6746 
G01 X10.8694 Y12.3470 
G01 X10.8694 Y10.6625 
G01 X10.8744 Y10.6604 
G01 X11.0038 Y10.5739 
G01 X11.1139 Y10.4639 
G01 X11.2004 Y10.3344 
G01 X11.2600 Y10.1905 
G01 X11.2904 Y10.0378 
G01 X11.2904 Y9.8821 
G01 X11.2600 Y9.7294 
G01 X11.2004 Y9.5856 
G01 X11.1139 Y9.4561 
G01 X11.0038 Y9.3461 
G01 X10.8744 Y9.2596 
G01 X10.7305 Y9.2000 
G01 X10.5778 Y9.1696 
G01 X10.4222 Y9.1696 
G01 X10.2694 Y9.2000 
G01 X10.1256 Y9.2596 
G01 X9.9961 Y9.3461 
G01 X9.8861 Y9.4561 
G01 X9.7996 Y9.5856 
G01 X9.7400 Y9.7294 
G01 X9.7096 Y9.8821 
G01 X9.7096 Y10.0378 
G01 X9.7400 Y10.1905 
G01 X9.7996 Y10.3344 
G01 X9.8861 Y10.4639 
G01 X9.9961 Y10.5739 
G01 X10.1256 Y10.6604 
G01 X10.1306 Y10.6625 
G01 X10.1306 Y12.5486 
G01 X10.1558 Y12.6426 
G01 X10.2044 Y12.7268 
G01 X10.2732 Y12.7956 
G00 Z2.5400 
G00 X12.0458 Y12.2302 
G01 Z-0.1200 F100.00 
G01 X13.4956 Y13.6800 F230.00 
G01 X13.4956 Y14.9000 
G01 X13.3400 Y15.0556 
G01 X12.9796 Y15.0556 
G01 X12.8592 Y15.0796 
G01 X12.7457 Y15.1265 
G01 X12.6436 Y15.1948 
G01 X12.5568 Y15.2816 
G01 X12.2638 Y15.5746 
G01 X11.8070 Y15.5746 
G01 X11.7646 Y15.5922 
G01 X11.7322 Y15.6246 
G01 X11.7146 Y15.6670 
G01 X11.7146 Y16.7130 
G01 X11.7322 Y16.7554 
G01 X11.7646 Y16.7878 
G01 X11.8070 Y16.8054 
G01 X11.9066 Y16.8054 
G01 X11.9066 Y20.7842 
G01 X11.9306 Y20.9046 
G01 X11.9776 Y21.0181 
G01 X12.0458 Y21.1202 
G01 X13.4956 Y22.5700 
G01 X13.4956 Y23.7900 
G01 X13.3400 Y23.9456 
G01 X12.9796 Y23.9456 
G01 X12.8592 Y23.9696 
G01 X12.7457 Y24.0165 
G01 X12.6436 Y24.0848 
G01 X12.5568 Y24.1716 
G01 X12.2638 Y24.4646 
G01 X11.8070 Y24.4646 
G01 X11.7646 Y24.4822 
G01 X11.7322 Y24.5146 
G01 X11.7146 Y24.5570 
G01 X11.7146 Y25.6030 
G01 X11.7322 Y25.6454 
G01 X11.7646 Y25.6778 
G01 X11.8070 Y25.6954 
G01 X11.9066 Y25.6954 
G01 X11.9066 Y29.6742 
G01 X11.9306 Y29.7946 
G01 X11.9776 Y29.9081 
G01 X12.0458 Y30.0102 
G01 X13.4956 Y31.4600 
G01 X13.4956 Y32.6800 
G01 X13.3400 Y32.8356 
G01 X12.9796 Y32.8356 
G01 X12.8592 Y32.8596 
G01 X12.7457 Y32.9066 
G01 X12.6436 Y32.9748 
G01 X12.5568 Y33.0616 
G01 X12.2638 Y33.3546 
G01 X11.8070 Y33.3546 
G01 X11.7646 Y33.3722 
G01 X11.7322 Y33.4046 
G01 X11.7146 Y33.4470 
G01 X11.7146 Y34.4930 
G01 X11.7322 Y34.5354 
G01 X11.7646 Y34.5678 
G01 X11.8070 Y34.5854 
G01 X11.9066 Y34.5854 
G01 X11.9066 Y38.0118 
G01 X11.6658 Y38.2526 
G01 X10.7206 Y39.1978 
G01 X10.5756 Y39.1005 
G01 X10.4159 Y39.0343 
G01 X10.2464 Y39.0006 
G01 X10.0736 Y39.0006 
G01 X9.9041 Y39.0343 
G01 X9.7444 Y39.1005 
G01 X9.6007 Y39.1965 
G01 X9.4785 Y39.3187 
G01 X9.3825 Y39.4624 
G01 X9.3163 Y39.6221 
G01 X9.2826 Y39.7916 
G01 X9.2826 Y41.4884 
G01 X9.3163 Y41.6579 
G01 X9.3825 Y41.8176 
G01 X9.4785 Y41.9613 
G01 X9.6007 Y42.0835 
G01 X9.7444 Y42.1795 
G01 X9.9041 Y42.2457 
G01 X10.0736 Y42.2794 
G01 X10.2464 Y42.2794 
G01 X10.4159 Y42.2457 
G01 X10.5756 Y42.1795 
G01 X10.7193 Y42.0835 
G01 X10.8415 Y41.9613 
G01 X10.9375 Y41.8176 
G01 X11.0037 Y41.6579 
G01 X11.0374 Y41.4884 
G01 X11.0374 Y40.6442 
G01 X12.3447 Y39.3369 
G01 X12.3574 Y39.3442 
G01 X12.4514 Y39.3694 
G01 X12.5486 Y39.3694 
G01 X12.6426 Y39.3442 
G01 X12.7268 Y39.2956 
G01 X12.7956 Y39.2268 
G01 X12.8442 Y39.1426 
G01 X12.8641 Y39.0683 
G01 X12.8725 Y39.0652 
G01 X12.9521 Y39.0093 
G01 X13.0145 Y38.9347 
G01 X13.0555 Y38.8465 
G01 X13.0723 Y38.7507 
G01 X13.0636 Y38.6538 
G01 X13.0494 Y38.6148 
G01 X13.0824 Y38.5653 
G01 X13.1294 Y38.4518 
G01 X13.1534 Y38.3314 
G01 X13.1534 Y34.5854 
G01 X13.2530 Y34.5854 
G01 X13.2954 Y34.5678 
G01 X13.3278 Y34.5354 
G01 X13.3454 Y34.4930 
G01 X13.3454 Y34.0824 
G01 X13.6596 Y34.0824 
G01 X13.7801 Y34.0584 
G01 X13.8935 Y34.0114 
G01 X13.9956 Y33.9432 
G01 X14.0825 Y33.8564 
G01 X14.5164 Y33.4225 
G01 X14.6032 Y33.3356 
G01 X14.6714 Y33.2335 
G01 X14.7184 Y33.1201 
G01 X14.7424 Y32.9996 
G01 X14.7424 Y31.1404 
G01 X14.7184 Y31.0199 
G01 X14.6714 Y30.9065 
G01 X14.6032 Y30.8044 
G01 X13.1534 Y29.3545 
G01 X13.1534 Y25.6954 
G01 X13.2530 Y25.6954 
G01 X13.2954 Y25.6778 
G01 X13.3278 Y25.6454 
G01 X13.3454 Y25.6030 
G01 X13.3454 Y25.1924 
G01 X13.6596 Y25.1924 
G01 X13.7801 Y25.1684 
G01 X13.8935 Y25.1214 
G01 X13.9956 Y25.0532 
G01 X14.0825 Y24.9664 
G01 X14.5164 Y24.5325 
G01 X14.6032 Y24.4456 
G01 X14.6714 Y24.3435 
G01 X14.7184 Y24.2301 
G01 X14.7424 Y24.1096 
G01 X14.7424 Y22.2504 
G01 X14.7184 Y22.1299 
G01 X14.6714 Y22.0165 
G01 X14.6032 Y21.9144 
G01 X13.1534 Y20.4645 
G01 X13.1534 Y16.8054 
G01 X13.2530 Y16.8054 
G01 X13.2954 Y16.7878 
G01 X13.3278 Y16.7554 
G01 X13.3454 Y16.7130 
G01 X13.3454 Y16.3024 
G01 X13.6596 Y16.3024 
G01 X13.7801 Y16.2784 
G01 X13.8935 Y16.2314 
G01 X13.9956 Y16.1632 
G01 X14.0825 Y16.0764 
G01 X14.5164 Y15.6425 
G01 X14.6032 Y15.5556 
G01 X14.6714 Y15.4535 
G01 X14.7184 Y15.3401 
G01 X14.7424 Y15.2196 
G01 X14.7424 Y13.8694 
G01 X15.5486 Y13.8694 
G01 X15.6426 Y13.8442 
G01 X15.7268 Y13.7956 
G01 X15.7956 Y13.7268 
G01 X17.3568 Y12.1656 
G01 X17.4406 Y12.2494 
G01 X18.1194 Y12.2494 
G01 X18.5994 Y11.7694 
G01 X18.5994 Y11.0906 
G01 X18.1194 Y10.6106 
G01 X17.4406 Y10.6106 
G01 X16.9606 Y11.0906 
G01 X16.9606 Y11.5170 
G01 X15.3470 Y13.1306 
G01 X14.6732 Y13.1306 
G01 X14.6714 Y13.1265 
G01 X14.6032 Y13.0244 
G01 X13.1534 Y11.5745 
G01 X13.1534 Y7.9154 
G01 X13.2530 Y7.9154 
G01 X13.2954 Y7.8978 
G01 X13.3278 Y7.8654 
G01 X13.3454 Y7.8230 
G01 X13.3454 Y7.3694 
G01 X18.0486 Y7.3694 
G01 X18.1426 Y7.3442 
G01 X18.2268 Y7.2956 
G01 X18.2956 Y7.2268 
G01 X20.5970 Y4.9254 
G01 X22.1330 Y4.9254 
G01 X22.1754 Y4.9078 
G01 X22.2078 Y4.8754 
G01 X22.2254 Y4.8330 
G01 X22.2254 Y2.7870 
G01 X22.2078 Y2.7446 
G01 X22.1754 Y2.7122 
G01 X22.1330 Y2.6946 
G01 X20.5870 Y2.6946 
G01 X20.5446 Y2.7122 
G01 X20.5122 Y2.7446 
G01 X20.4946 Y2.7870 
G01 X20.4946 Y3.9830 
G01 X17.8470 Y6.6306 
G01 X13.0403 Y6.6306 
G01 X13.0321 Y6.6288 
G01 X12.9918 Y6.6306 
G01 X12.9514 Y6.6306 
G01 X12.9433 Y6.6328 
G01 X12.9350 Y6.6331 
G01 X12.8964 Y6.6453 
G01 X12.8574 Y6.6558 
G01 X12.8502 Y6.6599 
G01 X12.8422 Y6.6625 
G01 X12.8082 Y6.6842 
G01 X12.6316 Y6.6846 
G01 X12.5914 Y6.6766 
G01 X12.4686 Y6.6766 
G01 X12.4284 Y6.6846 
G01 X11.8070 Y6.6846 
G01 X11.7646 Y6.7022 
G01 X11.7322 Y6.7346 
G01 X11.7146 Y6.7770 
G01 X11.7146 Y7.8230 
G01 X11.7322 Y7.8654 
G01 X11.7646 Y7.8978 
G01 X11.8070 Y7.9154 
G01 X11.9066 Y7.9154 
G01 X11.9066 Y11.8942 
G01 X11.9306 Y12.0146 
G01 X11.9776 Y12.1281 
G01 X12.0458 Y12.2302 
G00 Z2.5400 
G00 X11.8070 Y6.0154 
G01 Z-0.1200 F100.00 
G01 X13.2530 Y6.0154 F230.00 
G01 X13.2954 Y5.9978 
G01 X13.3278 Y5.9654 
G01 X13.3454 Y5.9230 
G01 X13.3454 Y5.3694 
G01 X14.0486 Y5.3694 
G01 X14.1426 Y5.3442 
G01 X14.2268 Y5.2956 
G01 X14.2956 Y5.2268 
G01 X17.1530 Y2.3694 
G01 X26.6306 Y2.3694 
G01 X26.6306 Y11.5770 
G01 X18.1955 Y20.0120 
G01 X18.1906 Y20.0100 
G01 X18.0378 Y19.9796 
G01 X17.8821 Y19.9796 
G01 X17.7294 Y20.0100 
G01 X17.5856 Y20.0696 
G01 X17.4561 Y20.1561 
G01 X17.3461 Y20.2661 
G01 X17.2596 Y20.3956 
G01 X17.2000 Y20.5394 
G01 X17.1696 Y20.6922 
G01 X17.1696 Y20.8478 
G01 X17.2000 Y21.0006 
G01 X17.2596 Y21.1444 
G01 X17.3461 Y21.2738 
G01 X17.4561 Y21.3839 
G01 X17.5856 Y21.4704 
G01 X17.7294 Y21.5300 
G01 X17.8821 Y21.5604 
G01 X18.0378 Y21.5604 
G01 X18.1906 Y21.5300 
G01 X18.3344 Y21.4704 
G01 X18.4639 Y21.3839 
G01 X18.5739 Y21.2738 
G01 X18.6604 Y21.1444 
G01 X18.7200 Y21.0006 
G01 X18.7504 Y20.8478 
G01 X18.7504 Y20.6922 
G01 X18.7200 Y20.5394 
G01 X18.7180 Y20.5345 
G01 X27.2268 Y12.0256 
G01 X27.2956 Y11.9568 
G01 X27.3442 Y11.8726 
G01 X27.3694 Y11.7786 
G01 X27.3694 Y1.9514 
G01 X27.3442 Y1.8574 
G01 X27.2956 Y1.7732 
G01 X27.2268 Y1.7044 
G01 X27.1426 Y1.6558 
G01 X27.0486 Y1.6306 
G01 X16.9514 Y1.6306 
G01 X16.8574 Y1.6558 
G01 X16.7732 Y1.7044 
G01 X13.8470 Y4.6306 
G01 X13.0148 Y4.6306 
G01 X12.9811 Y4.6279 
G01 X12.9664 Y4.6306 
G01 X12.9514 Y4.6306 
G01 X12.9187 Y4.6393 
G01 X12.8855 Y4.6454 
G01 X12.8719 Y4.6519 
G01 X12.8574 Y4.6558 
G01 X12.8282 Y4.6727 
G01 X12.7976 Y4.6872 
G01 X12.7862 Y4.6969 
G01 X12.7732 Y4.7044 
G01 X12.7493 Y4.7283 
G01 X12.6831 Y4.7846 
G01 X11.8070 Y4.7846 
G01 X11.7646 Y4.8022 
G01 X11.7322 Y4.8346 
G01 X11.7146 Y4.8770 
G01 X11.7146 Y5.9230 
G01 X11.7322 Y5.9654 
G01 X11.7646 Y5.9978 
G01 X11.8070 Y6.0154 
G00 Z2.5400 
G00 X16.9606 Y8.5506 
G01 Z-0.1200 F100.00 
G01 X16.9606 Y9.2294 F230.00 
G01 X17.4406 Y9.7094 
G01 X18.1194 Y9.7094 
G01 X18.5994 Y9.2294 
G01 X18.5994 Y8.5506 
G01 X18.1194 Y8.0706 
G01 X17.4406 Y8.0706 
G01 X16.9606 Y8.5506 
G00 Z2.5400 
G00 X19.5006 Y8.5506 
G01 Z-0.1200 F100.00 
G01 X19.5006 Y9.2294 F230.00 
G01 X19.9806 Y9.7094 
G01 X20.6594 Y9.7094 
G01 X21.1394 Y9.2294 
G01 X21.1394 Y8.5506 
G01 X21.0556 Y8.4668 
G01 X21.6530 Y7.8694 
G01 X24.1306 Y7.8694 
G01 X24.1306 Y8.5486 
G01 X24.1558 Y8.6426 
G01 X24.2044 Y8.7268 
G01 X24.2732 Y8.7956 
G01 X24.3574 Y8.8442 
G01 X24.4514 Y8.8694 
G01 X24.5806 Y8.8694 
G01 X24.5806 Y9.2294 
G01 X25.0606 Y9.7094 
G01 X25.7394 Y9.7094 
G01 X26.2194 Y9.2294 
G01 X26.2194 Y8.5506 
G01 X25.7394 Y8.0706 
G01 X25.0606 Y8.0706 
G01 X25.0006 Y8.1306 
G01 X24.9975 Y8.1306 
G01 X24.8694 Y8.1306 
G01 X24.8694 Y4.9254 
G01 X25.1330 Y4.9254 
G01 X25.1754 Y4.9078 
G01 X25.2078 Y4.8754 
G01 X25.2254 Y4.8330 
G01 X25.2254 Y2.7870 
G01 X25.2078 Y2.7446 
G01 X25.1754 Y2.7122 
G01 X25.1330 Y2.6946 
G01 X23.5870 Y2.6946 
G01 X23.5446 Y2.7122 
G01 X23.5122 Y2.7446 
G01 X23.4946 Y2.7870 
G01 X23.4946 Y4.8330 
G01 X23.5122 Y4.8754 
G01 X23.5446 Y4.9078 
G01 X23.5870 Y4.9254 
G01 X24.1306 Y4.9254 
G01 X24.1306 Y7.1306 
G01 X21.4514 Y7.1306 
G01 X21.3574 Y7.1558 
G01 X21.2732 Y7.2044 
G01 X21.2044 Y7.2732 
G01 X20.4070 Y8.0706 
G01 X19.9806 Y8.0706 
G01 X19.5006 Y8.5506 
G00 Z2.5400 
G00 X19.5006 Y11.0906 
G01 Z-0.1200 F100.00 
G01 X19.5006 Y11.7694 F230.00 
G01 X19.9806 Y12.2494 
G01 X20.6594 Y12.2494 
G01 X21.1394 Y11.7694 
G01 X21.1394 Y11.0906 
G01 X20.6594 Y10.6106 
G01 X19.9806 Y10.6106 
G01 X19.5006 Y11.0906 
G00 Z2.5400 
G00 X22.0406 Y11.0906 
G01 Z-0.1200 F100.00 
G01 X22.0406 Y11.7694 F230.00 
G01 X22.5206 Y12.2494 
G01 X23.1994 Y12.2494 
G01 X23.6794 Y11.7694 
G01 X23.6794 Y11.0906 
G01 X23.1994 Y10.6106 
G01 X22.5206 Y10.6106 
G01 X22.0406 Y11.0906 
G00 Z2.5400 
G00 X22.5206 Y9.7094 
G01 Z-0.1200 F100.00 
G01 X23.1994 Y9.7094 F230.00 
G01 X23.6794 Y9.2294 
G01 X23.6794 Y8.5506 
G01 X23.1994 Y8.0706 
G01 X22.5206 Y8.0706 
G01 X22.0406 Y8.5506 
G01 X22.0406 Y9.2294 
G01 X22.5206 Y9.7094 
G00 Z2.5400 
G00 X24.5806 Y11.0906 
G01 Z-0.1200 F100.00 
G01 X24.5806 Y11.7694 F230.00 
G01 X25.0606 Y12.2494 
G01 X25.7394 Y12.2494 
G01 X26.2194 Y11.7694 
G01 X26.2194 Y11.0906 
G01 X25.7394 Y10.6106 
G01 X25.0606 Y10.6106 
G01 X24.5806 Y11.0906 
G00 Z2.5400 
G00 X13.2954 Y22.5822 
G01 Z-0.1200 F100.00 
G01 X13.2530 Y22.5646 F230.00 
G01 X12.5870 Y22.5646 
G01 X9.7580 Y19.7355 
G01 X9.7600 Y19.7306 
G01 X9.7904 Y19.5778 
G01 X9.7904 Y19.4221 
G01 X9.7600 Y19.2694 
G01 X9.7004 Y19.1256 
G01 X9.6139 Y18.9961 
G01 X9.5038 Y18.8861 
G01 X9.3744 Y18.7996 
G01 X9.2305 Y18.7400 
G01 X9.0778 Y18.7096 
G01 X8.9222 Y18.7096 
G01 X8.7694 Y18.7400 
G01 X8.6256 Y18.7996 
G01 X8.4961 Y18.8861 
G01 X8.3861 Y18.9961 
G01 X8.2996 Y19.1256 
G01 X8.2400 Y19.2694 
G01 X8.2096 Y19.4221 
G01 X8.2096 Y19.5778 
G01 X8.2400 Y19.7306 
G01 X8.2996 Y19.8744 
G01 X8.3861 Y20.0038 
G01 X8.4961 Y20.1139 
G01 X8.6256 Y20.2004 
G01 X8.7694 Y20.2600 
G01 X8.9222 Y20.2904 
G01 X9.0778 Y20.2904 
G01 X9.2305 Y20.2600 
G01 X9.2355 Y20.2580 
G01 X11.7146 Y22.7370 
G01 X11.7146 Y23.7030 
G01 X11.7322 Y23.7454 
G01 X11.7646 Y23.7778 
G01 X11.8070 Y23.7954 
G01 X13.2530 Y23.7954 
G01 X13.2954 Y23.7778 
G01 X13.3278 Y23.7454 
G01 X13.3454 Y23.7030 
G01 X13.3454 Y22.6570 
G01 X13.3278 Y22.6146 
G01 X13.2954 Y22.5822 
G00 Z2.5400 
G00 X11.0954 Y23.5322 
G01 Z-0.1200 F100.00 
G01 X11.0530 Y23.5146 F230.00 
G01 X10.5962 Y23.5146 
G01 X9.4574 Y22.3758 
G01 X9.3553 Y22.3075 
G01 X9.2418 Y22.2606 
G01 X9.1214 Y22.2366 
G01 X5.1894 Y22.2366 
G01 X5.1313 Y22.1785 
G01 X4.9876 Y22.0825 
G01 X4.8279 Y22.0163 
G01 X4.6584 Y21.9826 
G01 X2.9616 Y21.9826 
G01 X2.7921 Y22.0163 
G01 X2.6324 Y22.0825 
G01 X2.4887 Y22.1785 
G01 X2.3665 Y22.3007 
G01 X2.2705 Y22.4444 
G01 X2.2043 Y22.6041 
G01 X2.1706 Y22.7736 
G01 X2.1706 Y22.9464 
G01 X2.2043 Y23.1159 
G01 X2.2705 Y23.2756 
G01 X2.3665 Y23.4193 
G01 X2.4887 Y23.5415 
G01 X2.6324 Y23.6375 
G01 X2.7921 Y23.7037 
G01 X2.9616 Y23.7374 
G01 X4.6584 Y23.7374 
G01 X4.8279 Y23.7037 
G01 X4.9876 Y23.6375 
G01 X5.1313 Y23.5415 
G01 X5.1894 Y23.4834 
G01 X8.8018 Y23.4834 
G01 X9.5146 Y24.1962 
G01 X9.5146 Y24.6530 
G01 X9.5322 Y24.6954 
G01 X9.5646 Y24.7278 
G01 X9.6070 Y24.7454 
G01 X10.2284 Y24.7454 
G01 X10.2686 Y24.7534 
G01 X10.3914 Y24.7534 
G01 X10.4316 Y24.7454 
G01 X11.0530 Y24.7454 
G01 X11.0954 Y24.7278 
G01 X11.1278 Y24.6954 
G01 X11.1454 Y24.6530 
G01 X11.1454 Y23.6070 
G01 X11.1278 Y23.5646 
G01 X11.0954 Y23.5322 
G00 Z2.5400 
G00 X9.7339 Y28.1161 
G01 Z-0.1200 F100.00 
G01 X9.6044 Y28.0296 F230.00 
G01 X9.4605 Y27.9700 
G01 X9.3078 Y27.9396 
G01 X9.1522 Y27.9396 
G01 X8.9994 Y27.9700 
G01 X8.8556 Y28.0296 
G01 X8.7261 Y28.1161 
G01 X8.6161 Y28.2261 
G01 X8.5296 Y28.3556 
G01 X8.4700 Y28.4994 
G01 X8.4396 Y28.6521 
G01 X8.4396 Y28.8078 
G01 X8.4700 Y28.9606 
G01 X8.5296 Y29.1044 
G01 X8.6161 Y29.2339 
G01 X8.7261 Y29.3439 
G01 X8.8556 Y29.4304 
G01 X8.9994 Y29.4900 
G01 X9.1522 Y29.5204 
G01 X9.3078 Y29.5204 
G01 X9.4605 Y29.4900 
G01 X9.4655 Y29.4880 
G01 X11.7146 Y31.7370 
G01 X11.7146 Y32.5930 
G01 X11.7322 Y32.6354 
G01 X11.7646 Y32.6678 
G01 X11.8070 Y32.6854 
G01 X13.2530 Y32.6854 
G01 X13.2954 Y32.6678 
G01 X13.3278 Y32.6354 
G01 X13.3454 Y32.5930 
G01 X13.3454 Y31.5470 
G01 X13.3278 Y31.5046 
G01 X13.2954 Y31.4722 
G01 X13.2530 Y31.4546 
G01 X12.4770 Y31.4546 
G01 X9.9880 Y28.9655 
G01 X9.9900 Y28.9606 
G01 X10.0204 Y28.8078 
G01 X10.0204 Y28.6521 
G01 X9.9900 Y28.4994 
G01 X9.9304 Y28.3556 
G01 X9.8439 Y28.2261 
G01 X9.7339 Y28.1161 
G00 Z2.5400 
G00 X9.4574 Y31.2658 
G01 Z-0.1200 F100.00 
G01 X9.3553 Y31.1975 F230.00 
G01 X9.2418 Y31.1506 
G01 X9.1214 Y31.1266 
G01 X5.1894 Y31.1266 
G01 X5.1313 Y31.0685 
G01 X4.9876 Y30.9725 
G01 X4.8279 Y30.9063 
G01 X4.6584 Y30.8726 
G01 X2.9616 Y30.8726 
G01 X2.7921 Y30.9063 
G01 X2.6324 Y30.9725 
G01 X2.4887 Y31.0685 
G01 X2.3665 Y31.1907 
G01 X2.2705 Y31.3344 
G01 X2.2043 Y31.4941 
G01 X2.1706 Y31.6636 
G01 X2.1706 Y31.8364 
G01 X2.2043 Y32.0059 
G01 X2.2705 Y32.1656 
G01 X2.3665 Y32.3093 
G01 X2.4887 Y32.4315 
G01 X2.6324 Y32.5275 
G01 X2.7921 Y32.5937 
G01 X2.9616 Y32.6274 
G01 X4.6584 Y32.6274 
G01 X4.8279 Y32.5937 
G01 X4.9876 Y32.5275 
G01 X5.1313 Y32.4315 
G01 X5.1894 Y32.3734 
G01 X8.8018 Y32.3734 
G01 X9.5146 Y33.0862 
G01 X9.5146 Y33.5430 
G01 X9.5322 Y33.5854 
G01 X9.5646 Y33.6178 
G01 X9.6070 Y33.6354 
G01 X10.2284 Y33.6354 
G01 X10.2686 Y33.6434 
G01 X10.3914 Y33.6434 
G01 X10.4316 Y33.6354 
G01 X11.0530 Y33.6354 
G01 X11.0954 Y33.6178 
G01 X11.1278 Y33.5854 
G01 X11.1454 Y33.5430 
G01 X11.1454 Y32.4970 
G01 X11.1278 Y32.4546 
G01 X11.0954 Y32.4222 
G01 X11.0530 Y32.4046 
G01 X10.5962 Y32.4046 
G01 X9.4574 Y31.2658 
G00 Z2.5400 
G00 X2.2577 Y4.4314 
G01 Z-0.1200 F100.00 
G01 X2.1464 Y4.5981 F230.00 
G01 X2.0697 Y4.7832 
G01 X2.0306 Y4.9798 
G01 X2.0306 Y5.1802 
G01 X2.0697 Y5.3768 
G01 X2.1464 Y5.5619 
G01 X2.2577 Y5.7286 
G01 X2.3994 Y5.8703 
G01 X2.5661 Y5.9816 
G01 X2.7512 Y6.0583 
G01 X2.9478 Y6.0974 
G01 X4.6722 Y6.0974 
G01 X4.8688 Y6.0583 
G01 X5.0539 Y5.9816 
G01 X5.2206 Y5.8703 
G01 X5.2474 Y5.8434 
G01 X8.5738 Y5.8434 
G01 X9.3746 Y6.6442 
G01 X9.3746 Y6.8836 
G01 X9.3920 Y6.9486 
G01 X9.4256 Y7.0068 
G01 X9.4732 Y7.0544 
G01 X9.5314 Y7.0880 
G01 X9.5964 Y7.1054 
G01 X10.0446 Y7.1054 
G01 X10.0848 Y7.1134 
G01 X10.4052 Y7.1134 
G01 X10.4454 Y7.1054 
G01 X11.0636 Y7.1054 
G01 X11.1286 Y7.0880 
G01 X11.1868 Y7.0544 
G01 X11.2344 Y7.0068 
G01 X11.2680 Y6.9486 
G01 X11.2854 Y6.8836 
G01 X11.2854 Y5.8164 
G01 X11.2680 Y5.7514 
G01 X11.2344 Y5.6932 
G01 X11.1868 Y5.6456 
G01 X11.1286 Y5.6120 
G01 X11.0636 Y5.5946 
G01 X10.4842 Y5.5946 
G01 X9.3766 Y4.4870 
G01 X9.2516 Y4.4035 
G01 X9.1127 Y4.3459 
G01 X8.9652 Y4.3166 
G01 X5.2474 Y4.3166 
G01 X5.2206 Y4.2897 
G01 X5.0539 Y4.1784 
G01 X4.8688 Y4.1017 
G01 X4.6722 Y4.0626 
G01 X2.9478 Y4.0626 
G01 X2.7512 Y4.1017 
G01 X2.5661 Y4.1784 
G01 X2.3994 Y4.2897 
G01 X2.2577 Y4.4314 
G00 Z2.5400 
G00 X2.3726 Y6.8566 
G01 Z-0.1200 F100.00 
G01 X1.1948 Y6.8566 F230.00 
G01 X1.0473 Y6.8859 
G01 X0.9084 Y6.9435 
G01 X0.7834 Y7.0270 
G01 X0.6770 Y7.1334 
G01 X0.5935 Y7.2584 
G01 X0.5359 Y7.3973 
G01 X0.5066 Y7.5448 
G01 X0.5066 Y34.3652 
G01 X0.5359 Y34.5127 
G01 X0.5935 Y34.6516 
G01 X0.6770 Y34.7766 
G01 X0.7834 Y34.8830 
G01 X0.9084 Y34.9665 
G01 X1.0473 Y35.0241 
G01 X1.1948 Y35.0534 
G01 X2.3726 Y35.0534 
G01 X2.3994 Y35.0803 
G01 X2.5661 Y35.1916 
G01 X2.7512 Y35.2683 
G01 X2.9478 Y35.3074 
G01 X3.0466 Y35.3074 
G01 X3.0466 Y40.7152 
G01 X3.0759 Y40.8627 
G01 X3.1335 Y41.0016 
G01 X3.2170 Y41.1266 
G01 X3.3234 Y41.2330 
G01 X3.4484 Y41.3165 
G01 X3.5873 Y41.3741 
G01 X3.7348 Y41.4034 
G01 X6.6026 Y41.4034 
G01 X6.6026 Y41.5022 
G01 X6.6417 Y41.6988 
G01 X6.7184 Y41.8839 
G01 X6.8297 Y42.0506 
G01 X6.9714 Y42.1923 
G01 X7.1381 Y42.3036 
G01 X7.3232 Y42.3803 
G01 X7.5198 Y42.4194 
G01 X7.7202 Y42.4194 
G01 X7.9168 Y42.3803 
G01 X8.1019 Y42.3036 
G01 X8.2686 Y42.1923 
G01 X8.4103 Y42.0506 
G01 X8.5216 Y41.8839 
G01 X8.5983 Y41.6988 
G01 X8.6374 Y41.5022 
G01 X8.6374 Y39.7778 
G01 X8.5983 Y39.5812 
G01 X8.5216 Y39.3961 
G01 X8.4103 Y39.2294 
G01 X8.2686 Y39.0877 
G01 X8.1019 Y38.9764 
G01 X7.9168 Y38.8997 
G01 X7.7202 Y38.8606 
G01 X7.5198 Y38.8606 
G01 X7.3232 Y38.8997 
G01 X7.1381 Y38.9764 
G01 X6.9714 Y39.0877 
G01 X6.8297 Y39.2294 
G01 X6.7184 Y39.3961 
G01 X6.6417 Y39.5812 
G01 X6.6026 Y39.7778 
G01 X6.6026 Y39.8766 
G01 X4.5734 Y39.8766 
G01 X4.5734 Y35.3074 
G01 X4.6722 Y35.3074 
G01 X4.8688 Y35.2683 
G01 X5.0539 Y35.1916 
G01 X5.2206 Y35.0803 
G01 X5.3623 Y34.9386 
G01 X5.4736 Y34.7719 
G01 X5.5503 Y34.5868 
G01 X5.5894 Y34.3902 
G01 X5.5894 Y34.1898 
G01 X5.5503 Y33.9932 
G01 X5.4736 Y33.8081 
G01 X5.3623 Y33.6414 
G01 X5.2206 Y33.4997 
G01 X5.0539 Y33.3884 
G01 X4.8688 Y33.3117 
G01 X4.6722 Y33.2726 
G01 X2.9478 Y33.2726 
G01 X2.7512 Y33.3117 
G01 X2.5661 Y33.3884 
G01 X2.3994 Y33.4997 
G01 X2.3726 Y33.5266 
G01 X2.0334 Y33.5266 
G01 X2.0334 Y31.8643 
G01 X2.0697 Y32.0468 
G01 X2.1464 Y32.2319 
G01 X2.2577 Y32.3986 
G01 X2.3994 Y32.5403 
G01 X2.5661 Y32.6516 
G01 X2.7512 Y32.7283 
G01 X2.9478 Y32.7674 
G01 X4.6722 Y32.7674 
G01 X4.8688 Y32.7283 
G01 X5.0539 Y32.6516 
G01 X5.2206 Y32.5403 
G01 X5.2474 Y32.5134 
G01 X8.7438 Y32.5134 
G01 X9.3746 Y33.1442 
G01 X9.3746 Y33.5536 
G01 X9.3920 Y33.6186 
G01 X9.4256 Y33.6768 
G01 X9.4732 Y33.7244 
G01 X9.5314 Y33.7580 
G01 X9.5964 Y33.7754 
G01 X10.2146 Y33.7754 
G01 X10.2548 Y33.7834 
G01 X10.4052 Y33.7834 
G01 X10.4454 Y33.7754 
G01 X11.0636 Y33.7754 
G01 X11.1286 Y33.7580 
G01 X11.1868 Y33.7244 
G01 X11.2344 Y33.6768 
G01 X11.2680 Y33.6186 
G01 X11.2854 Y33.5536 
G01 X11.2854 Y32.4864 
G01 X11.2680 Y32.4214 
G01 X11.2344 Y32.3632 
G01 X11.1868 Y32.3156 
G01 X11.1286 Y32.2820 
G01 X11.0636 Y32.2646 
G01 X10.6542 Y32.2646 
G01 X9.5466 Y31.1570 
G01 X9.4216 Y31.0735 
G01 X9.2827 Y31.0159 
G01 X9.1352 Y30.9866 
G01 X5.2474 Y30.9866 
G01 X5.2206 Y30.9597 
G01 X5.0539 Y30.8484 
G01 X4.8688 Y30.7717 
G01 X4.6722 Y30.7326 
G01 X2.9478 Y30.7326 
G01 X2.7512 Y30.7717 
G01 X2.5661 Y30.8484 
G01 X2.3994 Y30.9597 
G01 X2.2577 Y31.1014 
G01 X2.1464 Y31.2681 
G01 X2.0697 Y31.4532 
G01 X2.0334 Y31.6357 
G01 X2.0334 Y26.1634 
G01 X2.3726 Y26.1634 
G01 X2.3994 Y26.1903 
G01 X2.5661 Y26.3016 
G01 X2.7512 Y26.3783 
G01 X2.9478 Y26.4174 
G01 X4.6722 Y26.4174 
G01 X4.8688 Y26.3783 
G01 X5.0539 Y26.3016 
G01 X5.2206 Y26.1903 
G01 X5.3623 Y26.0486 
G01 X5.4736 Y25.8819 
G01 X5.5503 Y25.6968 
G01 X5.5894 Y25.5002 
G01 X5.5894 Y25.2998 
G01 X5.5503 Y25.1032 
G01 X5.4736 Y24.9181 
G01 X5.3623 Y24.7514 
G01 X5.2206 Y24.6097 
G01 X5.0539 Y24.4984 
G01 X4.8688 Y24.4217 
G01 X4.6722 Y24.3826 
G01 X2.9478 Y24.3826 
G01 X2.7512 Y24.4217 
G01 X2.5661 Y24.4984 
G01 X2.3994 Y24.6097 
G01 X2.3726 Y24.6366 
G01 X2.0334 Y24.6366 
G01 X2.0334 Y22.9743 
G01 X2.0697 Y23.1568 
G01 X2.1464 Y23.3419 
G01 X2.2577 Y23.5086 
G01 X2.3994 Y23.6503 
G01 X2.5661 Y23.7616 
G01 X2.7512 Y23.8383 
G01 X2.9478 Y23.8774 
G01 X4.6722 Y23.8774 
G01 X4.8688 Y23.8383 
G01 X5.0539 Y23.7616 
G01 X5.2206 Y23.6503 
G01 X5.2474 Y23.6234 
G01 X8.7438 Y23.6234 
G01 X9.3746 Y24.2542 
G01 X9.3746 Y24.6636 
G01 X9.3920 Y24.7286 
G01 X9.4256 Y24.7868 
G01 X9.4732 Y24.8344 
G01 X9.5314 Y24.8680 
G01 X9.5964 Y24.8854 
G01 X10.2146 Y24.8854 
G01 X10.2548 Y24.8934 
G01 X10.4052 Y24.8934 
G01 X10.4454 Y24.8854 
G01 X11.0636 Y24.8854 
G01 X11.1286 Y24.8680 
G01 X11.1868 Y24.8344 
G01 X11.2344 Y24.7868 
G01 X11.2680 Y24.7286 
G01 X11.2854 Y24.6636 
G01 X11.2854 Y23.5964 
G01 X11.2680 Y23.5314 
G01 X11.2344 Y23.4732 
G01 X11.1868 Y23.4256 
G01 X11.1286 Y23.3920 
G01 X11.0636 Y23.3746 
G01 X10.6542 Y23.3746 
G01 X9.5466 Y22.2670 
G01 X9.4216 Y22.1835 
G01 X9.2827 Y22.1259 
G01 X9.1352 Y22.0966 
G01 X5.2474 Y22.0966 
G01 X5.2206 Y22.0697 
G01 X5.0539 Y21.9584 
G01 X4.8688 Y21.8817 
G01 X4.6722 Y21.8426 
G01 X2.9478 Y21.8426 
G01 X2.7512 Y21.8817 
G01 X2.5661 Y21.9584 
G01 X2.3994 Y22.0697 
G01 X2.2577 Y22.2114 
G01 X2.1464 Y22.3781 
G01 X2.0697 Y22.5632 
G01 X2.0334 Y22.7457 
G01 X2.0334 Y17.2734 
G01 X2.3726 Y17.2734 
G01 X2.3994 Y17.3003 
G01 X2.5661 Y17.4116 
G01 X2.7512 Y17.4883 
G01 X2.9478 Y17.5274 
G01 X4.6722 Y17.5274 
G01 X4.8688 Y17.4883 
G01 X5.0539 Y17.4116 
G01 X5.2206 Y17.3003 
G01 X5.3623 Y17.1586 
G01 X5.4736 Y16.9919 
G01 X5.5503 Y16.8068 
G01 X5.5894 Y16.6102 
G01 X5.5894 Y16.4098 
G01 X5.5503 Y16.2132 
G01 X5.4736 Y16.0281 
G01 X5.3623 Y15.8614 
G01 X5.2206 Y15.7197 
G01 X5.0539 Y15.6084 
G01 X4.8688 Y15.5317 
G01 X4.6722 Y15.4926 
G01 X2.9478 Y15.4926 
G01 X2.7512 Y15.5317 
G01 X2.5661 Y15.6084 
G01 X2.3994 Y15.7197 
G01 X2.3726 Y15.7466 
G01 X2.0334 Y15.7466 
G01 X2.0334 Y14.0843 
G01 X2.0697 Y14.2668 
G01 X2.1464 Y14.4519 
G01 X2.2577 Y14.6186 
G01 X2.3994 Y14.7603 
G01 X2.5661 Y14.8716 
G01 X2.7512 Y14.9483 
G01 X2.9478 Y14.9874 
G01 X4.6722 Y14.9874 
G01 X4.8688 Y14.9483 
G01 X5.0539 Y14.8716 
G01 X5.2206 Y14.7603 
G01 X5.2474 Y14.7334 
G01 X8.7438 Y14.7334 
G01 X9.3746 Y15.3642 
G01 X9.3746 Y15.7736 
G01 X9.3920 Y15.8386 
G01 X9.4256 Y15.8968 
G01 X9.4732 Y15.9444 
G01 X9.5314 Y15.9780 
G01 X9.5964 Y15.9954 
G01 X10.2146 Y15.9954 
G01 X10.2548 Y16.0034 
G01 X10.4052 Y16.0034 
G01 X10.4454 Y15.9954 
G01 X11.0636 Y15.9954 
G01 X11.1286 Y15.9780 
G01 X11.1868 Y15.9444 
G01 X11.2344 Y15.8968 
G01 X11.2680 Y15.8386 
G01 X11.2854 Y15.7736 
G01 X11.2854 Y14.7064 
G01 X11.2680 Y14.6414 
G01 X11.2344 Y14.5832 
G01 X11.1868 Y14.5356 
G01 X11.1286 Y14.5020 
G01 X11.0636 Y14.4846 
G01 X10.6542 Y14.4846 
G01 X9.5466 Y13.3770 
G01 X9.4216 Y13.2935 
G01 X9.2827 Y13.2359 
G01 X9.1352 Y13.2066 
G01 X5.2474 Y13.2066 
G01 X5.2206 Y13.1797 
G01 X5.0539 Y13.0684 
G01 X4.8688 Y12.9917 
G01 X4.6722 Y12.9526 
G01 X2.9478 Y12.9526 
G01 X2.7512 Y12.9917 
G01 X2.5661 Y13.0684 
G01 X2.3994 Y13.1797 
G01 X2.2577 Y13.3214 
G01 X2.1464 Y13.4881 
G01 X2.0697 Y13.6732 
G01 X2.0334 Y13.8557 
G01 X2.0334 Y8.3834 
G01 X2.3726 Y8.3834 
G01 X2.3994 Y8.4103 
G01 X2.5661 Y8.5216 
G01 X2.7512 Y8.5983 
G01 X2.9478 Y8.6374 
G01 X4.6722 Y8.6374 
G01 X4.8688 Y8.5983 
G01 X5.0539 Y8.5216 
G01 X5.2206 Y8.4103 
G01 X5.3623 Y8.2686 
G01 X5.4736 Y8.1019 
G01 X5.5503 Y7.9168 
G01 X5.5894 Y7.7202 
G01 X5.5894 Y7.5198 
G01 X5.5503 Y7.3232 
G01 X5.4736 Y7.1381 
G01 X5.3623 Y6.9714 
G01 X5.2206 Y6.8297 
G01 X5.0539 Y6.7184 
G01 X4.8688 Y6.6417 
G01 X4.6722 Y6.6026 
G01 X2.9478 Y6.6026 
G01 X2.7512 Y6.6417 
G01 X2.5661 Y6.7184 
G01 X2.3994 Y6.8297 
G01 X2.3726 Y6.8566 
G00 Z2.5400 
G00 X11.5746 Y6.7664 
G01 Z-0.1200 F100.00 
G01 X11.5746 Y7.8336 F230.00 
G01 X11.5920 Y7.8986 
G01 X11.6256 Y7.9568 
G01 X11.6732 Y8.0044 
G01 X11.7314 Y8.0380 
G01 X11.7666 Y8.0474 
G01 X11.7666 Y11.9079 
G01 X11.7959 Y12.0554 
G01 X11.8535 Y12.1944 
G01 X11.9370 Y12.3194 
G01 X13.1522 Y13.5346 
G01 X12.2550 Y13.5346 
G01 X11.0094 Y12.2890 
G01 X11.0094 Y10.7386 
G01 X11.0931 Y10.6827 
G01 X11.2227 Y10.5531 
G01 X11.3245 Y10.4007 
G01 X11.3946 Y10.2314 
G01 X11.4304 Y10.0516 
G01 X11.4304 Y9.8684 
G01 X11.3946 Y9.6886 
G01 X11.3245 Y9.5193 
G01 X11.2227 Y9.3669 
G01 X11.0931 Y9.2373 
G01 X10.9407 Y9.1355 
G01 X10.7714 Y9.0654 
G01 X10.5916 Y9.0296 
G01 X10.4084 Y9.0296 
G01 X10.2286 Y9.0654 
G01 X10.0593 Y9.1355 
G01 X9.9069 Y9.2373 
G01 X9.7773 Y9.3669 
G01 X9.6755 Y9.5193 
G01 X9.6054 Y9.6886 
G01 X9.5696 Y9.8684 
G01 X9.5696 Y10.0516 
G01 X9.6054 Y10.2314 
G01 X9.6755 Y10.4007 
G01 X9.7773 Y10.5531 
G01 X9.9069 Y10.6827 
G01 X9.9906 Y10.7386 
G01 X9.9906 Y12.5671 
G01 X10.0253 Y12.6966 
G01 X10.0924 Y12.8128 
G01 X10.1872 Y12.9076 
G01 X11.5746 Y14.2950 
G01 X11.5746 Y14.8236 
G01 X11.5920 Y14.8886 
G01 X11.6256 Y14.9468 
G01 X11.6732 Y14.9944 
G01 X11.7314 Y15.0280 
G01 X11.7964 Y15.0454 
G01 X12.6152 Y15.0454 
G01 X12.5544 Y15.0860 
G01 X12.4480 Y15.1924 
G01 X12.2058 Y15.4346 
G01 X11.7964 Y15.4346 
G01 X11.7314 Y15.4520 
G01 X11.6732 Y15.4856 
G01 X11.6256 Y15.5332 
G01 X11.5920 Y15.5914 
G01 X11.5746 Y15.6564 
G01 X11.5746 Y16.7236 
G01 X11.5920 Y16.7886 
G01 X11.6256 Y16.8468 
G01 X11.6732 Y16.8944 
G01 X11.7314 Y16.9280 
G01 X11.7666 Y16.9374 
G01 X11.7666 Y20.7980 
G01 X11.7959 Y20.9454 
G01 X11.8535 Y21.0844 
G01 X11.9370 Y21.2094 
G01 X13.1522 Y22.4246 
G01 X12.6450 Y22.4246 
G01 X9.9108 Y19.6904 
G01 X9.9304 Y19.5916 
G01 X9.9304 Y19.4084 
G01 X9.8946 Y19.2286 
G01 X9.8245 Y19.0593 
G01 X9.7227 Y18.9069 
G01 X9.5931 Y18.7773 
G01 X9.4407 Y18.6755 
G01 X9.2714 Y18.6054 
G01 X9.0916 Y18.5696 
G01 X8.9084 Y18.5696 
G01 X8.7286 Y18.6054 
G01 X8.5593 Y18.6755 
G01 X8.4069 Y18.7773 
G01 X8.2773 Y18.9069 
G01 X8.1755 Y19.0593 
G01 X8.1054 Y19.2286 
G01 X8.0696 Y19.4084 
G01 X8.0696 Y19.5916 
G01 X8.1054 Y19.7714 
G01 X8.1755 Y19.9407 
G01 X8.2773 Y20.0931 
G01 X8.4069 Y20.2227 
G01 X8.5593 Y20.3245 
G01 X8.7286 Y20.3946 
G01 X8.9084 Y20.4304 
G01 X9.0916 Y20.4304 
G01 X9.1904 Y20.4108 
G01 X11.5746 Y22.7950 
G01 X11.5746 Y23.7136 
G01 X11.5920 Y23.7786 
G01 X11.6256 Y23.8368 
G01 X11.6732 Y23.8844 
G01 X11.7314 Y23.9180 
G01 X11.7964 Y23.9354 
G01 X12.6152 Y23.9354 
G01 X12.5544 Y23.9760 
G01 X12.4480 Y24.0824 
G01 X12.2058 Y24.3246 
G01 X11.7964 Y24.3246 
G01 X11.7314 Y24.3420 
G01 X11.6732 Y24.3756 
G01 X11.6256 Y24.4232 
G01 X11.5920 Y24.4814 
G01 X11.5746 Y24.5464 
G01 X11.5746 Y25.6136 
G01 X11.5920 Y25.6786 
G01 X11.6256 Y25.7368 
G01 X11.6732 Y25.7844 
G01 X11.7314 Y25.8180 
G01 X11.7666 Y25.8274 
G01 X11.7666 Y29.6880 
G01 X11.7959 Y29.8354 
G01 X11.8535 Y29.9744 
G01 X11.9370 Y30.0994 
G01 X13.1522 Y31.3146 
G01 X12.5350 Y31.3146 
G01 X10.1408 Y28.9204 
G01 X10.1604 Y28.8216 
G01 X10.1604 Y28.6384 
G01 X10.1246 Y28.4586 
G01 X10.0545 Y28.2893 
G01 X9.9527 Y28.1369 
G01 X9.8231 Y28.0073 
G01 X9.6707 Y27.9055 
G01 X9.5014 Y27.8354 
G01 X9.3216 Y27.7996 
G01 X9.1384 Y27.7996 
G01 X8.9586 Y27.8354 
G01 X8.7893 Y27.9055 
G01 X8.6369 Y28.0073 
G01 X8.5073 Y28.1369 
G01 X8.4055 Y28.2893 
G01 X8.3354 Y28.4586 
G01 X8.2996 Y28.6384 
G01 X8.2996 Y28.8216 
G01 X8.3354 Y29.0014 
G01 X8.4055 Y29.1707 
G01 X8.5073 Y29.3231 
G01 X8.6369 Y29.4527 
G01 X8.7893 Y29.5545 
G01 X8.9586 Y29.6246 
G01 X9.1384 Y29.6604 
G01 X9.3216 Y29.6604 
G01 X9.4204 Y29.6408 
G01 X11.5746 Y31.7950 
G01 X11.5746 Y32.6036 
G01 X11.5920 Y32.6686 
G01 X11.6256 Y32.7268 
G01 X11.6732 Y32.7744 
G01 X11.7314 Y32.8080 
G01 X11.7964 Y32.8254 
G01 X12.6152 Y32.8254 
G01 X12.5544 Y32.8660 
G01 X12.4480 Y32.9724 
G01 X12.2058 Y33.2146 
G01 X11.7964 Y33.2146 
G01 X11.7314 Y33.2320 
G01 X11.6732 Y33.2656 
G01 X11.6256 Y33.3132 
G01 X11.5920 Y33.3714 
G01 X11.5746 Y33.4364 
G01 X11.5746 Y34.5036 
G01 X11.5920 Y34.5686 
G01 X11.6256 Y34.6268 
G01 X11.6732 Y34.6744 
G01 X11.7314 Y34.7080 
G01 X11.7666 Y34.7174 
G01 X11.7666 Y37.9538 
G01 X11.5570 Y38.1634 
G01 X10.7031 Y39.0173 
G01 X10.6419 Y38.9764 
G01 X10.4568 Y38.8997 
G01 X10.2602 Y38.8606 
G01 X10.0598 Y38.8606 
G01 X9.8632 Y38.8997 
G01 X9.6781 Y38.9764 
G01 X9.5114 Y39.0877 
G01 X9.3697 Y39.2294 
G01 X9.2584 Y39.3961 
G01 X9.1817 Y39.5812 
G01 X9.1426 Y39.7778 
G01 X9.1426 Y41.5022 
G01 X9.1817 Y41.6988 
G01 X9.2584 Y41.8839 
G01 X9.3697 Y42.0506 
G01 X9.5114 Y42.1923 
G01 X9.6781 Y42.3036 
G01 X9.8632 Y42.3803 
G01 X10.0598 Y42.4194 
G01 X10.2602 Y42.4194 
G01 X10.4568 Y42.3803 
G01 X10.6419 Y42.3036 
G01 X10.8086 Y42.1923 
G01 X10.9503 Y42.0506 
G01 X11.0616 Y41.8839 
G01 X11.1383 Y41.6988 
G01 X11.1774 Y41.5022 
G01 X11.1774 Y40.7022 
G01 X12.3835 Y39.4961 
G01 X12.4329 Y39.5094 
G01 X12.5671 Y39.5094 
G01 X12.6966 Y39.4747 
G01 X12.8128 Y39.4076 
G01 X12.9076 Y39.3128 
G01 X12.9747 Y39.1966 
G01 X12.9853 Y39.1571 
G01 X13.0477 Y39.1133 
G01 X13.1337 Y39.0104 
G01 X13.1902 Y38.8888 
G01 X13.2133 Y38.7567 
G01 X13.2027 Y38.6373 
G01 X13.2065 Y38.6316 
G01 X13.2641 Y38.4927 
G01 X13.2934 Y38.3452 
G01 X13.2934 Y34.7174 
G01 X13.3286 Y34.7080 
G01 X13.3868 Y34.6744 
G01 X13.4344 Y34.6268 
G01 X13.4680 Y34.5686 
G01 X13.4854 Y34.5036 
G01 X13.4854 Y34.2224 
G01 X13.6734 Y34.2224 
G01 X13.8209 Y34.1931 
G01 X13.9598 Y34.1355 
G01 X14.0849 Y34.0520 
G01 X14.1912 Y33.9456 
G01 X14.6056 Y33.5312 
G01 X14.7120 Y33.4249 
G01 X14.7955 Y33.2998 
G01 X14.8531 Y33.1609 
G01 X14.8824 Y33.0134 
G01 X14.8824 Y31.1266 
G01 X14.8531 Y30.9791 
G01 X14.7955 Y30.8402 
G01 X14.7120 Y30.7151 
G01 X13.2934 Y29.2965 
G01 X13.2934 Y25.8274 
G01 X13.3286 Y25.8180 
G01 X13.3868 Y25.7844 
G01 X13.4344 Y25.7368 
G01 X13.4680 Y25.6786 
G01 X13.4854 Y25.6136 
G01 X13.4854 Y25.3324 
G01 X13.6734 Y25.3324 
G01 X13.8209 Y25.3031 
G01 X13.9598 Y25.2455 
G01 X14.0849 Y25.1620 
G01 X14.1912 Y25.0556 
G01 X14.6056 Y24.6412 
G01 X14.7120 Y24.5349 
G01 X14.7955 Y24.4098 
G01 X14.8531 Y24.2709 
G01 X14.8824 Y24.1234 
G01 X14.8824 Y22.2366 
G01 X14.8531 Y22.0891 
G01 X14.7955 Y21.9502 
G01 X14.7120 Y21.8251 
G01 X13.2934 Y20.4065 
G01 X13.2934 Y16.9374 
G01 X13.3286 Y16.9280 
G01 X13.3868 Y16.8944 
G01 X13.4344 Y16.8468 
G01 X13.4680 Y16.7886 
G01 X13.4854 Y16.7236 
G01 X13.4854 Y16.4424 
G01 X13.6734 Y16.4424 
G01 X13.8209 Y16.4131 
G01 X13.9598 Y16.3555 
G01 X14.0849 Y16.2720 
G01 X14.1912 Y16.1656 
G01 X14.6056 Y15.7512 
G01 X14.7120 Y15.6449 
G01 X14.7955 Y15.5198 
G01 X14.8531 Y15.3809 
G01 X14.8824 Y15.2334 
G01 X14.8824 Y14.0094 
G01 X15.5671 Y14.0094 
G01 X15.6966 Y13.9747 
G01 X15.8128 Y13.9076 
G01 X15.9076 Y13.8128 
G01 X17.3568 Y12.3636 
G01 X17.3826 Y12.3894 
G01 X18.1774 Y12.3894 
G01 X18.7394 Y11.8274 
G01 X18.7394 Y11.0326 
G01 X18.1774 Y10.4706 
G01 X17.3826 Y10.4706 
G01 X16.8206 Y11.0326 
G01 X16.8206 Y11.4590 
G01 X15.2890 Y12.9906 
G01 X14.7490 Y12.9906 
G01 X14.7120 Y12.9351 
G01 X13.2934 Y11.5166 
G01 X13.2934 Y8.0474 
G01 X13.3286 Y8.0380 
G01 X13.3868 Y8.0044 
G01 X13.4344 Y7.9568 
G01 X13.4680 Y7.8986 
G01 X13.4854 Y7.8336 
G01 X13.4854 Y7.5094 
G01 X18.0671 Y7.5094 
G01 X18.1966 Y7.4747 
G01 X18.3128 Y7.4076 
G01 X18.4076 Y7.3128 
G01 X20.6550 Y5.0654 
G01 X22.1436 Y5.0654 
G01 X22.2086 Y5.0480 
G01 X22.2668 Y5.0144 
G01 X22.3144 Y4.9668 
G01 X22.3480 Y4.9086 
G01 X22.3654 Y4.8436 
G01 X22.3654 Y2.7764 
G01 X22.3480 Y2.7114 
G01 X22.3144 Y2.6532 
G01 X22.2668 Y2.6056 
G01 X22.2086 Y2.5720 
G01 X22.1436 Y2.5546 
G01 X20.5764 Y2.5546 
G01 X20.5114 Y2.5720 
G01 X20.4532 Y2.6056 
G01 X20.4056 Y2.6532 
G01 X20.3720 Y2.7114 
G01 X20.3546 Y2.7764 
G01 X20.3546 Y3.9250 
G01 X17.7890 Y6.4906 
G01 X13.0556 Y6.4906 
G01 X13.0443 Y6.4881 
G01 X12.9887 Y6.4906 
G01 X12.9329 Y6.4906 
G01 X12.9218 Y6.4936 
G01 X12.9103 Y6.4941 
G01 X12.8572 Y6.5109 
G01 X12.8034 Y6.5253 
G01 X12.7934 Y6.5311 
G01 X12.7825 Y6.5345 
G01 X12.7667 Y6.5446 
G01 X12.6454 Y6.5446 
G01 X12.6052 Y6.5366 
G01 X12.4548 Y6.5366 
G01 X12.4146 Y6.5446 
G01 X11.7964 Y6.5446 
G01 X11.7314 Y6.5620 
G01 X11.6732 Y6.5956 
G01 X11.6256 Y6.6432 
G01 X11.5920 Y6.7014 
G01 X11.5746 Y6.7664 
G00 Z2.5400 
G00 X11.6732 Y6.1044 
G01 Z-0.1200 F100.00 
G01 X11.7314 Y6.1380 F230.00 
G01 X11.7964 Y6.1554 
G01 X13.2636 Y6.1554 
G01 X13.3286 Y6.1380 
G01 X13.3868 Y6.1044 
G01 X13.4344 Y6.0568 
G01 X13.4680 Y5.9986 
G01 X13.4854 Y5.9336 
G01 X13.4854 Y5.5094 
G01 X14.0671 Y5.5094 
G01 X14.1966 Y5.4747 
G01 X14.3128 Y5.4076 
G01 X14.4076 Y5.3128 
G01 X17.2110 Y2.5094 
G01 X26.4906 Y2.5094 
G01 X26.4906 Y11.5190 
G01 X26.3594 Y11.6502 
G01 X26.3594 Y11.0326 
G01 X25.7974 Y10.4706 
G01 X25.0026 Y10.4706 
G01 X24.4406 Y11.0326 
G01 X24.4406 Y11.8274 
G01 X25.0026 Y12.3894 
G01 X25.6202 Y12.3894 
G01 X18.1504 Y19.8592 
G01 X18.0516 Y19.8396 
G01 X17.8684 Y19.8396 
G01 X17.6886 Y19.8754 
G01 X17.5193 Y19.9455 
G01 X17.3669 Y20.0473 
G01 X17.2373 Y20.1769 
G01 X17.1355 Y20.3293 
G01 X17.0654 Y20.4986 
G01 X17.0296 Y20.6784 
G01 X17.0296 Y20.8616 
G01 X17.0654 Y21.0414 
G01 X17.1355 Y21.2107 
G01 X17.2373 Y21.3631 
G01 X17.3669 Y21.4927 
G01 X17.5193 Y21.5945 
G01 X17.6886 Y21.6646 
G01 X17.8684 Y21.7004 
G01 X18.0516 Y21.7004 
G01 X18.2314 Y21.6646 
G01 X18.4007 Y21.5945 
G01 X18.5531 Y21.4927 
G01 X18.6827 Y21.3631 
G01 X18.7845 Y21.2107 
G01 X18.8546 Y21.0414 
G01 X18.8904 Y20.8616 
G01 X18.8904 Y20.6784 
G01 X18.8708 Y20.5796 
G01 X27.3128 Y12.1376 
G01 X27.4076 Y12.0428 
G01 X27.4747 Y11.9266 
G01 X27.5094 Y11.7971 
G01 X27.5094 Y1.9329 
G01 X27.4747 Y1.8034 
G01 X27.4076 Y1.6872 
G01 X27.3128 Y1.5924 
G01 X27.1966 Y1.5253 
G01 X27.0671 Y1.4906 
G01 X16.9329 Y1.4906 
G01 X16.8034 Y1.5253 
G01 X16.6872 Y1.5924 
G01 X13.7890 Y4.4906 
G01 X13.0205 Y4.4906 
G01 X12.9740 Y4.4869 
G01 X12.9536 Y4.4906 
G01 X12.9329 Y4.4906 
G01 X12.8879 Y4.5027 
G01 X12.8421 Y4.5111 
G01 X12.8234 Y4.5200 
G01 X12.8034 Y4.5253 
G01 X12.7630 Y4.5486 
G01 X12.7209 Y4.5686 
G01 X12.7052 Y4.5820 
G01 X12.6872 Y4.5924 
G01 X12.6543 Y4.6253 
G01 X12.6316 Y4.6446 
G01 X11.7964 Y4.6446 
G01 X11.7314 Y4.6620 
G01 X11.6732 Y4.6956 
G01 X11.6256 Y4.7432 
G01 X11.5920 Y4.8014 
G01 X11.5746 Y4.8664 
G01 X11.5746 Y5.9336 
G01 X11.5920 Y5.9986 
G01 X11.6256 Y6.0568 
G01 X11.6732 Y6.1044 
G00 Z2.5400 
G00 X16.8206 Y8.4926 
G01 Z-0.1200 F100.00 
G01 X16.8206 Y9.2874 F230.00 
G01 X17.3826 Y9.8494 
G01 X18.1774 Y9.8494 
G01 X18.7394 Y9.2874 
G01 X18.7394 Y8.4926 
G01 X18.1774 Y7.9306 
G01 X17.3826 Y7.9306 
G01 X16.8206 Y8.4926 
G00 Z2.5400 
G00 X19.3606 Y8.4926 
G01 Z-0.1200 F100.00 
G01 X19.3606 Y9.2874 F230.00 
G01 X19.9226 Y9.8494 
G01 X20.7174 Y9.8494 
G01 X21.2794 Y9.2874 
G01 X21.2794 Y8.4926 
G01 X21.2536 Y8.4668 
G01 X21.7110 Y8.0094 
G01 X22.3838 Y8.0094 
G01 X21.9006 Y8.4926 
G01 X21.9006 Y9.2874 
G01 X22.4626 Y9.8494 
G01 X23.2574 Y9.8494 
G01 X23.8194 Y9.2874 
G01 X23.8194 Y8.4926 
G01 X23.3362 Y8.0094 
G01 X23.9906 Y8.0094 
G01 X23.9906 Y8.5671 
G01 X24.0253 Y8.6966 
G01 X24.0924 Y8.8128 
G01 X24.1872 Y8.9076 
G01 X24.3034 Y8.9747 
G01 X24.4329 Y9.0094 
G01 X24.4406 Y9.0094 
G01 X24.4406 Y9.2874 
G01 X25.0026 Y9.8494 
G01 X25.7974 Y9.8494 
G01 X26.3594 Y9.2874 
G01 X26.3594 Y8.4926 
G01 X25.7974 Y7.9306 
G01 X25.0094 Y7.9306 
G01 X25.0094 Y5.0654 
G01 X25.1436 Y5.0654 
G01 X25.2086 Y5.0480 
G01 X25.2668 Y5.0144 
G01 X25.3144 Y4.9668 
G01 X25.3480 Y4.9086 
G01 X25.3654 Y4.8436 
G01 X25.3654 Y2.7764 
G01 X25.3480 Y2.7114 
G01 X25.3144 Y2.6532 
G01 X25.2668 Y2.6056 
G01 X25.2086 Y2.5720 
G01 X25.1436 Y2.5546 
G01 X23.5764 Y2.5546 
G01 X23.5114 Y2.5720 
G01 X23.4532 Y2.6056 
G01 X23.4056 Y2.6532 
G01 X23.3720 Y2.7114 
G01 X23.3546 Y2.7764 
G01 X23.3546 Y4.8436 
G01 X23.3720 Y4.9086 
G01 X23.4056 Y4.9668 
G01 X23.4532 Y5.0144 
G01 X23.5114 Y5.0480 
G01 X23.5764 Y5.0654 
G01 X23.9906 Y5.0654 
G01 X23.9906 Y6.9906 
G01 X21.4329 Y6.9906 
G01 X21.3034 Y7.0253 
G01 X21.1872 Y7.0924 
G01 X21.0924 Y7.1872 
G01 X20.3490 Y7.9306 
G01 X19.9226 Y7.9306 
G01 X19.3606 Y8.4926 
G00 Z2.5400 
G00 X19.3606 Y11.0326 
G01 Z-0.1200 F100.00 
G01 X19.3606 Y11.8274 F230.00 
G01 X19.9226 Y12.3894 
G01 X20.7174 Y12.3894 
G01 X21.2794 Y11.8274 
G01 X21.2794 Y11.0326 
G01 X20.7174 Y10.4706 
G01 X19.9226 Y10.4706 
G01 X19.3606 Y11.0326 
G00 Z2.5400 
G00 X21.9006 Y11.0326 
G01 Z-0.1200 F100.00 
G01 X21.9006 Y11.8274 F230.00 
G01 X22.4626 Y12.3894 
G01 X23.2574 Y12.3894 
G01 X23.8194 Y11.8274 
G01 X23.8194 Y11.0326 
G01 X23.2574 Y10.4706 
G01 X22.4626 Y10.4706 
G01 X21.9006 Y11.0326 
G00 Z2.5400 
G00 X2.1652 Y4.3260 
G01 Z-0.1200 F100.00 
G01 X2.0581 Y4.4734 F230.00 
G01 X1.9754 Y4.6357 
G01 X1.9191 Y4.8090 
G01 X1.8906 Y4.9889 
G01 X1.8906 Y5.1711 
G01 X1.9191 Y5.3510 
G01 X1.9754 Y5.5243 
G01 X2.0581 Y5.6866 
G01 X2.1652 Y5.8340 
G01 X2.2940 Y5.9628 
G01 X2.4414 Y6.0699 
G01 X2.6037 Y6.1526 
G01 X2.7770 Y6.2089 
G01 X2.9569 Y6.2374 
G01 X4.6631 Y6.2374 
G01 X4.8430 Y6.2089 
G01 X5.0163 Y6.1526 
G01 X5.1786 Y6.0699 
G01 X5.2977 Y5.9834 
G01 X8.5158 Y5.9834 
G01 X9.2346 Y6.7022 
G01 X9.2346 Y6.9021 
G01 X9.2615 Y7.0026 
G01 X9.3136 Y7.0928 
G01 X9.3872 Y7.1664 
G01 X9.4774 Y7.2184 
G01 X9.5779 Y7.2454 
G01 X10.0308 Y7.2454 
G01 X10.0710 Y7.2534 
G01 X10.4190 Y7.2534 
G01 X10.4592 Y7.2454 
G01 X11.0821 Y7.2454 
G01 X11.1826 Y7.2184 
G01 X11.2728 Y7.1664 
G01 X11.3464 Y7.0928 
G01 X11.3985 Y7.0026 
G01 X11.4254 Y6.9021 
G01 X11.4254 Y5.7979 
G01 X11.3985 Y5.6974 
G01 X11.3464 Y5.6072 
G01 X11.2728 Y5.5336 
G01 X11.1826 Y5.4815 
G01 X11.0821 Y5.4546 
G01 X10.5422 Y5.4546 
G01 X9.4659 Y4.3783 
G01 X9.3179 Y4.2794 
G01 X9.1535 Y4.2113 
G01 X8.9790 Y4.1766 
G01 X5.2977 Y4.1766 
G01 X5.1786 Y4.0901 
G01 X5.0163 Y4.0074 
G01 X4.8430 Y3.9511 
G01 X4.6631 Y3.9226 
G01 X2.9569 Y3.9226 
G01 X2.7770 Y3.9511 
G01 X2.6037 Y4.0074 
G01 X2.4414 Y4.0901 
G01 X2.2940 Y4.1972 
G01 X2.1652 Y4.3260 
G00 Z2.5400 
G00 X2.3223 Y6.7166 
G01 Z-0.1200 F100.00 
G01 X1.1810 Y6.7166 F230.00 
G01 X1.0065 Y6.7513 
G01 X0.8421 Y6.8194 
G01 X0.6941 Y6.9183 
G01 X0.5683 Y7.0441 
G01 X0.4694 Y7.1921 
G01 X0.4013 Y7.3565 
G01 X0.3666 Y7.5310 
G01 X0.3666 Y34.3790 
G01 X0.4013 Y34.5535 
G01 X0.4694 Y34.7179 
G01 X0.5683 Y34.8659 
G01 X0.6941 Y34.9917 
G01 X0.8421 Y35.0906 
G01 X1.0065 Y35.1587 
G01 X1.1810 Y35.1934 
G01 X2.3223 Y35.1934 
G01 X2.4414 Y35.2799 
G01 X2.6037 Y35.3626 
G01 X2.7770 Y35.4189 
G01 X2.9066 Y35.4394 
G01 X2.9066 Y40.7290 
G01 X2.9413 Y40.9035 
G01 X3.0094 Y41.0679 
G01 X3.1083 Y41.2159 
G01 X3.2341 Y41.3417 
G01 X3.3821 Y41.4406 
G01 X3.5465 Y41.5087 
G01 X3.7210 Y41.5434 
G01 X6.4706 Y41.5434 
G01 X6.4911 Y41.6730 
G01 X6.5474 Y41.8463 
G01 X6.6301 Y42.0086 
G01 X6.7372 Y42.1560 
G01 X6.8660 Y42.2848 
G01 X7.0134 Y42.3919 
G01 X7.1757 Y42.4746 
G01 X7.3490 Y42.5309 
G01 X7.5289 Y42.5594 
G01 X7.7111 Y42.5594 
G01 X7.8910 Y42.5309 
G01 X8.0643 Y42.4746 
G01 X8.2266 Y42.3919 
G01 X8.3740 Y42.2848 
G01 X8.5028 Y42.1560 
G01 X8.6099 Y42.0086 
G01 X8.6926 Y41.8463 
G01 X8.7489 Y41.6730 
G01 X8.7774 Y41.4931 
G01 X8.7774 Y39.7869 
G01 X8.7489 Y39.6070 
G01 X8.6926 Y39.4337 
G01 X8.6099 Y39.2714 
G01 X8.5028 Y39.1240 
G01 X8.3740 Y38.9952 
G01 X8.2266 Y38.8881 
G01 X8.0643 Y38.8054 
G01 X7.8910 Y38.7491 
G01 X7.7111 Y38.7206 
G01 X7.5289 Y38.7206 
G01 X7.3490 Y38.7491 
G01 X7.1757 Y38.8054 
G01 X7.0134 Y38.8881 
G01 X6.8660 Y38.9952 
G01 X6.7372 Y39.1240 
G01 X6.6301 Y39.2714 
G01 X6.5474 Y39.4337 
G01 X6.4911 Y39.6070 
G01 X6.4706 Y39.7366 
G01 X4.7134 Y39.7366 
G01 X4.7134 Y35.4394 
G01 X4.8430 Y35.4189 
G01 X5.0163 Y35.3626 
G01 X5.1786 Y35.2799 
G01 X5.3260 Y35.1728 
G01 X5.4548 Y35.0440 
G01 X5.5619 Y34.8966 
G01 X5.6446 Y34.7343 
G01 X5.7009 Y34.5610 
G01 X5.7294 Y34.3811 
G01 X5.7294 Y34.1989 
G01 X5.7009 Y34.0190 
G01 X5.6446 Y33.8457 
G01 X5.5619 Y33.6834 
G01 X5.4548 Y33.5360 
G01 X5.3260 Y33.4072 
G01 X5.1786 Y33.3001 
G01 X5.0163 Y33.2174 
G01 X4.8430 Y33.1611 
G01 X4.6631 Y33.1326 
G01 X2.9569 Y33.1326 
G01 X2.7770 Y33.1611 
G01 X2.6037 Y33.2174 
G01 X2.4414 Y33.3001 
G01 X2.3223 Y33.3866 
G01 X2.1734 Y33.3866 
G01 X2.1734 Y32.5122 
G01 X2.2940 Y32.6328 
G01 X2.4414 Y32.7399 
G01 X2.6037 Y32.8226 
G01 X2.7770 Y32.8789 
G01 X2.9569 Y32.9074 
G01 X4.6631 Y32.9074 
G01 X4.8430 Y32.8789 
G01 X5.0163 Y32.8226 
G01 X5.1786 Y32.7399 
G01 X5.2977 Y32.6534 
G01 X8.6858 Y32.6534 
G01 X9.2346 Y33.2022 
G01 X9.2346 Y33.5721 
G01 X9.2615 Y33.6726 
G01 X9.3136 Y33.7628 
G01 X9.3872 Y33.8364 
G01 X9.4774 Y33.8884 
G01 X9.5779 Y33.9154 
G01 X10.2008 Y33.9154 
G01 X10.2410 Y33.9234 
G01 X10.4190 Y33.9234 
G01 X10.4592 Y33.9154 
G01 X11.0821 Y33.9154 
G01 X11.1826 Y33.8884 
G01 X11.2728 Y33.8364 
G01 X11.3464 Y33.7628 
G01 X11.3985 Y33.6726 
G01 X11.4254 Y33.5721 
G01 X11.4254 Y32.4679 
G01 X11.3985 Y32.3674 
G01 X11.3464 Y32.2772 
G01 X11.2728 Y32.2036 
G01 X11.1826 Y32.1515 
G01 X11.0821 Y32.1246 
G01 X10.7122 Y32.1246 
G01 X9.6359 Y31.0483 
G01 X9.4879 Y30.9494 
G01 X9.3235 Y30.8813 
G01 X9.1490 Y30.8466 
G01 X5.2977 Y30.8466 
G01 X5.1786 Y30.7601 
G01 X5.0163 Y30.6774 
G01 X4.8430 Y30.6211 
G01 X4.6631 Y30.5926 
G01 X2.9569 Y30.5926 
G01 X2.7770 Y30.6211 
G01 X2.6037 Y30.6774 
G01 X2.4414 Y30.7601 
G01 X2.2940 Y30.8672 
G01 X2.1734 Y30.9878 
G01 X2.1734 Y26.3034 
G01 X2.3223 Y26.3034 
G01 X2.4414 Y26.3899 
G01 X2.6037 Y26.4726 
G01 X2.7770 Y26.5289 
G01 X2.9569 Y26.5574 
G01 X4.6631 Y26.5574 
G01 X4.8430 Y26.5289 
G01 X5.0163 Y26.4726 
G01 X5.1786 Y26.3899 
G01 X5.3260 Y26.2828 
G01 X5.4548 Y26.1540 
G01 X5.5619 Y26.0066 
G01 X5.6446 Y25.8443 
G01 X5.7009 Y25.6710 
G01 X5.7294 Y25.4911 
G01 X5.7294 Y25.3089 
G01 X5.7009 Y25.1290 
G01 X5.6446 Y24.9557 
G01 X5.5619 Y24.7934 
G01 X5.4548 Y24.6460 
G01 X5.3260 Y24.5172 
G01 X5.1786 Y24.4101 
G01 X5.0163 Y24.3274 
G01 X4.8430 Y24.2711 
G01 X4.6631 Y24.2426 
G01 X2.9569 Y24.2426 
G01 X2.7770 Y24.2711 
G01 X2.6037 Y24.3274 
G01 X2.4414 Y24.4101 
G01 X2.3223 Y24.4966 
G01 X2.1734 Y24.4966 
G01 X2.1734 Y23.6222 
G01 X2.2940 Y23.7428 
G01 X2.4414 Y23.8499 
G01 X2.6037 Y23.9326 
G01 X2.7770 Y23.9889 
G01 X2.9569 Y24.0174 
G01 X4.6631 Y24.0174 
G01 X4.8430 Y23.9889 
G01 X5.0163 Y23.9326 
G01 X5.1786 Y23.8499 
G01 X5.2977 Y23.7634 
G01 X8.6858 Y23.7634 
G01 X9.2346 Y24.3122 
G01 X9.2346 Y24.6821 
G01 X9.2615 Y24.7826 
G01 X9.3136 Y24.8728 
G01 X9.3872 Y24.9464 
G01 X9.4774 Y24.9984 
G01 X9.5779 Y25.0254 
G01 X10.2008 Y25.0254 
G01 X10.2410 Y25.0334 
G01 X10.4190 Y25.0334 
G01 X10.4592 Y25.0254 
G01 X11.0821 Y25.0254 
G01 X11.1826 Y24.9984 
G01 X11.2728 Y24.9464 
G01 X11.3464 Y24.8728 
G01 X11.3985 Y24.7826 
G01 X11.4254 Y24.6821 
G01 X11.4254 Y23.5779 
G01 X11.3985 Y23.4774 
G01 X11.3464 Y23.3872 
G01 X11.2728 Y23.3136 
G01 X11.1826 Y23.2615 
G01 X11.0821 Y23.2346 
G01 X10.7122 Y23.2346 
G01 X9.6359 Y22.1583 
G01 X9.4879 Y22.0594 
G01 X9.3235 Y21.9913 
G01 X9.1490 Y21.9566 
G01 X5.2977 Y21.9566 
G01 X5.1786 Y21.8701 
G01 X5.0163 Y21.7874 
G01 X4.8430 Y21.7311 
G01 X4.6631 Y21.7026 
G01 X2.9569 Y21.7026 
G01 X2.7770 Y21.7311 
G01 X2.6037 Y21.7874 
G01 X2.4414 Y21.8701 
G01 X2.2940 Y21.9772 
G01 X2.1734 Y22.0978 
G01 X2.1734 Y17.4134 
G01 X2.3223 Y17.4134 
G01 X2.4414 Y17.4999 
G01 X2.6037 Y17.5826 
G01 X2.7770 Y17.6389 
G01 X2.9569 Y17.6674 
G01 X4.6631 Y17.6674 
G01 X4.8430 Y17.6389 
G01 X5.0163 Y17.5826 
G01 X5.1786 Y17.4999 
G01 X5.3260 Y17.3928 
G01 X5.4548 Y17.2640 
G01 X5.5619 Y17.1166 
G01 X5.6446 Y16.9543 
G01 X5.7009 Y16.7810 
G01 X5.7294 Y16.6011 
G01 X5.7294 Y16.4189 
G01 X5.7009 Y16.2390 
G01 X5.6446 Y16.0657 
G01 X5.5619 Y15.9034 
G01 X5.4548 Y15.7560 
G01 X5.3260 Y15.6272 
G01 X5.1786 Y15.5201 
G01 X5.0163 Y15.4374 
G01 X4.8430 Y15.3811 
G01 X4.6631 Y15.3526 
G01 X2.9569 Y15.3526 
G01 X2.7770 Y15.3811 
G01 X2.6037 Y15.4374 
G01 X2.4414 Y15.5201 
G01 X2.3223 Y15.6066 
G01 X2.1734 Y15.6066 
G01 X2.1734 Y14.7322 
G01 X2.2940 Y14.8528 
G01 X2.4414 Y14.9599 
G01 X2.6037 Y15.0426 
G01 X2.7770 Y15.0989 
G01 X2.9569 Y15.1274 
G01 X4.6631 Y15.1274 
G01 X4.8430 Y15.0989 
G01 X5.0163 Y15.0426 
G01 X5.1786 Y14.9599 
G01 X5.2977 Y14.8734 
G01 X8.6858 Y14.8734 
G01 X9.2346 Y15.4222 
G01 X9.2346 Y15.7921 
G01 X9.2615 Y15.8926 
G01 X9.3136 Y15.9828 
G01 X9.3872 Y16.0564 
G01 X9.4774 Y16.1085 
G01 X9.5779 Y16.1354 
G01 X10.2008 Y16.1354 
G01 X10.2410 Y16.1434 
G01 X10.4190 Y16.1434 
G01 X10.4592 Y16.1354 
G01 X11.0821 Y16.1354 
G01 X11.1826 Y16.1085 
G01 X11.2728 Y16.0564 
G01 X11.3464 Y15.9828 
G01 X11.3985 Y15.8926 
G01 X11.4254 Y15.7921 
G01 X11.4254 Y14.6879 
G01 X11.3985 Y14.5874 
G01 X11.3464 Y14.4972 
G01 X11.2728 Y14.4236 
G01 X11.1826 Y14.3715 
G01 X11.0821 Y14.3446 
G01 X10.7122 Y14.3446 
G01 X9.6359 Y13.2683 
G01 X9.4879 Y13.1694 
G01 X9.3235 Y13.1013 
G01 X9.1490 Y13.0666 
G01 X5.2977 Y13.0666 
G01 X5.1786 Y12.9801 
G01 X5.0163 Y12.8974 
G01 X4.8430 Y12.8411 
G01 X4.6631 Y12.8126 
G01 X2.9569 Y12.8126 
G01 X2.7770 Y12.8411 
G01 X2.6037 Y12.8974 
G01 X2.4414 Y12.9801 
G01 X2.2940 Y13.0872 
G01 X2.1734 Y13.2078 
G01 X2.1734 Y8.5234 
G01 X2.3223 Y8.5234 
G01 X2.4414 Y8.6099 
G01 X2.6037 Y8.6926 
G01 X2.7770 Y8.7489 
G01 X2.9569 Y8.7774 
G01 X4.6631 Y8.7774 
G01 X4.8430 Y8.7489 
G01 X5.0163 Y8.6926 
G01 X5.1786 Y8.6099 
G01 X5.3260 Y8.5028 
G01 X5.4548 Y8.3740 
G01 X5.5619 Y8.2266 
G01 X5.6446 Y8.0643 
G01 X5.7009 Y7.8910 
G01 X5.7294 Y7.7111 
G01 X5.7294 Y7.5289 
G01 X5.7009 Y7.3490 
G01 X5.6446 Y7.1757 
G01 X5.5619 Y7.0134 
G01 X5.4548 Y6.8660 
G01 X5.3260 Y6.7372 
G01 X5.1786 Y6.6301 
G01 X5.0163 Y6.5474 
G01 X4.8430 Y6.4911 
G01 X4.6631 Y6.4626 
G01 X2.9569 Y6.4626 
G01 X2.7770 Y6.4911 
G01 X2.6037 Y6.5474 
G01 X2.4414 Y6.6301 
G01 X2.3223 Y6.7166 
G00 Z2.5400 
G00 X11.4346 Y6.7479 
G01 Z-0.1200 F100.00 
G01 X11.4346 Y7.8521 F230.00 
G01 X11.4615 Y7.9526 
G01 X11.5136 Y8.0428 
G01 X11.5872 Y8.1164 
G01 X11.6266 Y8.1391 
G01 X11.6266 Y11.9217 
G01 X11.6613 Y12.0963 
G01 X11.7294 Y12.2607 
G01 X11.8283 Y12.4086 
G01 X12.8142 Y13.3946 
G01 X12.3130 Y13.3946 
G01 X11.1494 Y12.2310 
G01 X11.1494 Y10.8113 
G01 X11.1973 Y10.7765 
G01 X11.3165 Y10.6573 
G01 X11.4155 Y10.5210 
G01 X11.4920 Y10.3709 
G01 X11.5440 Y10.2107 
G01 X11.5704 Y10.0442 
G01 X11.5704 Y9.8758 
G01 X11.5440 Y9.7093 
G01 X11.4920 Y9.5491 
G01 X11.4155 Y9.3990 
G01 X11.3165 Y9.2627 
G01 X11.1973 Y9.1435 
G01 X11.0610 Y9.0445 
G01 X10.9109 Y8.9680 
G01 X10.7507 Y8.9160 
G01 X10.5842 Y8.8896 
G01 X10.4158 Y8.8896 
G01 X10.2493 Y8.9160 
G01 X10.0891 Y8.9680 
G01 X9.9390 Y9.0445 
G01 X9.8027 Y9.1435 
G01 X9.6835 Y9.2627 
G01 X9.5845 Y9.3990 
G01 X9.5080 Y9.5491 
G01 X9.4560 Y9.7093 
G01 X9.4296 Y9.8758 
G01 X9.4296 Y10.0442 
G01 X9.4560 Y10.2107 
G01 X9.5080 Y10.3709 
G01 X9.5845 Y10.5210 
G01 X9.6835 Y10.6573 
G01 X9.8027 Y10.7765 
G01 X9.8506 Y10.8113 
G01 X9.8506 Y12.5640 
G01 X9.8756 Y12.6894 
G01 X9.9245 Y12.8076 
G01 X9.9956 Y12.9140 
G01 X10.0860 Y13.0044 
G01 X11.4346 Y14.3530 
G01 X11.4346 Y14.8421 
G01 X11.4615 Y14.9426 
G01 X11.5136 Y15.0328 
G01 X11.5872 Y15.1064 
G01 X11.6774 Y15.1585 
G01 X11.7779 Y15.1854 
G01 X12.2570 Y15.1854 
G01 X12.1478 Y15.2946 
G01 X11.7779 Y15.2946 
G01 X11.6774 Y15.3215 
G01 X11.5872 Y15.3736 
G01 X11.5136 Y15.4472 
G01 X11.4615 Y15.5374 
G01 X11.4346 Y15.6379 
G01 X11.4346 Y16.7421 
G01 X11.4615 Y16.8426 
G01 X11.5136 Y16.9328 
G01 X11.5872 Y17.0064 
G01 X11.6266 Y17.0291 
G01 X11.6266 Y20.8117 
G01 X11.6613 Y20.9863 
G01 X11.7294 Y21.1507 
G01 X11.8283 Y21.2986 
G01 X12.8142 Y22.2846 
G01 X12.7030 Y22.2846 
G01 X10.0611 Y19.6427 
G01 X10.0704 Y19.5842 
G01 X10.0704 Y19.4158 
G01 X10.0440 Y19.2493 
G01 X9.9920 Y19.0891 
G01 X9.9155 Y18.9390 
G01 X9.8165 Y18.8027 
G01 X9.6973 Y18.6835 
G01 X9.5610 Y18.5845 
G01 X9.4109 Y18.5080 
G01 X9.2507 Y18.4560 
G01 X9.0842 Y18.4296 
G01 X8.9158 Y18.4296 
G01 X8.7493 Y18.4560 
G01 X8.5891 Y18.5080 
G01 X8.4390 Y18.5845 
G01 X8.3027 Y18.6835 
G01 X8.1835 Y18.8027 
G01 X8.0845 Y18.9390 
G01 X8.0080 Y19.0891 
G01 X7.9560 Y19.2493 
G01 X7.9296 Y19.4158 
G01 X7.9296 Y19.5842 
G01 X7.9560 Y19.7507 
G01 X8.0080 Y19.9109 
G01 X8.0845 Y20.0610 
G01 X8.1835 Y20.1973 
G01 X8.3027 Y20.3165 
G01 X8.4390 Y20.4155 
G01 X8.5891 Y20.4920 
G01 X8.7493 Y20.5440 
G01 X8.9158 Y20.5704 
G01 X9.0842 Y20.5704 
G01 X9.1427 Y20.5611 
G01 X11.4346 Y22.8530 
G01 X11.4346 Y23.7321 
G01 X11.4615 Y23.8326 
G01 X11.5136 Y23.9228 
G01 X11.5872 Y23.9964 
G01 X11.6774 Y24.0484 
G01 X11.7779 Y24.0754 
G01 X12.2570 Y24.0754 
G01 X12.1478 Y24.1846 
G01 X11.7779 Y24.1846 
G01 X11.6774 Y24.2115 
G01 X11.5872 Y24.2636 
G01 X11.5136 Y24.3372 
G01 X11.4615 Y24.4274 
G01 X11.4346 Y24.5279 
G01 X11.4346 Y25.6321 
G01 X11.4615 Y25.7326 
G01 X11.5136 Y25.8228 
G01 X11.5872 Y25.8964 
G01 X11.6266 Y25.9191 
G01 X11.6266 Y29.7017 
G01 X11.6613 Y29.8763 
G01 X11.7294 Y30.0407 
G01 X11.8283 Y30.1886 
G01 X12.8142 Y31.1746 
G01 X12.5930 Y31.1746 
G01 X10.2911 Y28.8727 
G01 X10.3004 Y28.8142 
G01 X10.3004 Y28.6458 
G01 X10.2740 Y28.4793 
G01 X10.2220 Y28.3191 
G01 X10.1455 Y28.1690 
G01 X10.0465 Y28.0327 
G01 X9.9273 Y27.9135 
G01 X9.7910 Y27.8145 
G01 X9.6409 Y27.7380 
G01 X9.4807 Y27.6860 
G01 X9.3142 Y27.6596 
G01 X9.1458 Y27.6596 
G01 X8.9793 Y27.6860 
G01 X8.8191 Y27.7380 
G01 X8.6690 Y27.8145 
G01 X8.5327 Y27.9135 
G01 X8.4135 Y28.0327 
G01 X8.3145 Y28.1690 
G01 X8.2380 Y28.3191 
G01 X8.1860 Y28.4793 
G01 X8.1596 Y28.6458 
G01 X8.1596 Y28.8142 
G01 X8.1860 Y28.9807 
G01 X8.2380 Y29.1409 
G01 X8.3145 Y29.2910 
G01 X8.4135 Y29.4273 
G01 X8.5327 Y29.5465 
G01 X8.6690 Y29.6455 
G01 X8.8191 Y29.7220 
G01 X8.9793 Y29.7740 
G01 X9.1458 Y29.8004 
G01 X9.3142 Y29.8004 
G01 X9.3727 Y29.7911 
G01 X11.4346 Y31.8530 
G01 X11.4346 Y32.6221 
G01 X11.4615 Y32.7226 
G01 X11.5136 Y32.8128 
G01 X11.5872 Y32.8864 
G01 X11.6774 Y32.9385 
G01 X11.7779 Y32.9654 
G01 X12.2570 Y32.9654 
G01 X12.1478 Y33.0746 
G01 X11.7779 Y33.0746 
G01 X11.6774 Y33.1015 
G01 X11.5872 Y33.1536 
G01 X11.5136 Y33.2272 
G01 X11.4615 Y33.3174 
G01 X11.4346 Y33.4179 
G01 X11.4346 Y34.5221 
G01 X11.4615 Y34.6226 
G01 X11.5136 Y34.7128 
G01 X11.5872 Y34.7864 
G01 X11.6266 Y34.8091 
G01 X11.6266 Y37.8958 
G01 X11.4483 Y38.0741 
G01 X10.6790 Y38.8434 
G01 X10.6043 Y38.8054 
G01 X10.4310 Y38.7491 
G01 X10.2511 Y38.7206 
G01 X10.0689 Y38.7206 
G01 X9.8890 Y38.7491 
G01 X9.7157 Y38.8054 
G01 X9.5534 Y38.8881 
G01 X9.4060 Y38.9952 
G01 X9.2772 Y39.1240 
G01 X9.1701 Y39.2714 
G01 X9.0874 Y39.4337 
G01 X9.0311 Y39.6070 
G01 X9.0026 Y39.7869 
G01 X9.0026 Y41.4931 
G01 X9.0311 Y41.6730 
G01 X9.0874 Y41.8463 
G01 X9.1701 Y42.0086 
G01 X9.2772 Y42.1560 
G01 X9.4060 Y42.2848 
G01 X9.5534 Y42.3919 
G01 X9.7157 Y42.4746 
G01 X9.8890 Y42.5309 
G01 X10.0689 Y42.5594 
G01 X10.2511 Y42.5594 
G01 X10.4310 Y42.5309 
G01 X10.6043 Y42.4746 
G01 X10.7666 Y42.3919 
G01 X10.9140 Y42.2848 
G01 X11.0428 Y42.1560 
G01 X11.1499 Y42.0086 
G01 X11.2326 Y41.8463 
G01 X11.2889 Y41.6730 
G01 X11.3174 Y41.4931 
G01 X11.3174 Y40.7602 
G01 X12.4295 Y39.6481 
G01 X12.4360 Y39.6494 
G01 X12.5640 Y39.6494 
G01 X12.6894 Y39.6244 
G01 X12.8076 Y39.5755 
G01 X12.9140 Y39.5044 
G01 X13.0044 Y39.4140 
G01 X13.0755 Y39.3076 
G01 X13.0994 Y39.2500 
G01 X13.1865 Y39.1699 
G01 X13.2620 Y39.0666 
G01 X13.3159 Y38.9506 
G01 X13.3461 Y38.8263 
G01 X13.3515 Y38.6985 
G01 X13.3457 Y38.6613 
G01 X13.3987 Y38.5335 
G01 X13.4334 Y38.3590 
G01 X13.4334 Y34.8091 
G01 X13.4728 Y34.7864 
G01 X13.5464 Y34.7128 
G01 X13.5984 Y34.6226 
G01 X13.6254 Y34.5221 
G01 X13.6254 Y34.3624 
G01 X13.6872 Y34.3624 
G01 X13.8618 Y34.3277 
G01 X14.0262 Y34.2596 
G01 X14.1741 Y34.1607 
G01 X14.3000 Y34.0349 
G01 X14.6949 Y33.6400 
G01 X14.8207 Y33.5141 
G01 X14.9196 Y33.3662 
G01 X14.9877 Y33.2017 
G01 X15.0224 Y33.0272 
G01 X15.0224 Y31.1128 
G01 X14.9877 Y30.9382 
G01 X14.9196 Y30.7738 
G01 X14.8207 Y30.6259 
G01 X13.4334 Y29.2386 
G01 X13.4334 Y25.9191 
G01 X13.4728 Y25.8964 
G01 X13.5464 Y25.8228 
G01 X13.5984 Y25.7326 
G01 X13.6254 Y25.6321 
G01 X13.6254 Y25.4724 
G01 X13.6872 Y25.4724 
G01 X13.8618 Y25.4377 
G01 X14.0262 Y25.3696 
G01 X14.1741 Y25.2707 
G01 X14.3000 Y25.1449 
G01 X14.6949 Y24.7500 
G01 X14.8207 Y24.6241 
G01 X14.9196 Y24.4762 
G01 X14.9877 Y24.3117 
G01 X15.0224 Y24.1372 
G01 X15.0224 Y22.2228 
G01 X14.9877 Y22.0482 
G01 X14.9196 Y21.8838 
G01 X14.8207 Y21.7359 
G01 X13.4334 Y20.3486 
G01 X13.4334 Y17.0291 
G01 X13.4728 Y17.0064 
G01 X13.5464 Y16.9328 
G01 X13.5984 Y16.8426 
G01 X13.6254 Y16.7421 
G01 X13.6254 Y16.5824 
G01 X13.6872 Y16.5824 
G01 X13.8618 Y16.5477 
G01 X14.0262 Y16.4796 
G01 X14.1741 Y16.3807 
G01 X14.3000 Y16.2549 
G01 X14.6949 Y15.8600 
G01 X14.8207 Y15.7341 
G01 X14.9196 Y15.5862 
G01 X14.9877 Y15.4217 
G01 X15.0224 Y15.2472 
G01 X15.0224 Y14.1494 
G01 X15.5640 Y14.1494 
G01 X15.6894 Y14.1244 
G01 X15.8076 Y14.0755 
G01 X15.9140 Y14.0044 
G01 X16.0044 Y13.9140 
G01 X17.3890 Y12.5294 
G01 X18.2354 Y12.5294 
G01 X18.8794 Y11.8854 
G01 X18.8794 Y10.9746 
G01 X18.2354 Y10.3306 
G01 X17.3246 Y10.3306 
G01 X16.6806 Y10.9746 
G01 X16.6806 Y11.4010 
G01 X15.2310 Y12.8506 
G01 X14.8239 Y12.8506 
G01 X14.8207 Y12.8459 
G01 X13.4334 Y11.4586 
G01 X13.4334 Y8.1391 
G01 X13.4728 Y8.1164 
G01 X13.5464 Y8.0428 
G01 X13.5984 Y7.9526 
G01 X13.6254 Y7.8521 
G01 X13.6254 Y7.6494 
G01 X18.0640 Y7.6494 
G01 X18.1894 Y7.6244 
G01 X18.3076 Y7.5755 
G01 X18.4140 Y7.5044 
G01 X18.5044 Y7.4140 
G01 X20.7130 Y5.2054 
G01 X22.1621 Y5.2054 
G01 X22.2626 Y5.1784 
G01 X22.3528 Y5.1264 
G01 X22.4264 Y5.0528 
G01 X22.4784 Y4.9626 
G01 X22.5054 Y4.8621 
G01 X22.5054 Y2.7579 
G01 X22.4784 Y2.6574 
G01 X22.4738 Y2.6494 
G01 X23.2462 Y2.6494 
G01 X23.2415 Y2.6574 
G01 X23.2146 Y2.7579 
G01 X23.2146 Y4.8621 
G01 X23.2415 Y4.9626 
G01 X23.2936 Y5.0528 
G01 X23.3672 Y5.1264 
G01 X23.4574 Y5.1784 
G01 X23.5579 Y5.2054 
G01 X23.8506 Y5.2054 
G01 X23.8506 Y6.8506 
G01 X21.4360 Y6.8506 
G01 X21.3106 Y6.8756 
G01 X21.1924 Y6.9245 
G01 X21.0860 Y6.9956 
G01 X20.9956 Y7.0860 
G01 X20.2910 Y7.7906 
G01 X19.8646 Y7.7906 
G01 X19.2206 Y8.4346 
G01 X19.2206 Y9.3454 
G01 X19.8646 Y9.9894 
G01 X20.7754 Y9.9894 
G01 X21.4194 Y9.3454 
G01 X21.4194 Y8.4990 
G01 X21.7690 Y8.1494 
G01 X22.0458 Y8.1494 
G01 X21.7606 Y8.4346 
G01 X21.7606 Y9.3454 
G01 X22.4046 Y9.9894 
G01 X23.3154 Y9.9894 
G01 X23.9594 Y9.3454 
G01 X23.9594 Y8.8598 
G01 X23.9956 Y8.9140 
G01 X24.0860 Y9.0044 
G01 X24.1924 Y9.0755 
G01 X24.3006 Y9.1203 
G01 X24.3006 Y9.3454 
G01 X24.9446 Y9.9894 
G01 X25.8554 Y9.9894 
G01 X26.3506 Y9.4942 
G01 X26.3506 Y10.8258 
G01 X25.8554 Y10.3306 
G01 X24.9446 Y10.3306 
G01 X24.3006 Y10.9746 
G01 X24.3006 Y11.8854 
G01 X24.9446 Y12.5294 
G01 X25.2822 Y12.5294 
G01 X18.1027 Y19.7089 
G01 X18.0442 Y19.6996 
G01 X17.8758 Y19.6996 
G01 X17.7093 Y19.7260 
G01 X17.5491 Y19.7780 
G01 X17.3990 Y19.8545 
G01 X17.2627 Y19.9535 
G01 X17.1435 Y20.0727 
G01 X17.0445 Y20.2090 
G01 X16.9680 Y20.3591 
G01 X16.9160 Y20.5193 
G01 X16.8896 Y20.6858 
G01 X16.8896 Y20.8542 
G01 X16.9160 Y21.0207 
G01 X16.9680 Y21.1809 
G01 X17.0445 Y21.3310 
G01 X17.1435 Y21.4673 
G01 X17.2627 Y21.5865 
G01 X17.3990 Y21.6855 
G01 X17.5491 Y21.7620 
G01 X17.7093 Y21.8140 
G01 X17.8758 Y21.8404 
G01 X18.0442 Y21.8404 
G01 X18.2107 Y21.8140 
G01 X18.3709 Y21.7620 
G01 X18.5210 Y21.6855 
G01 X18.6573 Y21.5865 
G01 X18.7765 Y21.4673 
G01 X18.8755 Y21.3310 
G01 X18.9520 Y21.1809 
G01 X19.0040 Y21.0207 
G01 X19.0304 Y20.8542 
G01 X19.0304 Y20.6858 
G01 X19.0211 Y20.6273 
G01 X27.4140 Y12.2344 
G01 X27.5044 Y12.1440 
G01 X27.5755 Y12.0376 
G01 X27.6244 Y11.9194 
G01 X27.6494 Y11.7940 
G01 X27.6494 Y1.9360 
G01 X27.6244 Y1.8106 
G01 X27.5755 Y1.6924 
G01 X27.5044 Y1.5860 
G01 X27.4140 Y1.4956 
G01 X27.3076 Y1.4245 
G01 X27.1894 Y1.3756 
G01 X27.0640 Y1.3506 
G01 X16.9360 Y1.3506 
G01 X16.8106 Y1.3756 
G01 X16.6924 Y1.4245 
G01 X16.5860 Y1.4956 
G01 X13.7310 Y4.3506 
G01 X13.0261 Y4.3506 
G01 X12.9883 Y4.3476 
G01 X12.9623 Y4.3506 
G01 X12.9360 Y4.3506 
G01 X12.8989 Y4.3580 
G01 X12.8613 Y4.3624 
G01 X12.8363 Y4.3704 
G01 X12.8106 Y4.3756 
G01 X12.7756 Y4.3901 
G01 X12.7395 Y4.4017 
G01 X12.7166 Y4.4145 
G01 X12.6924 Y4.4245 
G01 X12.6609 Y4.4456 
G01 X12.6278 Y4.4640 
G01 X12.6078 Y4.4810 
G01 X12.5860 Y4.4956 
G01 X12.5770 Y4.5046 
G01 X11.7779 Y4.5046 
G01 X11.6774 Y4.5315 
G01 X11.5872 Y4.5836 
G01 X11.5136 Y4.6572 
G01 X11.4615 Y4.7474 
G01 X11.4346 Y4.8479 
G01 X11.4346 Y5.9521 
G01 X11.4615 Y6.0526 
G01 X11.5136 Y6.1428 
G01 X11.5872 Y6.2164 
G01 X11.6774 Y6.2684 
G01 X11.7779 Y6.2954 
G01 X13.2821 Y6.2954 
G01 X13.3826 Y6.2684 
G01 X13.4728 Y6.2164 
G01 X13.5464 Y6.1428 
G01 X13.5984 Y6.0526 
G01 X13.6254 Y5.9521 
G01 X13.6254 Y5.6494 
G01 X14.0640 Y5.6494 
G01 X14.1894 Y5.6244 
G01 X14.3076 Y5.5755 
G01 X14.4140 Y5.5044 
G01 X14.5044 Y5.4140 
G01 X17.2690 Y2.6494 
G01 X20.2462 Y2.6494 
G01 X20.2415 Y2.6574 
G01 X20.2146 Y2.7579 
G01 X20.2146 Y3.8670 
G01 X17.7310 Y6.3506 
G01 X13.0068 Y6.3506 
G01 X12.9497 Y6.3494 
G01 X12.9429 Y6.3506 
G01 X12.9360 Y6.3506 
G01 X12.8800 Y6.3617 
G01 X12.8237 Y6.3717 
G01 X12.8173 Y6.3742 
G01 X12.8106 Y6.3756 
G01 X12.7578 Y6.3974 
G01 X12.7394 Y6.4046 
G01 X12.6592 Y6.4046 
G01 X12.6190 Y6.3966 
G01 X12.4410 Y6.3966 
G01 X12.4008 Y6.4046 
G01 X11.7779 Y6.4046 
G01 X11.6774 Y6.4315 
G01 X11.5872 Y6.4836 
G01 X11.5136 Y6.5572 
G01 X11.4615 Y6.6474 
G01 X11.4346 Y6.7479 
G00 Z2.5400 
G00 X16.6806 Y8.4346 
G01 Z-0.1200 F100.00 
G01 X16.6806 Y9.3454 F230.00 
G01 X17.3246 Y9.9894 
G01 X18.2354 Y9.9894 
G01 X18.8794 Y9.3454 
G01 X18.8794 Y8.4346 
G01 X18.2354 Y7.7906 
G01 X17.3246 Y7.7906 
G01 X16.6806 Y8.4346 
G00 Z2.5400 
G00 X19.2206 Y10.9746 
G01 Z-0.1200 F100.00 
G01 X19.2206 Y11.8854 F230.00 
G01 X19.8646 Y12.5294 
G01 X20.7754 Y12.5294 
G01 X21.4194 Y11.8854 
G01 X21.4194 Y10.9746 
G01 X20.7754 Y10.3306 
G01 X19.8646 Y10.3306 
G01 X19.2206 Y10.9746 
G00 Z2.5400 
G00 X21.7606 Y10.9746 
G01 Z-0.1200 F100.00 
G01 X21.7606 Y11.8854 F230.00 
G01 X22.4046 Y12.5294 
G01 X23.3154 Y12.5294 
G01 X23.9594 Y11.8854 
G01 X23.9594 Y10.9746 
G01 X23.3154 Y10.3306 
G01 X22.4046 Y10.3306 
G01 X21.7606 Y10.9746 
G00 Z2.5400 
G00 X23.8506 Y8.3258 
G01 Z-0.1200 F100.00 
G01 X23.6742 Y8.1494 F230.00 
G01 X23.8506 Y8.1494 
G01 X23.8506 Y8.3258 
G00 Z2.5400 
G00 X25.1494 Y7.7906 
G01 Z-0.1200 F100.00 
G01 X25.1494 Y5.2054 F230.00 
G01 X25.1621 Y5.2054 
G01 X25.2626 Y5.1784 
G01 X25.3528 Y5.1264 
G01 X25.4264 Y5.0528 
G01 X25.4784 Y4.9626 
G01 X25.5054 Y4.8621 
G01 X25.5054 Y2.7579 
G01 X25.4784 Y2.6574 
G01 X25.4738 Y2.6494 
G01 X26.3506 Y2.6494 
G01 X26.3506 Y8.2858 
G01 X25.8554 Y7.7906 
G01 X25.1494 Y7.7906 
G00 Z2.5400 
G00 X2.0584 Y4.2348 
G01 Z-0.1200 F100.00 
G01 X1.9384 Y4.4000 F230.00 
G01 X1.8457 Y4.5820 
G01 X1.7825 Y4.7762 
G01 X1.7506 Y4.9779 
G01 X1.7506 Y5.1821 
G01 X1.7825 Y5.3838 
G01 X1.8457 Y5.5780 
G01 X1.9384 Y5.7600 
G01 X2.0584 Y5.9252 
G01 X2.2028 Y6.0696 
G01 X2.3680 Y6.1896 
G01 X2.5500 Y6.2823 
G01 X2.7442 Y6.3454 
G01 X2.7729 Y6.3500 
G01 X2.7442 Y6.3545 
G01 X2.5500 Y6.4177 
G01 X2.3680 Y6.5104 
G01 X2.2768 Y6.5766 
G01 X1.1879 Y6.5766 
G01 X1.0257 Y6.6023 
G01 X0.8695 Y6.6530 
G01 X0.7231 Y6.7276 
G01 X0.5903 Y6.8241 
G01 X0.4741 Y6.9403 
G01 X0.3776 Y7.0731 
G01 X0.3030 Y7.2195 
G01 X0.2523 Y7.3757 
G01 X0.2266 Y7.5379 
G01 X0.2266 Y34.3721 
G01 X0.2523 Y34.5343 
G01 X0.3030 Y34.6905 
G01 X0.3776 Y34.8369 
G01 X0.4741 Y34.9697 
G01 X0.5903 Y35.0859 
G01 X0.7231 Y35.1824 
G01 X0.8695 Y35.2570 
G01 X1.0257 Y35.3077 
G01 X1.1879 Y35.3334 
G01 X2.2768 Y35.3334 
G01 X2.3680 Y35.3996 
G01 X2.5500 Y35.4923 
G01 X2.7442 Y35.5555 
G01 X2.7666 Y35.5590 
G01 X2.7666 Y40.7221 
G01 X2.7923 Y40.8843 
G01 X2.8430 Y41.0405 
G01 X2.9176 Y41.1869 
G01 X3.0141 Y41.3197 
G01 X3.1303 Y41.4359 
G01 X3.2631 Y41.5324 
G01 X3.4095 Y41.6070 
G01 X3.5657 Y41.6577 
G01 X3.7279 Y41.6834 
G01 X6.3510 Y41.6834 
G01 X6.3545 Y41.7058 
G01 X6.4177 Y41.9000 
G01 X6.5104 Y42.0820 
G01 X6.6304 Y42.2472 
G01 X6.7748 Y42.3916 
G01 X6.9400 Y42.5116 
G01 X7.1220 Y42.6043 
G01 X7.3162 Y42.6675 
G01 X7.5179 Y42.6994 
G01 X7.7221 Y42.6994 
G01 X7.9238 Y42.6675 
G01 X8.1180 Y42.6043 
G01 X8.3000 Y42.5116 
G01 X8.4652 Y42.3916 
G01 X8.6096 Y42.2472 
G01 X8.7296 Y42.0820 
G01 X8.8223 Y41.9000 
G01 X8.8855 Y41.7058 
G01 X8.8900 Y41.6771 
G01 X8.8945 Y41.7058 
G01 X8.9577 Y41.9000 
G01 X9.0504 Y42.0820 
G01 X9.1704 Y42.2472 
G01 X9.3148 Y42.3916 
G01 X9.4800 Y42.5116 
G01 X9.6620 Y42.6043 
G01 X9.8562 Y42.6675 
G01 X10.0579 Y42.6994 
G01 X10.2621 Y42.6994 
G01 X10.4638 Y42.6675 
G01 X10.6580 Y42.6043 
G01 X10.8400 Y42.5116 
G01 X11.0052 Y42.3916 
G01 X11.1496 Y42.2472 
G01 X11.2696 Y42.0820 
G01 X11.3623 Y41.9000 
G01 X11.4254 Y41.7058 
G01 X11.4574 Y41.5041 
G01 X11.4574 Y40.8182 
G01 X12.4862 Y39.7894 
G01 X12.5777 Y39.7894 
G01 X12.7303 Y39.7591 
G01 X12.8739 Y39.6996 
G01 X13.0032 Y39.6132 
G01 X13.1132 Y39.5032 
G01 X13.1996 Y39.3739 
G01 X13.2169 Y39.3321 
G01 X13.2914 Y39.2636 
G01 X13.3832 Y39.1381 
G01 X13.4487 Y38.9971 
G01 X13.4854 Y38.8460 
G01 X13.4920 Y38.6906 
G01 X13.4907 Y38.6827 
G01 X13.4970 Y38.6705 
G01 X13.5477 Y38.5143 
G01 X13.5734 Y38.3521 
G01 X13.5734 Y34.8838 
G01 X13.6584 Y34.7987 
G01 X13.7289 Y34.6767 
G01 X13.7654 Y34.5405 
G01 X13.7654 Y34.4889 
G01 X13.8426 Y34.4767 
G01 X13.9988 Y34.4260 
G01 X14.1451 Y34.3514 
G01 X14.2780 Y34.2549 
G01 X14.3941 Y34.1387 
G01 X14.7987 Y33.7341 
G01 X14.9149 Y33.6180 
G01 X15.0114 Y33.4851 
G01 X15.0860 Y33.3388 
G01 X15.1367 Y33.1826 
G01 X15.1624 Y33.0204 
G01 X15.1624 Y31.1196 
G01 X15.1367 Y30.9574 
G01 X15.0860 Y30.8012 
G01 X15.0114 Y30.6549 
G01 X14.9149 Y30.5220 
G01 X13.5734 Y29.1806 
G01 X13.5734 Y25.9938 
G01 X13.6584 Y25.9087 
G01 X13.7289 Y25.7867 
G01 X13.7654 Y25.6505 
G01 X13.7654 Y25.5989 
G01 X13.8426 Y25.5867 
G01 X13.9988 Y25.5360 
G01 X14.1451 Y25.4614 
G01 X14.2780 Y25.3649 
G01 X14.3941 Y25.2487 
G01 X14.7987 Y24.8441 
G01 X14.9149 Y24.7280 
G01 X15.0114 Y24.5951 
G01 X15.0860 Y24.4488 
G01 X15.1367 Y24.2926 
G01 X15.1624 Y24.1304 
G01 X15.1624 Y22.2296 
G01 X15.1367 Y22.0674 
G01 X15.0860 Y21.9112 
G01 X15.0114 Y21.7649 
G01 X14.9149 Y21.6320 
G01 X13.5734 Y20.2906 
G01 X13.5734 Y17.1038 
G01 X13.6584 Y17.0187 
G01 X13.7289 Y16.8967 
G01 X13.7654 Y16.7605 
G01 X13.7654 Y16.7089 
G01 X13.8426 Y16.6967 
G01 X13.9988 Y16.6460 
G01 X14.1451 Y16.5714 
G01 X14.2780 Y16.4749 
G01 X14.3941 Y16.3587 
G01 X14.7987 Y15.9541 
G01 X14.9149 Y15.8380 
G01 X15.0114 Y15.7051 
G01 X15.0860 Y15.5588 
G01 X15.1367 Y15.4026 
G01 X15.1624 Y15.2404 
G01 X15.1624 Y14.2894 
G01 X15.5777 Y14.2894 
G01 X15.7303 Y14.2591 
G01 X15.8739 Y14.1996 
G01 X16.0032 Y14.1132 
G01 X16.1132 Y14.0032 
G01 X17.4470 Y12.6694 
G01 X18.2934 Y12.6694 
G01 X19.0194 Y11.9434 
G01 X19.0194 Y10.9166 
G01 X18.2934 Y10.1906 
G01 X17.2666 Y10.1906 
G01 X16.5406 Y10.9166 
G01 X16.5406 Y11.3430 
G01 X15.1730 Y12.7106 
G01 X14.8834 Y12.7106 
G01 X13.5734 Y11.4006 
G01 X13.5734 Y8.2138 
G01 X13.6584 Y8.1287 
G01 X13.7289 Y8.0067 
G01 X13.7654 Y7.8705 
G01 X13.7654 Y7.7894 
G01 X17.1278 Y7.7894 
G01 X16.5406 Y8.3766 
G01 X16.5406 Y9.4034 
G01 X17.2666 Y10.1294 
G01 X18.2934 Y10.1294 
G01 X19.0194 Y9.4034 
G01 X19.0194 Y8.3766 
G01 X18.3516 Y7.7088 
G01 X18.3739 Y7.6996 
G01 X18.5032 Y7.6132 
G01 X18.6132 Y7.5032 
G01 X20.7710 Y5.3454 
G01 X22.1805 Y5.3454 
G01 X22.3167 Y5.3089 
G01 X22.4387 Y5.2384 
G01 X22.5384 Y5.1387 
G01 X22.6089 Y5.0167 
G01 X22.6454 Y4.8805 
G01 X22.6454 Y2.7894 
G01 X23.0746 Y2.7894 
G01 X23.0746 Y4.8805 
G01 X23.1111 Y5.0167 
G01 X23.1816 Y5.1387 
G01 X23.2813 Y5.2384 
G01 X23.4033 Y5.3089 
G01 X23.5395 Y5.3454 
G01 X23.7106 Y5.3454 
G01 X23.7106 Y6.7106 
G01 X21.4222 Y6.7106 
G01 X21.2697 Y6.7409 
G01 X21.1261 Y6.8004 
G01 X20.9968 Y6.8868 
G01 X20.8868 Y6.9968 
G01 X20.2330 Y7.6506 
G01 X19.8066 Y7.6506 
G01 X19.0806 Y8.3766 
G01 X19.0806 Y9.4034 
G01 X19.8066 Y10.1294 
G01 X20.8334 Y10.1294 
G01 X21.5594 Y9.4034 
G01 X21.5594 Y8.5570 
G01 X21.6206 Y8.4958 
G01 X21.6206 Y9.4034 
G01 X22.3466 Y10.1294 
G01 X23.3734 Y10.1294 
G01 X24.0994 Y9.4034 
G01 X24.0994 Y9.1817 
G01 X24.1261 Y9.1996 
G01 X24.1606 Y9.2139 
G01 X24.1606 Y9.4034 
G01 X24.8866 Y10.1294 
G01 X25.9134 Y10.1294 
G01 X26.2106 Y9.8322 
G01 X26.2106 Y10.4878 
G01 X25.9134 Y10.1906 
G01 X24.8866 Y10.1906 
G01 X24.1606 Y10.9166 
G01 X24.1606 Y11.9434 
G01 X24.8866 Y12.6694 
G01 X24.9442 Y12.6694 
G01 X18.0540 Y19.5596 
G01 X17.8647 Y19.5596 
G01 X17.6766 Y19.5894 
G01 X17.4954 Y19.6483 
G01 X17.3256 Y19.7348 
G01 X17.1715 Y19.8468 
G01 X17.0368 Y19.9815 
G01 X16.9248 Y20.1356 
G01 X16.8383 Y20.3054 
G01 X16.7794 Y20.4866 
G01 X16.7496 Y20.6747 
G01 X16.7496 Y20.8653 
G01 X16.7794 Y21.0534 
G01 X16.8383 Y21.2346 
G01 X16.9248 Y21.4044 
G01 X17.0368 Y21.5585 
G01 X17.1715 Y21.6932 
G01 X17.3256 Y21.8052 
G01 X17.4954 Y21.8917 
G01 X17.6766 Y21.9506 
G01 X17.8647 Y21.9804 
G01 X18.0553 Y21.9804 
G01 X18.2434 Y21.9506 
G01 X18.4246 Y21.8917 
G01 X18.5944 Y21.8052 
G01 X18.7485 Y21.6932 
G01 X18.8832 Y21.5585 
G01 X18.9952 Y21.4044 
G01 X19.0817 Y21.2346 
G01 X19.1406 Y21.0534 
G01 X19.1704 Y20.8653 
G01 X19.1704 Y20.6760 
G01 X27.5032 Y12.3432 
G01 X27.6132 Y12.2332 
G01 X27.6996 Y12.1039 
G01 X27.7591 Y11.9603 
G01 X27.7894 Y11.8078 
G01 X27.7894 Y1.9222 
G01 X27.7591 Y1.7697 
G01 X27.6996 Y1.6261 
G01 X27.6132 Y1.4968 
G01 X27.5032 Y1.3868 
G01 X27.3739 Y1.3004 
G01 X27.2303 Y1.2409 
G01 X27.0778 Y1.2106 
G01 X16.9222 Y1.2106 
G01 X16.7697 Y1.2409 
G01 X16.6261 Y1.3004 
G01 X16.4968 Y1.3868 
G01 X13.6730 Y4.2106 
G01 X13.0317 Y4.2106 
G01 X12.9858 Y4.2069 
G01 X12.9541 Y4.2106 
G01 X12.9222 Y4.2106 
G01 X12.8771 Y4.2196 
G01 X12.8314 Y4.2249 
G01 X12.8010 Y4.2347 
G01 X12.7697 Y4.2409 
G01 X12.7272 Y4.2585 
G01 X12.6834 Y4.2727 
G01 X12.6555 Y4.2882 
G01 X12.6261 Y4.3004 
G01 X12.5878 Y4.3260 
G01 X12.5476 Y4.3484 
G01 X12.5286 Y4.3646 
G01 X11.7595 Y4.3646 
G01 X11.6233 Y4.4011 
G01 X11.5013 Y4.4716 
G01 X11.4016 Y4.5713 
G01 X11.3311 Y4.6933 
G01 X11.2946 Y4.8295 
G01 X11.2946 Y5.3845 
G01 X11.2367 Y5.3511 
G01 X11.1005 Y5.3146 
G01 X10.6002 Y5.3146 
G01 X9.5697 Y4.2841 
G01 X9.4369 Y4.1876 
G01 X9.2905 Y4.1130 
G01 X9.1343 Y4.0623 
G01 X8.9721 Y4.0366 
G01 X5.3431 Y4.0366 
G01 X5.2520 Y3.9704 
G01 X5.0700 Y3.8777 
G01 X4.8758 Y3.8145 
G01 X4.6741 Y3.7826 
G01 X2.9459 Y3.7826 
G01 X2.7442 Y3.8145 
G01 X2.5500 Y3.8777 
G01 X2.3680 Y3.9704 
G01 X2.2028 Y4.0904 
G01 X2.0584 Y4.2348 
G00 Z2.5400 
G00 X2.3134 Y8.6899 
G01 Z-0.1200 F100.00 
G01 X2.3680 Y8.7296 F230.00 
G01 X2.5500 Y8.8223 
G01 X2.7442 Y8.8855 
G01 X2.9459 Y8.9174 
G01 X4.6741 Y8.9174 
G01 X4.8758 Y8.8855 
G01 X5.0700 Y8.8223 
G01 X5.2520 Y8.7296 
G01 X5.4172 Y8.6096 
G01 X5.5616 Y8.4652 
G01 X5.6816 Y8.3000 
G01 X5.7743 Y8.1180 
G01 X5.8374 Y7.9238 
G01 X5.8694 Y7.7221 
G01 X5.8694 Y7.5179 
G01 X5.8374 Y7.3162 
G01 X5.7743 Y7.1220 
G01 X5.6816 Y6.9400 
G01 X5.5616 Y6.7748 
G01 X5.4172 Y6.6304 
G01 X5.2520 Y6.5104 
G01 X5.0700 Y6.4177 
G01 X4.8758 Y6.3545 
G01 X4.8471 Y6.3500 
G01 X4.8758 Y6.3454 
G01 X5.0700 Y6.2823 
G01 X5.2520 Y6.1896 
G01 X5.3431 Y6.1234 
G01 X8.4578 Y6.1234 
G01 X9.0946 Y6.7602 
G01 X9.0946 Y6.9205 
G01 X9.1311 Y7.0567 
G01 X9.2016 Y7.1787 
G01 X9.3013 Y7.2784 
G01 X9.4233 Y7.3489 
G01 X9.5595 Y7.3854 
G01 X10.0274 Y7.3854 
G01 X10.0779 Y7.3934 
G01 X10.4121 Y7.3934 
G01 X10.4626 Y7.3854 
G01 X11.1005 Y7.3854 
G01 X11.2367 Y7.3489 
G01 X11.2946 Y7.3155 
G01 X11.2946 Y7.8705 
G01 X11.3311 Y8.0067 
G01 X11.4016 Y8.1287 
G01 X11.4866 Y8.2138 
G01 X11.4866 Y9.2587 
G01 X11.4232 Y9.1715 
G01 X11.2885 Y9.0368 
G01 X11.1344 Y8.9248 
G01 X10.9646 Y8.8383 
G01 X10.7834 Y8.7794 
G01 X10.5953 Y8.7496 
G01 X10.4047 Y8.7496 
G01 X10.2166 Y8.7794 
G01 X10.0354 Y8.8383 
G01 X9.8656 Y8.9248 
G01 X9.7115 Y9.0368 
G01 X9.5768 Y9.1715 
G01 X9.4648 Y9.3256 
G01 X9.3783 Y9.4954 
G01 X9.3194 Y9.6766 
G01 X9.2896 Y9.8647 
G01 X9.2896 Y10.0553 
G01 X9.3194 Y10.2434 
G01 X9.3783 Y10.4246 
G01 X9.4648 Y10.5944 
G01 X9.5768 Y10.7485 
G01 X9.7106 Y10.8824 
G01 X9.7106 Y12.5777 
G01 X9.7409 Y12.7303 
G01 X9.8004 Y12.8739 
G01 X9.8868 Y13.0032 
G01 X9.9968 Y13.1132 
G01 X11.0882 Y14.2046 
G01 X10.7702 Y14.2046 
G01 X9.7397 Y13.1741 
G01 X9.6069 Y13.0776 
G01 X9.4605 Y13.0030 
G01 X9.3043 Y12.9523 
G01 X9.1421 Y12.9266 
G01 X5.3431 Y12.9266 
G01 X5.2520 Y12.8604 
G01 X5.0700 Y12.7677 
G01 X4.8758 Y12.7045 
G01 X4.6741 Y12.6726 
G01 X2.9459 Y12.6726 
G01 X2.7442 Y12.7045 
G01 X2.5500 Y12.7677 
G01 X2.3680 Y12.8604 
G01 X2.3134 Y12.9000 
G01 X2.3134 Y8.6899 
G00 Z2.5400 
G00 X2.3134 Y15.0399 
G01 Z-0.1200 F100.00 
G01 X2.3680 Y15.0796 F230.00 
G01 X2.5500 Y15.1723 
G01 X2.7442 Y15.2355 
G01 X2.7729 Y15.2400 
G01 X2.7442 Y15.2445 
G01 X2.5500 Y15.3077 
G01 X2.3680 Y15.4004 
G01 X2.3134 Y15.4400 
G01 X2.3134 Y15.0399 
G00 Z2.5400 
G00 X2.3134 Y17.5800 
G01 Z-0.1200 F100.00 
G01 X2.3680 Y17.6196 F230.00 
G01 X2.5500 Y17.7123 
G01 X2.7442 Y17.7754 
G01 X2.9459 Y17.8074 
G01 X4.6741 Y17.8074 
G01 X4.8758 Y17.7754 
G01 X5.0700 Y17.7123 
G01 X5.2520 Y17.6196 
G01 X5.4172 Y17.4996 
G01 X5.5616 Y17.3552 
G01 X5.6816 Y17.1900 
G01 X5.7743 Y17.0080 
G01 X5.8374 Y16.8138 
G01 X5.8694 Y16.6121 
G01 X5.8694 Y16.4079 
G01 X5.8374 Y16.2062 
G01 X5.7743 Y16.0120 
G01 X5.6816 Y15.8300 
G01 X5.5616 Y15.6648 
G01 X5.4172 Y15.5204 
G01 X5.2520 Y15.4004 
G01 X5.0700 Y15.3077 
G01 X4.8758 Y15.2445 
G01 X4.8471 Y15.2400 
G01 X4.8758 Y15.2355 
G01 X5.0700 Y15.1723 
G01 X5.2520 Y15.0796 
G01 X5.3431 Y15.0134 
G01 X8.6278 Y15.0134 
G01 X9.0946 Y15.4802 
G01 X9.0946 Y15.8105 
G01 X9.1311 Y15.9467 
G01 X9.2016 Y16.0687 
G01 X9.3013 Y16.1684 
G01 X9.4233 Y16.2389 
G01 X9.5595 Y16.2754 
G01 X10.1974 Y16.2754 
G01 X10.2479 Y16.2834 
G01 X10.4121 Y16.2834 
G01 X10.4626 Y16.2754 
G01 X11.1005 Y16.2754 
G01 X11.2367 Y16.2389 
G01 X11.2946 Y16.2055 
G01 X11.2946 Y16.7605 
G01 X11.3311 Y16.8967 
G01 X11.4016 Y17.0187 
G01 X11.4866 Y17.1038 
G01 X11.4866 Y20.8049 
G01 X11.4989 Y20.8825 
G01 X10.2104 Y19.5940 
G01 X10.2104 Y19.4047 
G01 X10.1806 Y19.2166 
G01 X10.1217 Y19.0354 
G01 X10.0352 Y18.8656 
G01 X9.9232 Y18.7115 
G01 X9.7885 Y18.5768 
G01 X9.6344 Y18.4648 
G01 X9.4646 Y18.3783 
G01 X9.2834 Y18.3194 
G01 X9.0953 Y18.2896 
G01 X8.9047 Y18.2896 
G01 X8.7166 Y18.3194 
G01 X8.5354 Y18.3783 
G01 X8.3656 Y18.4648 
G01 X8.2115 Y18.5768 
G01 X8.0768 Y18.7115 
G01 X7.9648 Y18.8656 
G01 X7.8783 Y19.0354 
G01 X7.8194 Y19.2166 
G01 X7.7896 Y19.4047 
G01 X7.7896 Y19.5953 
G01 X7.8194 Y19.7834 
G01 X7.8783 Y19.9646 
G01 X7.9648 Y20.1344 
G01 X8.0768 Y20.2885 
G01 X8.2115 Y20.4232 
G01 X8.3656 Y20.5352 
G01 X8.5354 Y20.6217 
G01 X8.7166 Y20.6806 
G01 X8.9047 Y20.7104 
G01 X9.0940 Y20.7104 
G01 X11.2946 Y22.9110 
G01 X11.2946 Y23.1645 
G01 X11.2367 Y23.1311 
G01 X11.1005 Y23.0946 
G01 X10.7702 Y23.0946 
G01 X9.7397 Y22.0641 
G01 X9.6069 Y21.9676 
G01 X9.4605 Y21.8930 
G01 X9.3043 Y21.8423 
G01 X9.1421 Y21.8166 
G01 X5.3431 Y21.8166 
G01 X5.2520 Y21.7504 
G01 X5.0700 Y21.6577 
G01 X4.8758 Y21.5945 
G01 X4.6741 Y21.5626 
G01 X2.9459 Y21.5626 
G01 X2.7442 Y21.5945 
G01 X2.5500 Y21.6577 
G01 X2.3680 Y21.7504 
G01 X2.3134 Y21.7900 
G01 X2.3134 Y17.5800 
G00 Z2.5400 
G00 X2.3134 Y23.9300 
G01 Z-0.1200 F100.00 
G01 X2.3680 Y23.9696 F230.00 
G01 X2.5500 Y24.0623 
G01 X2.7442 Y24.1255 
G01 X2.7729 Y24.1300 
G01 X2.7442 Y24.1345 
G01 X2.5500 Y24.1977 
G01 X2.3680 Y24.2904 
G01 X2.3134 Y24.3300 
G01 X2.3134 Y23.9300 
G00 Z2.5400 
G00 X2.3134 Y26.4700 
G01 Z-0.1200 F100.00 
G01 X2.3680 Y26.5096 F230.00 
G01 X2.5500 Y26.6023 
G01 X2.7442 Y26.6654 
G01 X2.9459 Y26.6974 
G01 X4.6741 Y26.6974 
G01 X4.8758 Y26.6654 
G01 X5.0700 Y26.6023 
G01 X5.2520 Y26.5096 
G01 X5.4172 Y26.3896 
G01 X5.5616 Y26.2452 
G01 X5.6816 Y26.0800 
G01 X5.7743 Y25.8980 
G01 X5.8374 Y25.7038 
G01 X5.8694 Y25.5021 
G01 X5.8694 Y25.2979 
G01 X5.8374 Y25.0962 
G01 X5.7743 Y24.9020 
G01 X5.6816 Y24.7200 
G01 X5.5616 Y24.5548 
G01 X5.4172 Y24.4104 
G01 X5.2520 Y24.2904 
G01 X5.0700 Y24.1977 
G01 X4.8758 Y24.1345 
G01 X4.8471 Y24.1300 
G01 X4.8758 Y24.1255 
G01 X5.0700 Y24.0623 
G01 X5.2520 Y23.9696 
G01 X5.3431 Y23.9034 
G01 X8.6278 Y23.9034 
G01 X9.0946 Y24.3702 
G01 X9.0946 Y24.7005 
G01 X9.1311 Y24.8367 
G01 X9.2016 Y24.9587 
G01 X9.3013 Y25.0584 
G01 X9.4233 Y25.1289 
G01 X9.5595 Y25.1654 
G01 X10.1974 Y25.1654 
G01 X10.2479 Y25.1734 
G01 X10.4121 Y25.1734 
G01 X10.4626 Y25.1654 
G01 X11.1005 Y25.1654 
G01 X11.2367 Y25.1289 
G01 X11.2946 Y25.0955 
G01 X11.2946 Y25.6505 
G01 X11.3311 Y25.7867 
G01 X11.4016 Y25.9087 
G01 X11.4866 Y25.9938 
G01 X11.4866 Y29.6949 
G01 X11.5123 Y29.8571 
G01 X11.5310 Y29.9146 
G01 X10.4404 Y28.8240 
G01 X10.4404 Y28.6347 
G01 X10.4106 Y28.4466 
G01 X10.3517 Y28.2654 
G01 X10.2652 Y28.0956 
G01 X10.1532 Y27.9415 
G01 X10.0185 Y27.8068 
G01 X9.8644 Y27.6948 
G01 X9.6946 Y27.6083 
G01 X9.5134 Y27.5494 
G01 X9.3253 Y27.5196 
G01 X9.1347 Y27.5196 
G01 X8.9466 Y27.5494 
G01 X8.7654 Y27.6083 
G01 X8.5956 Y27.6948 
G01 X8.4415 Y27.8068 
G01 X8.3068 Y27.9415 
G01 X8.1948 Y28.0956 
G01 X8.1083 Y28.2654 
G01 X8.0494 Y28.4466 
G01 X8.0196 Y28.6347 
G01 X8.0196 Y28.8253 
G01 X8.0494 Y29.0134 
G01 X8.1083 Y29.1946 
G01 X8.1948 Y29.3644 
G01 X8.3068 Y29.5185 
G01 X8.4415 Y29.6532 
G01 X8.5956 Y29.7652 
G01 X8.7654 Y29.8517 
G01 X8.9466 Y29.9106 
G01 X9.1347 Y29.9404 
G01 X9.3240 Y29.9404 
G01 X11.2946 Y31.9110 
G01 X11.2946 Y32.0545 
G01 X11.2367 Y32.0211 
G01 X11.1005 Y31.9846 
G01 X10.7702 Y31.9846 
G01 X9.7397 Y30.9541 
G01 X9.6069 Y30.8576 
G01 X9.4605 Y30.7830 
G01 X9.3043 Y30.7323 
G01 X9.1421 Y30.7066 
G01 X5.3431 Y30.7066 
G01 X5.2520 Y30.6404 
G01 X5.0700 Y30.5477 
G01 X4.8758 Y30.4845 
G01 X4.6741 Y30.4526 
G01 X2.9459 Y30.4526 
G01 X2.7442 Y30.4845 
G01 X2.5500 Y30.5477 
G01 X2.3680 Y30.6404 
G01 X2.3134 Y30.6800 
G01 X2.3134 Y26.4700 
G00 Z2.5400 
G00 X2.3134 Y32.8199 
G01 Z-0.1200 F100.00 
G01 X2.3680 Y32.8596 F230.00 
G01 X2.5500 Y32.9523 
G01 X2.7442 Y33.0155 
G01 X2.7729 Y33.0200 
G01 X2.7442 Y33.0245 
G01 X2.5500 Y33.0877 
G01 X2.3680 Y33.1804 
G01 X2.3134 Y33.2200 
G01 X2.3134 Y32.8199 
G00 Z2.5400 
G00 X4.8471 Y33.0200 
G01 Z-0.1200 F100.00 
G01 X4.8758 Y33.0155 F230.00 
G01 X5.0700 Y32.9523 
G01 X5.2520 Y32.8596 
G01 X5.3431 Y32.7934 
G01 X8.6278 Y32.7934 
G01 X9.0946 Y33.2602 
G01 X9.0946 Y33.5905 
G01 X9.1311 Y33.7267 
G01 X9.2016 Y33.8487 
G01 X9.3013 Y33.9484 
G01 X9.4233 Y34.0189 
G01 X9.5595 Y34.0554 
G01 X10.1974 Y34.0554 
G01 X10.2479 Y34.0634 
G01 X10.4121 Y34.0634 
G01 X10.4626 Y34.0554 
G01 X11.1005 Y34.0554 
G01 X11.2367 Y34.0189 
G01 X11.2946 Y33.9855 
G01 X11.2946 Y34.5405 
G01 X11.3311 Y34.6767 
G01 X11.4016 Y34.7987 
G01 X11.4866 Y34.8838 
G01 X11.4866 Y37.8378 
G01 X11.3541 Y37.9703 
G01 X10.6510 Y38.6734 
G01 X10.4638 Y38.6125 
G01 X10.2621 Y38.5806 
G01 X10.0579 Y38.5806 
G01 X9.8562 Y38.6125 
G01 X9.6620 Y38.6757 
G01 X9.4800 Y38.7684 
G01 X9.3148 Y38.8884 
G01 X9.1704 Y39.0328 
G01 X9.0504 Y39.1980 
G01 X8.9577 Y39.3800 
G01 X8.8945 Y39.5742 
G01 X8.8900 Y39.6029 
G01 X8.8855 Y39.5742 
G01 X8.8223 Y39.3800 
G01 X8.7296 Y39.1980 
G01 X8.6096 Y39.0328 
G01 X8.4652 Y38.8884 
G01 X8.3000 Y38.7684 
G01 X8.1180 Y38.6757 
G01 X7.9238 Y38.6125 
G01 X7.7221 Y38.5806 
G01 X7.5179 Y38.5806 
G01 X7.3162 Y38.6125 
G01 X7.1220 Y38.6757 
G01 X6.9400 Y38.7684 
G01 X6.7748 Y38.8884 
G01 X6.6304 Y39.0328 
G01 X6.5104 Y39.1980 
G01 X6.4177 Y39.3800 
G01 X6.3545 Y39.5742 
G01 X6.3510 Y39.5966 
G01 X4.8534 Y39.5966 
G01 X4.8534 Y35.5590 
G01 X4.8758 Y35.5555 
G01 X5.0700 Y35.4923 
G01 X5.2520 Y35.3996 
G01 X5.4172 Y35.2796 
G01 X5.5616 Y35.1352 
G01 X5.6816 Y34.9700 
G01 X5.7743 Y34.7880 
G01 X5.8374 Y34.5938 
G01 X5.8694 Y34.3921 
G01 X5.8694 Y34.1879 
G01 X5.8374 Y33.9862 
G01 X5.7743 Y33.7920 
G01 X5.6816 Y33.6100 
G01 X5.5616 Y33.4448 
G01 X5.4172 Y33.3004 
G01 X5.2520 Y33.1804 
G01 X5.0700 Y33.0877 
G01 X4.8758 Y33.0245 
G01 X4.8471 Y33.0200 
G00 Z2.5400 
G00 X11.2894 Y12.1730 
G01 Z-0.1200 F100.00 
G01 X11.2894 Y10.8824 F230.00 
G01 X11.4232 Y10.7485 
G01 X11.4866 Y10.6613 
G01 X11.4866 Y11.9149 
G01 X11.5123 Y12.0771 
G01 X11.5630 Y12.2333 
G01 X11.6376 Y12.3796 
G01 X11.7341 Y12.5125 
G01 X12.4763 Y13.2546 
G01 X12.3710 Y13.2546 
G01 X11.2894 Y12.1730 
G00 Z2.5400 
G00 X19.0806 Y11.9434 
G01 Z-0.1200 F100.00 
G01 X19.8066 Y12.6694 F230.00 
G01 X20.8334 Y12.6694 
G01 X21.5594 Y11.9434 
G01 X21.5594 Y10.9166 
G01 X20.8334 Y10.1906 
G01 X19.8066 Y10.1906 
G01 X19.0806 Y10.9166 
G01 X19.0806 Y11.9434 
G00 Z2.5400 
G00 X21.6206 Y11.9434 
G01 Z-0.1200 F100.00 
G01 X22.3466 Y12.6694 F230.00 
G01 X23.3734 Y12.6694 
G01 X24.0994 Y11.9434 
G01 X24.0994 Y10.9166 
G01 X23.3734 Y10.1906 
G01 X22.3466 Y10.1906 
G01 X21.6206 Y10.9166 
G01 X21.6206 Y11.9434 
G00 Z2.5400 
G00 X25.2894 Y7.6506 
G01 Z-0.1200 F100.00 
G01 X25.2894 Y5.3162 F230.00 
G01 X25.3167 Y5.3089 
G01 X25.4387 Y5.2384 
G01 X25.5384 Y5.1387 
G01 X25.6089 Y5.0167 
G01 X25.6454 Y4.8805 
G01 X25.6454 Y2.7894 
G01 X26.2106 Y2.7894 
G01 X26.2106 Y7.9478 
G01 X25.9134 Y7.6506 
G01 X25.2894 Y7.6506 
G00 Z2.5400 
G00 X17.6730 Y6.2106 
G01 Z-0.1200 F100.00 
G01 X13.6689 Y6.2106 F230.00 
G01 X13.7289 Y6.1067 
G01 X13.7654 Y5.9705 
G01 X13.7654 Y5.7894 
G01 X14.0777 Y5.7894 
G01 X14.2303 Y5.7591 
G01 X14.3739 Y5.6996 
G01 X14.5032 Y5.6132 
G01 X14.6132 Y5.5032 
G01 X17.3270 Y2.7894 
G01 X20.0746 Y2.7894 
G01 X20.0746 Y3.8090 
G01 X17.6730 Y6.2106 
G00 Z2.5400 
G00 Z10.0000 
M05
M02
