(.../Personal Projects/pcb-gcode/pcb-gcode.ulp)
(Copyright 2005 - 2012 by John Johnson)
(See readme.txt for licensing terms.)
(This file generated from the board:)
(.../esp01-4xMosFET/Mosfetboard.brd)
(Current profile is .../pcb-gcode/profiles/generic.pp  )
(This file generated 12/30/18 12:05 AM)
(Settings from pcb-machine.h)
(spindle on time = 0.5000)
(  Tool Size)
(0.1800 )
(spindle speed = 30000.0000)
(tool change at 0.0000 0.0000 10.0000 )
(feed rate xy = F230.00 )
(feed rate z  = F100.00 )
(Z Axis Settings)
(  High     Up        Down     Drill)
(10.0000 	2.5400 	-0.1200 	-3.0000 )
(Settings from pcb-defaults.h)
(isolate min = 0.0254)
(isolate max = 0.4000)
(isolate step = 0.1400)
(Generated top outlines, top drill, bottom outlines, bottom drill, )
(Unit of measure: mm)
(Metric Mode)
G21
(Absolute Coordinates)
G90
S30000
G00 Z10.0000 
G00 X0.0000 Y0.0000 
M03
G04 P0.500000
G00 Z2.5400 
G00 X2.3665 Y4.5207 
G01 Z-0.1200 F100.00 
G01 X2.4887 Y4.3985 F230.00 
G01 X2.6324 Y4.3025 
G01 X2.7921 Y4.2363 
G01 X2.9616 Y4.2026 
G01 X4.6584 Y4.2026 
G01 X4.8279 Y4.2363 
G01 X4.9876 Y4.3025 
G01 X5.1313 Y4.3985 
G01 X5.2535 Y4.5207 
G01 X5.3495 Y4.6644 
G01 X5.4157 Y4.8241 
G01 X5.4494 Y4.9936 
G01 X5.4494 Y5.1664 
G01 X5.4157 Y5.3359 
G01 X5.3495 Y5.4956 
G01 X5.2535 Y5.6393 
G01 X5.1313 Y5.7615 
G01 X4.9876 Y5.8575 
G01 X4.8279 Y5.9237 
G01 X4.6584 Y5.9574 
G01 X2.9616 Y5.9574 
G01 X2.7921 Y5.9237 
G01 X2.6324 Y5.8575 
G01 X2.4887 Y5.7615 
G01 X2.3665 Y5.6393 
G01 X2.2705 Y5.4956 
G01 X2.2043 Y5.3359 
G01 X2.1706 Y5.1664 
G01 X2.1706 Y4.9936 
G01 X2.2043 Y4.8241 
G01 X2.2705 Y4.6644 
G01 X2.3665 Y4.5207 
G00 Z2.5400 
G00 X2.3665 Y7.0607 
G01 Z-0.1200 F100.00 
G01 X2.4887 Y6.9385 F230.00 
G01 X2.6324 Y6.8425 
G01 X2.7921 Y6.7763 
G01 X2.9616 Y6.7426 
G01 X4.6584 Y6.7426 
G01 X4.8279 Y6.7763 
G01 X4.9876 Y6.8425 
G01 X5.1313 Y6.9385 
G01 X5.2535 Y7.0607 
G01 X5.3495 Y7.2044 
G01 X5.4157 Y7.3641 
G01 X5.4494 Y7.5336 
G01 X5.4494 Y7.7064 
G01 X5.4157 Y7.8759 
G01 X5.3495 Y8.0356 
G01 X5.2535 Y8.1793 
G01 X5.1313 Y8.3015 
G01 X4.9876 Y8.3975 
G01 X4.8279 Y8.4637 
G01 X4.6584 Y8.4974 
G01 X2.9616 Y8.4974 
G01 X2.7921 Y8.4637 
G01 X2.6324 Y8.3975 
G01 X2.4887 Y8.3015 
G01 X2.3665 Y8.1793 
G01 X2.2705 Y8.0356 
G01 X2.2043 Y7.8759 
G01 X2.1706 Y7.7064 
G01 X2.1706 Y7.5336 
G01 X2.2043 Y7.3641 
G01 X2.2705 Y7.2044 
G01 X2.3665 Y7.0607 
G00 Z2.5400 
G00 X2.3665 Y13.4107 
G01 Z-0.1200 F100.00 
G01 X2.4887 Y13.2885 F230.00 
G01 X2.6324 Y13.1925 
G01 X2.7921 Y13.1263 
G01 X2.9616 Y13.0926 
G01 X4.6584 Y13.0926 
G01 X4.8279 Y13.1263 
G01 X4.9876 Y13.1925 
G01 X5.1313 Y13.2885 
G01 X5.2535 Y13.4107 
G01 X5.3495 Y13.5544 
G01 X5.4157 Y13.7141 
G01 X5.4494 Y13.8836 
G01 X5.4494 Y14.0564 
G01 X5.4157 Y14.2259 
G01 X5.3495 Y14.3856 
G01 X5.2535 Y14.5293 
G01 X5.1313 Y14.6515 
G01 X4.9876 Y14.7475 
G01 X4.8279 Y14.8137 
G01 X4.6584 Y14.8474 
G01 X2.9616 Y14.8474 
G01 X2.7921 Y14.8137 
G01 X2.6324 Y14.7475 
G01 X2.4887 Y14.6515 
G01 X2.3665 Y14.5293 
G01 X2.2705 Y14.3856 
G01 X2.2043 Y14.2259 
G01 X2.1706 Y14.0564 
G01 X2.1706 Y13.8836 
G01 X2.2043 Y13.7141 
G01 X2.2705 Y13.5544 
G01 X2.3665 Y13.4107 
G00 Z2.5400 
G00 X2.3665 Y15.9507 
G01 Z-0.1200 F100.00 
G01 X2.4887 Y15.8285 F230.00 
G01 X2.6324 Y15.7325 
G01 X2.7921 Y15.6663 
G01 X2.9616 Y15.6326 
G01 X4.6584 Y15.6326 
G01 X4.8279 Y15.6663 
G01 X4.9876 Y15.7325 
G01 X5.1313 Y15.8285 
G01 X5.2535 Y15.9507 
G01 X5.3495 Y16.0944 
G01 X5.4157 Y16.2541 
G01 X5.4494 Y16.4236 
G01 X5.4494 Y16.5964 
G01 X5.4157 Y16.7659 
G01 X5.3495 Y16.9256 
G01 X5.2535 Y17.0693 
G01 X5.1313 Y17.1915 
G01 X4.9876 Y17.2875 
G01 X4.8279 Y17.3537 
G01 X4.6584 Y17.3874 
G01 X2.9616 Y17.3874 
G01 X2.7921 Y17.3537 
G01 X2.6324 Y17.2875 
G01 X2.4887 Y17.1915 
G01 X2.3665 Y17.0693 
G01 X2.2705 Y16.9256 
G01 X2.2043 Y16.7659 
G01 X2.1706 Y16.5964 
G01 X2.1706 Y16.4236 
G01 X2.2043 Y16.2541 
G01 X2.2705 Y16.0944 
G01 X2.3665 Y15.9507 
G00 Z2.5400 
G00 X2.3665 Y22.3007 
G01 Z-0.1200 F100.00 
G01 X2.4887 Y22.1785 F230.00 
G01 X2.6324 Y22.0825 
G01 X2.7921 Y22.0163 
G01 X2.9616 Y21.9826 
G01 X4.6584 Y21.9826 
G01 X4.8279 Y22.0163 
G01 X4.9876 Y22.0825 
G01 X5.1313 Y22.1785 
G01 X5.2535 Y22.3007 
G01 X5.3495 Y22.4444 
G01 X5.4157 Y22.6041 
G01 X5.4494 Y22.7736 
G01 X5.4494 Y22.9464 
G01 X5.4157 Y23.1159 
G01 X5.3495 Y23.2756 
G01 X5.2535 Y23.4193 
G01 X5.1313 Y23.5415 
G01 X4.9876 Y23.6375 
G01 X4.8279 Y23.7037 
G01 X4.6584 Y23.7374 
G01 X2.9616 Y23.7374 
G01 X2.7921 Y23.7037 
G01 X2.6324 Y23.6375 
G01 X2.4887 Y23.5415 
G01 X2.3665 Y23.4193 
G01 X2.2705 Y23.2756 
G01 X2.2043 Y23.1159 
G01 X2.1706 Y22.9464 
G01 X2.1706 Y22.7736 
G01 X2.2043 Y22.6041 
G01 X2.2705 Y22.4444 
G01 X2.3665 Y22.3007 
G00 Z2.5400 
G00 X2.3665 Y24.8407 
G01 Z-0.1200 F100.00 
G01 X2.4887 Y24.7185 F230.00 
G01 X2.6324 Y24.6225 
G01 X2.7921 Y24.5563 
G01 X2.9616 Y24.5226 
G01 X4.6584 Y24.5226 
G01 X4.8279 Y24.5563 
G01 X4.9876 Y24.6225 
G01 X5.1313 Y24.7185 
G01 X5.2535 Y24.8407 
G01 X5.3495 Y24.9844 
G01 X5.4157 Y25.1441 
G01 X5.4494 Y25.3136 
G01 X5.4494 Y25.4864 
G01 X5.4157 Y25.6559 
G01 X5.3495 Y25.8156 
G01 X5.2535 Y25.9593 
G01 X5.1313 Y26.0815 
G01 X4.9876 Y26.1775 
G01 X4.8279 Y26.2437 
G01 X4.6584 Y26.2774 
G01 X2.9616 Y26.2774 
G01 X2.7921 Y26.2437 
G01 X2.6324 Y26.1775 
G01 X2.4887 Y26.0815 
G01 X2.3665 Y25.9593 
G01 X2.2705 Y25.8156 
G01 X2.2043 Y25.6559 
G01 X2.1706 Y25.4864 
G01 X2.1706 Y25.3136 
G01 X2.2043 Y25.1441 
G01 X2.2705 Y24.9844 
G01 X2.3665 Y24.8407 
G00 Z2.5400 
G00 X2.3665 Y31.1907 
G01 Z-0.1200 F100.00 
G01 X2.4887 Y31.0685 F230.00 
G01 X2.6324 Y30.9725 
G01 X2.7921 Y30.9063 
G01 X2.9616 Y30.8726 
G01 X4.6584 Y30.8726 
G01 X4.8279 Y30.9063 
G01 X4.9876 Y30.9725 
G01 X5.1313 Y31.0685 
G01 X5.2535 Y31.1907 
G01 X5.3495 Y31.3344 
G01 X5.4157 Y31.4941 
G01 X5.4494 Y31.6636 
G01 X5.4494 Y31.8364 
G01 X5.4157 Y32.0059 
G01 X5.3495 Y32.1656 
G01 X5.2535 Y32.3093 
G01 X5.1313 Y32.4315 
G01 X4.9876 Y32.5275 
G01 X4.8279 Y32.5937 
G01 X4.6584 Y32.6274 
G01 X2.9616 Y32.6274 
G01 X2.7921 Y32.5937 
G01 X2.6324 Y32.5275 
G01 X2.4887 Y32.4315 
G01 X2.3665 Y32.3093 
G01 X2.2705 Y32.1656 
G01 X2.2043 Y32.0059 
G01 X2.1706 Y31.8364 
G01 X2.1706 Y31.6636 
G01 X2.2043 Y31.4941 
G01 X2.2705 Y31.3344 
G01 X2.3665 Y31.1907 
G00 Z2.5400 
G00 X2.3665 Y33.7307 
G01 Z-0.1200 F100.00 
G01 X2.4887 Y33.6085 F230.00 
G01 X2.6324 Y33.5125 
G01 X2.7921 Y33.4463 
G01 X2.9616 Y33.4126 
G01 X4.6584 Y33.4126 
G01 X4.8279 Y33.4463 
G01 X4.9876 Y33.5125 
G01 X5.1313 Y33.6085 
G01 X5.2535 Y33.7307 
G01 X5.3495 Y33.8744 
G01 X5.4157 Y34.0341 
G01 X5.4494 Y34.2036 
G01 X5.4494 Y34.3764 
G01 X5.4157 Y34.5459 
G01 X5.3495 Y34.7056 
G01 X5.2535 Y34.8493 
G01 X5.1313 Y34.9715 
G01 X4.9876 Y35.0675 
G01 X4.8279 Y35.1337 
G01 X4.6584 Y35.1674 
G01 X2.9616 Y35.1674 
G01 X2.7921 Y35.1337 
G01 X2.6324 Y35.0675 
G01 X2.4887 Y34.9715 
G01 X2.3665 Y34.8493 
G01 X2.2705 Y34.7056 
G01 X2.2043 Y34.5459 
G01 X2.1706 Y34.3764 
G01 X2.1706 Y34.2036 
G01 X2.2043 Y34.0341 
G01 X2.2705 Y33.8744 
G01 X2.3665 Y33.7307 
G00 Z2.5400 
G00 X6.9385 Y39.3187 
G01 Z-0.1200 F100.00 
G01 X7.0607 Y39.1965 F230.00 
G01 X7.2044 Y39.1005 
G01 X7.3641 Y39.0343 
G01 X7.5336 Y39.0006 
G01 X7.7064 Y39.0006 
G01 X7.8759 Y39.0343 
G01 X8.0356 Y39.1005 
G01 X8.1793 Y39.1965 
G01 X8.3015 Y39.3187 
G01 X8.3975 Y39.4624 
G01 X8.4637 Y39.6221 
G01 X8.4974 Y39.7916 
G01 X8.4974 Y41.4884 
G01 X8.4637 Y41.6579 
G01 X8.3975 Y41.8176 
G01 X8.3694 Y41.8597 
G01 X8.3694 Y42.6306 
G01 X24.8470 Y42.6306 
G01 X30.1306 Y37.3470 
G01 X30.1306 Y24.8694 
G01 X29.7318 Y24.8694 
G01 X29.7318 Y24.9912 
G01 X29.7142 Y25.0336 
G01 X29.6818 Y25.0660 
G01 X29.6394 Y25.0836 
G01 X27.3582 Y25.0836 
G01 X27.3158 Y25.0660 
G01 X27.2834 Y25.0336 
G01 X27.2658 Y24.9912 
G01 X27.2658 Y23.7260 
G01 X27.2834 Y23.6836 
G01 X27.3158 Y23.6512 
G01 X27.3582 Y23.6336 
G01 X29.6394 Y23.6336 
G01 X29.6818 Y23.6512 
G01 X29.7142 Y23.6836 
G01 X29.7318 Y23.7260 
G01 X29.7318 Y24.1306 
G01 X30.5486 Y24.1306 
G01 X30.6426 Y24.1558 
G01 X30.7268 Y24.2044 
G01 X30.7956 Y24.2732 
G01 X30.8442 Y24.3574 
G01 X30.8694 Y24.4514 
G01 X30.8694 Y37.5486 
G01 X30.8442 Y37.6426 
G01 X30.7956 Y37.7268 
G01 X25.2268 Y43.2956 
G01 X25.1426 Y43.3442 
G01 X25.0486 Y43.3694 
G01 X7.9514 Y43.3694 
G01 X7.8574 Y43.3442 
G01 X7.7732 Y43.2956 
G01 X7.7044 Y43.2268 
G01 X7.6558 Y43.1426 
G01 X7.6306 Y43.0486 
G01 X7.6306 Y42.2794 
G01 X7.5336 Y42.2794 
G01 X7.3641 Y42.2457 
G01 X7.2044 Y42.1795 
G01 X7.0607 Y42.0835 
G01 X6.9385 Y41.9613 
G01 X6.8425 Y41.8176 
G01 X6.7763 Y41.6579 
G01 X6.7426 Y41.4884 
G01 X6.7426 Y39.7916 
G01 X6.7763 Y39.6221 
G01 X6.8425 Y39.4624 
G01 X6.9385 Y39.3187 
G00 Z2.5400 
G00 X9.4785 Y39.3187 
G01 Z-0.1200 F100.00 
G01 X9.6007 Y39.1965 F230.00 
G01 X9.7444 Y39.1005 
G01 X9.9041 Y39.0343 
G01 X10.0736 Y39.0006 
G01 X10.2464 Y39.0006 
G01 X10.4159 Y39.0343 
G01 X10.5756 Y39.1005 
G01 X10.7193 Y39.1965 
G01 X10.8415 Y39.3187 
G01 X10.9375 Y39.4624 
G01 X11.0037 Y39.6221 
G01 X11.0374 Y39.7916 
G01 X11.0374 Y41.4884 
G01 X11.0091 Y41.6306 
G01 X23.8470 Y41.6306 
G01 X24.5146 Y40.9630 
G01 X24.5146 Y40.0170 
G01 X24.5322 Y39.9746 
G01 X24.5646 Y39.9422 
G01 X24.6070 Y39.9246 
G01 X25.0530 Y39.9246 
G01 X27.6306 Y37.3470 
G01 X27.6306 Y29.7064 
G01 X27.3582 Y29.7064 
G01 X27.3158 Y29.6888 
G01 X27.2834 Y29.6564 
G01 X27.2658 Y29.6140 
G01 X27.2658 Y28.3488 
G01 X27.2834 Y28.3064 
G01 X27.3158 Y28.2740 
G01 X27.3582 Y28.2564 
G01 X29.6394 Y28.2564 
G01 X29.6818 Y28.2740 
G01 X29.7142 Y28.3064 
G01 X29.7318 Y28.3488 
G01 X29.7318 Y29.6140 
G01 X29.7142 Y29.6564 
G01 X29.6818 Y29.6888 
G01 X29.6394 Y29.7064 
G01 X28.3694 Y29.7064 
G01 X28.3694 Y37.5486 
G01 X28.3442 Y37.6426 
G01 X28.2956 Y37.7268 
G01 X28.2268 Y37.7956 
G01 X25.5454 Y40.4770 
G01 X25.5454 Y41.2630 
G01 X25.5278 Y41.3054 
G01 X25.4954 Y41.3378 
G01 X25.4530 Y41.3554 
G01 X25.1670 Y41.3554 
G01 X24.2956 Y42.2268 
G01 X24.2268 Y42.2956 
G01 X24.1426 Y42.3442 
G01 X24.0486 Y42.3694 
G01 X10.4514 Y42.3694 
G01 X10.3574 Y42.3442 
G01 X10.2732 Y42.2956 
G01 X10.2552 Y42.2776 
G01 X10.2464 Y42.2794 
G01 X10.0736 Y42.2794 
G01 X9.9041 Y42.2457 
G01 X9.7444 Y42.1795 
G01 X9.6007 Y42.0835 
G01 X9.4785 Y41.9613 
G01 X9.3825 Y41.8176 
G01 X9.3163 Y41.6579 
G01 X9.2826 Y41.4884 
G01 X9.2826 Y39.7916 
G01 X9.3163 Y39.6221 
G01 X9.3825 Y39.4624 
G01 X9.4785 Y39.3187 
G00 Z2.5400 
G00 X17.6356 Y39.9878 
G01 Z-0.1200 F100.00 
G01 X17.6993 Y39.9241 F230.00 
G01 X17.7826 Y39.8896 
G01 X18.1306 Y39.8896 
G01 X18.1306 Y35.9514 
G01 X18.1558 Y35.8574 
G01 X18.2044 Y35.7732 
G01 X26.1306 Y27.8470 
G01 X26.1306 Y23.4514 
G01 X26.1558 Y23.3574 
G01 X26.2044 Y23.2732 
G01 X26.2732 Y23.2044 
G01 X26.6306 Y22.8470 
G01 X26.6306 Y10.6530 
G01 X25.6870 Y9.7094 
G01 X25.0606 Y9.7094 
G01 X24.5806 Y9.2294 
G01 X24.5806 Y8.5506 
G01 X25.0606 Y8.0706 
G01 X25.7394 Y8.0706 
G01 X26.2194 Y8.5506 
G01 X26.2194 Y9.1970 
G01 X27.2268 Y10.2044 
G01 X27.2956 Y10.2732 
G01 X27.3442 Y10.3574 
G01 X27.3694 Y10.4514 
G01 X27.3694 Y23.0486 
G01 X27.3442 Y23.1426 
G01 X27.2956 Y23.2268 
G01 X26.8694 Y23.6530 
G01 X26.8694 Y27.1082 
G01 X27.2658 Y26.7118 
G01 X27.2658 Y26.0374 
G01 X27.2834 Y25.9950 
G01 X27.3158 Y25.9626 
G01 X27.3582 Y25.9450 
G01 X29.6394 Y25.9450 
G01 X29.6818 Y25.9626 
G01 X29.7142 Y25.9950 
G01 X29.7318 Y26.0374 
G01 X29.7318 Y27.3026 
G01 X29.7142 Y27.3450 
G01 X29.6818 Y27.3774 
G01 X29.6394 Y27.3950 
G01 X27.6274 Y27.3950 
G01 X26.7956 Y28.2268 
G01 X26.7268 Y28.2956 
G01 X18.8694 Y36.1530 
G01 X18.8694 Y40.4760 
G01 X18.8726 Y40.5004 
G01 X18.8694 Y40.5244 
G01 X18.8694 Y40.5486 
G01 X18.8630 Y40.5724 
G01 X18.8598 Y40.5968 
G01 X18.8505 Y40.6192 
G01 X18.8442 Y40.6426 
G01 X18.8319 Y40.6639 
G01 X18.8225 Y40.6866 
G01 X18.8077 Y40.7058 
G01 X18.7956 Y40.7268 
G01 X18.7782 Y40.7442 
G01 X18.7632 Y40.7637 
G01 X18.7439 Y40.7785 
G01 X18.7268 Y40.7956 
G01 X18.7209 Y40.7990 
G01 X18.7209 Y41.2089 
G01 X18.6864 Y41.2922 
G01 X18.6227 Y41.3559 
G01 X18.5394 Y41.3904 
G01 X17.7826 Y41.3904 
G01 X17.6993 Y41.3559 
G01 X17.6356 Y41.2922 
G01 X17.6011 Y41.2089 
G01 X17.6011 Y40.0711 
G01 X17.6356 Y39.9878 
G00 Z2.5400 
G00 X19.4136 Y39.9878 
G01 Z-0.1200 F100.00 
G01 X19.4773 Y39.9241 F230.00 
G01 X19.5606 Y39.8896 
G01 X20.3174 Y39.8896 
G01 X20.4007 Y39.9241 
G01 X20.4644 Y39.9878 
G01 X20.4989 Y40.0711 
G01 X20.4989 Y40.1306 
G01 X22.7146 Y40.1306 
G01 X22.7146 Y40.0170 
G01 X22.7322 Y39.9746 
G01 X22.7646 Y39.9422 
G01 X22.8070 Y39.9246 
G01 X23.6530 Y39.9246 
G01 X23.6954 Y39.9422 
G01 X23.7278 Y39.9746 
G01 X23.7454 Y40.0170 
G01 X23.7454 Y41.2630 
G01 X23.7278 Y41.3054 
G01 X23.6954 Y41.3378 
G01 X23.6530 Y41.3554 
G01 X22.8070 Y41.3554 
G01 X22.7646 Y41.3378 
G01 X22.7322 Y41.3054 
G01 X22.7146 Y41.2630 
G01 X22.7146 Y40.8694 
G01 X20.4989 Y40.8694 
G01 X20.4989 Y41.2089 
G01 X20.4644 Y41.2922 
G01 X20.4007 Y41.3559 
G01 X20.3174 Y41.3904 
G01 X19.5606 Y41.3904 
G01 X19.4773 Y41.3559 
G01 X19.4136 Y41.2922 
G01 X19.3791 Y41.2089 
G01 X19.3791 Y40.0711 
G01 X19.4136 Y39.9878 
G00 Z2.5400 
G00 X21.1356 Y28.5678 
G01 Z-0.1200 F100.00 
G01 X21.1032 Y28.5354 F230.00 
G01 X21.0856 Y28.4930 
G01 X21.0856 Y24.8470 
G01 X21.1032 Y24.8046 
G01 X21.1356 Y24.7722 
G01 X21.1780 Y24.7546 
G01 X23.4240 Y24.7546 
G01 X23.4664 Y24.7722 
G01 X23.4988 Y24.8046 
G01 X23.5164 Y24.8470 
G01 X23.5164 Y28.4930 
G01 X23.4988 Y28.5354 
G01 X23.4664 Y28.5678 
G01 X23.4240 Y28.5854 
G01 X21.1780 Y28.5854 
G01 X21.1356 Y28.5678 
G00 Z2.5400 
G00 X14.0656 Y28.9568 
G01 Z-0.1200 F100.00 
G01 X13.9968 Y29.0256 F230.00 
G01 X13.9126 Y29.0742 
G01 X13.8186 Y29.0994 
G01 X9.9325 Y29.0994 
G01 X9.9304 Y29.1044 
G01 X9.8439 Y29.2339 
G01 X9.7339 Y29.3439 
G01 X9.6044 Y29.4304 
G01 X9.4605 Y29.4900 
G01 X9.3078 Y29.5204 
G01 X9.1522 Y29.5204 
G01 X8.9994 Y29.4900 
G01 X8.8556 Y29.4304 
G01 X8.7261 Y29.3439 
G01 X8.6161 Y29.2339 
G01 X8.5296 Y29.1044 
G01 X8.4700 Y28.9606 
G01 X8.4396 Y28.8078 
G01 X8.4396 Y28.6521 
G01 X8.4700 Y28.4994 
G01 X8.5296 Y28.3556 
G01 X8.6161 Y28.2261 
G01 X8.7261 Y28.1161 
G01 X8.8556 Y28.0296 
G01 X8.9994 Y27.9700 
G01 X9.1522 Y27.9396 
G01 X9.3078 Y27.9396 
G01 X9.4605 Y27.9700 
G01 X9.6044 Y28.0296 
G01 X9.7339 Y28.1161 
G01 X9.8439 Y28.2261 
G01 X9.9304 Y28.3556 
G01 X9.9325 Y28.3606 
G01 X13.6170 Y28.3606 
G01 X24.6846 Y17.2930 
G01 X24.6846 Y16.9870 
G01 X24.7022 Y16.9446 
G01 X24.7346 Y16.9122 
G01 X24.7770 Y16.8946 
G01 X26.0230 Y16.8946 
G01 X26.0654 Y16.9122 
G01 X26.0978 Y16.9446 
G01 X26.1154 Y16.9870 
G01 X26.1154 Y17.8330 
G01 X26.0978 Y17.8754 
G01 X26.0654 Y17.9078 
G01 X26.0230 Y17.9254 
G01 X25.0970 Y17.9254 
G01 X14.0656 Y28.9568 
G00 Z2.5400 
G00 X17.4561 Y21.3839 
G01 Z-0.1200 F100.00 
G01 X17.3461 Y21.2738 F230.00 
G01 X17.2596 Y21.1444 
G01 X17.2000 Y21.0006 
G01 X17.1696 Y20.8478 
G01 X17.1696 Y20.6922 
G01 X17.2000 Y20.5394 
G01 X17.2596 Y20.3956 
G01 X17.3461 Y20.2661 
G01 X17.4561 Y20.1561 
G01 X17.5856 Y20.0696 
G01 X17.7294 Y20.0100 
G01 X17.8821 Y19.9796 
G01 X18.0378 Y19.9796 
G01 X18.1906 Y20.0100 
G01 X18.3344 Y20.0696 
G01 X18.3785 Y20.0991 
G01 X20.8746 Y17.6030 
G01 X20.8746 Y16.9870 
G01 X20.8922 Y16.9446 
G01 X20.9246 Y16.9122 
G01 X20.9670 Y16.8946 
G01 X22.2130 Y16.8946 
G01 X22.2554 Y16.9122 
G01 X22.2878 Y16.9446 
G01 X22.3054 Y16.9870 
G01 X22.3054 Y17.8330 
G01 X22.2878 Y17.8754 
G01 X22.2554 Y17.9078 
G01 X22.2130 Y17.9254 
G01 X21.5970 Y17.9254 
G01 X18.7504 Y20.7720 
G01 X18.7504 Y20.8478 
G01 X18.7200 Y21.0006 
G01 X18.6604 Y21.1444 
G01 X18.5739 Y21.2738 
G01 X18.4639 Y21.3839 
G01 X18.3344 Y21.4704 
G01 X18.1906 Y21.5300 
G01 X18.0378 Y21.5604 
G01 X17.8821 Y21.5604 
G01 X17.7294 Y21.5300 
G01 X17.5856 Y21.4704 
G01 X17.4561 Y21.3839 
G00 Z2.5400 
G00 X17.1570 Y17.9254 
G01 Z-0.1200 F100.00 
G01 X17.1146 Y17.9078 F230.00 
G01 X17.0822 Y17.8754 
G01 X17.0797 Y17.8694 
G01 X10.4514 Y17.8694 
G01 X10.3574 Y17.8442 
G01 X10.2732 Y17.7956 
G01 X10.2044 Y17.7268 
G01 X10.1558 Y17.6426 
G01 X10.1306 Y17.5486 
G01 X10.1306 Y10.6625 
G01 X10.1256 Y10.6604 
G01 X9.9961 Y10.5739 
G01 X9.8861 Y10.4639 
G01 X9.7996 Y10.3344 
G01 X9.7400 Y10.1905 
G01 X9.7096 Y10.0378 
G01 X9.7096 Y9.8821 
G01 X9.7400 Y9.7294 
G01 X9.7996 Y9.5856 
G01 X9.8861 Y9.4561 
G01 X9.9961 Y9.3461 
G01 X10.1256 Y9.2596 
G01 X10.2694 Y9.2000 
G01 X10.4222 Y9.1696 
G01 X10.5778 Y9.1696 
G01 X10.7305 Y9.2000 
G01 X10.8744 Y9.2596 
G01 X11.0038 Y9.3461 
G01 X11.1139 Y9.4561 
G01 X11.2004 Y9.5856 
G01 X11.2600 Y9.7294 
G01 X11.2904 Y9.8821 
G01 X11.2904 Y10.0378 
G01 X11.2600 Y10.1905 
G01 X11.2004 Y10.3344 
G01 X11.1139 Y10.4639 
G01 X11.0038 Y10.5739 
G01 X10.8744 Y10.6604 
G01 X10.8694 Y10.6625 
G01 X10.8694 Y17.1306 
G01 X17.0646 Y17.1306 
G01 X17.0646 Y16.9870 
G01 X17.0822 Y16.9446 
G01 X17.1146 Y16.9122 
G01 X17.1570 Y16.8946 
G01 X18.4030 Y16.8946 
G01 X18.4454 Y16.9122 
G01 X18.4778 Y16.9446 
G01 X18.4954 Y16.9870 
G01 X18.4954 Y17.8330 
G01 X18.4778 Y17.8754 
G01 X18.4454 Y17.9078 
G01 X18.4030 Y17.9254 
G01 X17.1570 Y17.9254 
G00 Z2.5400 
G00 X17.1570 Y16.1254 
G01 Z-0.1200 F100.00 
G01 X17.1146 Y16.1078 F230.00 
G01 X17.0822 Y16.0754 
G01 X17.0646 Y16.0330 
G01 X17.0646 Y15.1870 
G01 X17.0822 Y15.1446 
G01 X17.1146 Y15.1122 
G01 X17.1570 Y15.0946 
G01 X17.8830 Y15.0946 
G01 X19.6306 Y13.3470 
G01 X19.6306 Y11.8994 
G01 X19.5006 Y11.7694 
G01 X19.5006 Y11.0906 
G01 X19.9806 Y10.6106 
G01 X20.6594 Y10.6106 
G01 X21.1394 Y11.0906 
G01 X21.1394 Y11.7694 
G01 X20.6594 Y12.2494 
G01 X20.3694 Y12.2494 
G01 X20.3694 Y13.5486 
G01 X20.3442 Y13.6426 
G01 X20.2956 Y13.7268 
G01 X20.2268 Y13.7956 
G01 X18.4954 Y15.5270 
G01 X18.4954 Y16.0330 
G01 X18.4778 Y16.0754 
G01 X18.4454 Y16.1078 
G01 X18.4030 Y16.1254 
G01 X17.1570 Y16.1254 
G00 Z2.5400 
G00 X20.9246 Y16.1078 
G01 Z-0.1200 F100.00 
G01 X20.8922 Y16.0754 F230.00 
G01 X20.8746 Y16.0330 
G01 X20.8746 Y15.1870 
G01 X20.8922 Y15.1446 
G01 X20.9246 Y15.1122 
G01 X20.9670 Y15.0946 
G01 X21.8830 Y15.0946 
G01 X22.1306 Y14.8470 
G01 X22.1306 Y11.8594 
G01 X22.0406 Y11.7694 
G01 X22.0406 Y11.0906 
G01 X22.5206 Y10.6106 
G01 X23.1994 Y10.6106 
G01 X23.6794 Y11.0906 
G01 X23.6794 Y11.7694 
G01 X23.1994 Y12.2494 
G01 X22.8694 Y12.2494 
G01 X22.8694 Y15.0486 
G01 X22.8442 Y15.1426 
G01 X22.7956 Y15.2268 
G01 X22.7268 Y15.2956 
G01 X22.3054 Y15.7170 
G01 X22.3054 Y16.0330 
G01 X22.2878 Y16.0754 
G01 X22.2554 Y16.1078 
G01 X22.2130 Y16.1254 
G01 X20.9670 Y16.1254 
G01 X20.9246 Y16.1078 
G00 Z2.5400 
G00 X24.7346 Y16.1078 
G01 Z-0.1200 F100.00 
G01 X24.7022 Y16.0754 F230.00 
G01 X24.6846 Y16.0330 
G01 X24.6846 Y15.1870 
G01 X24.7022 Y15.1446 
G01 X24.7346 Y15.1122 
G01 X24.7770 Y15.0946 
G01 X25.1306 Y15.0946 
G01 X25.1306 Y12.2494 
G01 X25.0606 Y12.2494 
G01 X24.5806 Y11.7694 
G01 X24.5806 Y11.0906 
G01 X25.0606 Y10.6106 
G01 X25.7394 Y10.6106 
G01 X26.2194 Y11.0906 
G01 X26.2194 Y11.7694 
G01 X25.8694 Y12.1194 
G01 X25.8694 Y15.0946 
G01 X26.0230 Y15.0946 
G01 X26.0654 Y15.1122 
G01 X26.0978 Y15.1446 
G01 X26.1154 Y15.1870 
G01 X26.1154 Y16.0330 
G01 X26.0978 Y16.0754 
G01 X26.0654 Y16.1078 
G01 X26.0230 Y16.1254 
G01 X24.7770 Y16.1254 
G01 X24.7346 Y16.1078 
G00 Z2.5400 
G00 X23.6794 Y9.2294 
G01 Z-0.1200 F100.00 
G01 X23.1994 Y9.7094 F230.00 
G01 X22.5206 Y9.7094 
G01 X22.0406 Y9.2294 
G01 X22.0406 Y8.5506 
G01 X22.5206 Y8.0706 
G01 X23.1994 Y8.0706 
G01 X23.6794 Y8.5506 
G01 X23.6794 Y9.2294 
G00 Z2.5400 
G00 X21.1394 Y9.2294 
G01 Z-0.1200 F100.00 
G01 X20.6594 Y9.7094 F230.00 
G01 X19.9806 Y9.7094 
G01 X19.5006 Y9.2294 
G01 X19.5006 Y8.5506 
G01 X19.9806 Y8.0706 
G01 X20.6594 Y8.0706 
G01 X21.1394 Y8.5506 
G01 X21.1394 Y9.2294 
G00 Z2.5400 
G00 X18.5994 Y9.2294 
G01 Z-0.1200 F100.00 
G01 X18.1194 Y9.7094 F230.00 
G01 X17.4406 Y9.7094 
G01 X16.9606 Y9.2294 
G01 X16.9606 Y8.5506 
G01 X17.1306 Y8.3806 
G01 X17.1306 Y5.7954 
G01 X16.9870 Y5.7954 
G01 X16.9446 Y5.7778 
G01 X16.9122 Y5.7454 
G01 X16.8946 Y5.7030 
G01 X16.8946 Y4.4570 
G01 X16.9122 Y4.4146 
G01 X16.9446 Y4.3822 
G01 X16.9870 Y4.3646 
G01 X17.8330 Y4.3646 
G01 X17.8754 Y4.3822 
G01 X17.9078 Y4.4146 
G01 X17.9254 Y4.4570 
G01 X17.9254 Y5.7030 
G01 X17.9078 Y5.7454 
G01 X17.8754 Y5.7778 
G01 X17.8694 Y5.7803 
G01 X17.8694 Y8.0706 
G01 X18.1194 Y8.0706 
G01 X18.5994 Y8.5506 
G01 X18.5994 Y9.2294 
G00 Z2.5400 
G00 X18.5994 Y11.0906 
G01 Z-0.1200 F100.00 
G01 X18.5994 Y11.7694 F230.00 
G01 X18.1194 Y12.2494 
G01 X17.4406 Y12.2494 
G01 X16.9606 Y11.7694 
G01 X16.9606 Y11.0906 
G01 X17.4406 Y10.6106 
G01 X18.1194 Y10.6106 
G01 X18.5994 Y11.0906 
G00 Z2.5400 
G00 X16.1078 Y5.7454 
G01 Z-0.1200 F100.00 
G01 X16.0754 Y5.7778 F230.00 
G01 X16.0330 Y5.7954 
G01 X15.7270 Y5.7954 
G01 X15.6859 Y5.8192 
G01 X15.6445 Y5.8434 
G01 X15.5968 Y5.8565 
G01 X15.5507 Y5.8691 
G01 X15.5010 Y5.8694 
G01 X15.4535 Y5.8697 
G01 X9.3694 Y5.8694 
G01 X9.3694 Y18.7975 
G01 X9.3744 Y18.7996 
G01 X9.5038 Y18.8861 
G01 X9.6139 Y18.9961 
G01 X9.7004 Y19.1256 
G01 X9.7600 Y19.2694 
G01 X9.7904 Y19.4221 
G01 X9.7904 Y19.5778 
G01 X9.7600 Y19.7306 
G01 X9.7004 Y19.8744 
G01 X9.6139 Y20.0038 
G01 X9.5038 Y20.1139 
G01 X9.3744 Y20.2004 
G01 X9.2305 Y20.2600 
G01 X9.0778 Y20.2904 
G01 X8.9222 Y20.2904 
G01 X8.7694 Y20.2600 
G01 X8.6256 Y20.2004 
G01 X8.4961 Y20.1139 
G01 X8.3861 Y20.0038 
G01 X8.2996 Y19.8744 
G01 X8.2400 Y19.7306 
G01 X8.2096 Y19.5778 
G01 X8.2096 Y19.4221 
G01 X8.2400 Y19.2694 
G01 X8.2996 Y19.1256 
G01 X8.3861 Y18.9961 
G01 X8.4961 Y18.8861 
G01 X8.6256 Y18.7996 
G01 X8.6306 Y18.7975 
G01 X8.6306 Y5.4514 
G01 X8.6558 Y5.3574 
G01 X8.7044 Y5.2732 
G01 X8.7732 Y5.2044 
G01 X8.8574 Y5.1558 
G01 X8.9514 Y5.1306 
G01 X15.0946 Y5.1306 
G01 X15.0946 Y4.4570 
G01 X15.1122 Y4.4146 
G01 X15.1446 Y4.3822 
G01 X15.1870 Y4.3646 
G01 X16.0330 Y4.3646 
G01 X16.0754 Y4.3822 
G01 X16.1078 Y4.4146 
G01 X16.1254 Y4.4570 
G01 X16.1254 Y5.7030 
G01 X16.1078 Y5.7454 
G00 Z2.5400 
G00 X2.2577 Y4.4314 
G01 Z-0.1200 F100.00 
G01 X2.3994 Y4.2897 F230.00 
G01 X2.5661 Y4.1784 
G01 X2.7512 Y4.1017 
G01 X2.9478 Y4.0626 
G01 X4.6722 Y4.0626 
G01 X4.8688 Y4.1017 
G01 X5.0539 Y4.1784 
G01 X5.2206 Y4.2897 
G01 X5.3623 Y4.4314 
G01 X5.4736 Y4.5981 
G01 X5.5503 Y4.7832 
G01 X5.5894 Y4.9798 
G01 X5.5894 Y5.1802 
G01 X5.5503 Y5.3768 
G01 X5.4736 Y5.5619 
G01 X5.3623 Y5.7286 
G01 X5.2206 Y5.8703 
G01 X5.0539 Y5.9816 
G01 X4.8688 Y6.0583 
G01 X4.6722 Y6.0974 
G01 X2.9478 Y6.0974 
G01 X2.7512 Y6.0583 
G01 X2.5661 Y5.9816 
G01 X2.3994 Y5.8703 
G01 X2.2577 Y5.7286 
G01 X2.1464 Y5.5619 
G01 X2.0697 Y5.3768 
G01 X2.0306 Y5.1802 
G01 X2.0306 Y4.9798 
G01 X2.0697 Y4.7832 
G01 X2.1464 Y4.5981 
G01 X2.2577 Y4.4314 
G00 Z2.5400 
G00 X2.2577 Y6.9714 
G01 Z-0.1200 F100.00 
G01 X2.3994 Y6.8297 F230.00 
G01 X2.5661 Y6.7184 
G01 X2.7512 Y6.6417 
G01 X2.9478 Y6.6026 
G01 X4.6722 Y6.6026 
G01 X4.8688 Y6.6417 
G01 X5.0539 Y6.7184 
G01 X5.2206 Y6.8297 
G01 X5.3623 Y6.9714 
G01 X5.4736 Y7.1381 
G01 X5.5503 Y7.3232 
G01 X5.5894 Y7.5198 
G01 X5.5894 Y7.7202 
G01 X5.5503 Y7.9168 
G01 X5.4736 Y8.1019 
G01 X5.3623 Y8.2686 
G01 X5.2206 Y8.4103 
G01 X5.0539 Y8.5216 
G01 X4.8688 Y8.5983 
G01 X4.6722 Y8.6374 
G01 X2.9478 Y8.6374 
G01 X2.7512 Y8.5983 
G01 X2.5661 Y8.5216 
G01 X2.3994 Y8.4103 
G01 X2.2577 Y8.2686 
G01 X2.1464 Y8.1019 
G01 X2.0697 Y7.9168 
G01 X2.0306 Y7.7202 
G01 X2.0306 Y7.5198 
G01 X2.0697 Y7.3232 
G01 X2.1464 Y7.1381 
G01 X2.2577 Y6.9714 
G00 Z2.5400 
G00 X2.2577 Y13.3214 
G01 Z-0.1200 F100.00 
G01 X2.3994 Y13.1797 F230.00 
G01 X2.5661 Y13.0684 
G01 X2.7512 Y12.9917 
G01 X2.9478 Y12.9526 
G01 X4.6722 Y12.9526 
G01 X4.8688 Y12.9917 
G01 X5.0539 Y13.0684 
G01 X5.2206 Y13.1797 
G01 X5.3623 Y13.3214 
G01 X5.4736 Y13.4881 
G01 X5.5503 Y13.6732 
G01 X5.5894 Y13.8698 
G01 X5.5894 Y14.0702 
G01 X5.5503 Y14.2668 
G01 X5.4736 Y14.4519 
G01 X5.3623 Y14.6186 
G01 X5.2206 Y14.7603 
G01 X5.0539 Y14.8716 
G01 X4.8688 Y14.9483 
G01 X4.6722 Y14.9874 
G01 X2.9478 Y14.9874 
G01 X2.7512 Y14.9483 
G01 X2.5661 Y14.8716 
G01 X2.3994 Y14.7603 
G01 X2.2577 Y14.6186 
G01 X2.1464 Y14.4519 
G01 X2.0697 Y14.2668 
G01 X2.0306 Y14.0702 
G01 X2.0306 Y13.8698 
G01 X2.0697 Y13.6732 
G01 X2.1464 Y13.4881 
G01 X2.2577 Y13.3214 
G00 Z2.5400 
G00 X2.2577 Y15.8614 
G01 Z-0.1200 F100.00 
G01 X2.3994 Y15.7197 F230.00 
G01 X2.5661 Y15.6084 
G01 X2.7512 Y15.5317 
G01 X2.9478 Y15.4926 
G01 X4.6722 Y15.4926 
G01 X4.8688 Y15.5317 
G01 X5.0539 Y15.6084 
G01 X5.2206 Y15.7197 
G01 X5.3623 Y15.8614 
G01 X5.4736 Y16.0281 
G01 X5.5503 Y16.2132 
G01 X5.5894 Y16.4098 
G01 X5.5894 Y16.6102 
G01 X5.5503 Y16.8068 
G01 X5.4736 Y16.9919 
G01 X5.3623 Y17.1586 
G01 X5.2206 Y17.3003 
G01 X5.0539 Y17.4116 
G01 X4.8688 Y17.4883 
G01 X4.6722 Y17.5274 
G01 X2.9478 Y17.5274 
G01 X2.7512 Y17.4883 
G01 X2.5661 Y17.4116 
G01 X2.3994 Y17.3003 
G01 X2.2577 Y17.1586 
G01 X2.1464 Y16.9919 
G01 X2.0697 Y16.8068 
G01 X2.0306 Y16.6102 
G01 X2.0306 Y16.4098 
G01 X2.0697 Y16.2132 
G01 X2.1464 Y16.0281 
G01 X2.2577 Y15.8614 
G00 Z2.5400 
G00 X2.2577 Y22.2114 
G01 Z-0.1200 F100.00 
G01 X2.3994 Y22.0697 F230.00 
G01 X2.5661 Y21.9584 
G01 X2.7512 Y21.8817 
G01 X2.9478 Y21.8426 
G01 X4.6722 Y21.8426 
G01 X4.8688 Y21.8817 
G01 X5.0539 Y21.9584 
G01 X5.2206 Y22.0697 
G01 X5.3623 Y22.2114 
G01 X5.4736 Y22.3781 
G01 X5.5503 Y22.5632 
G01 X5.5894 Y22.7598 
G01 X5.5894 Y22.9602 
G01 X5.5503 Y23.1568 
G01 X5.4736 Y23.3419 
G01 X5.3623 Y23.5086 
G01 X5.2206 Y23.6503 
G01 X5.0539 Y23.7616 
G01 X4.8688 Y23.8383 
G01 X4.6722 Y23.8774 
G01 X2.9478 Y23.8774 
G01 X2.7512 Y23.8383 
G01 X2.5661 Y23.7616 
G01 X2.3994 Y23.6503 
G01 X2.2577 Y23.5086 
G01 X2.1464 Y23.3419 
G01 X2.0697 Y23.1568 
G01 X2.0306 Y22.9602 
G01 X2.0306 Y22.7598 
G01 X2.0697 Y22.5632 
G01 X2.1464 Y22.3781 
G01 X2.2577 Y22.2114 
G00 Z2.5400 
G00 X2.2577 Y24.7514 
G01 Z-0.1200 F100.00 
G01 X2.3994 Y24.6097 F230.00 
G01 X2.5661 Y24.4984 
G01 X2.7512 Y24.4217 
G01 X2.9478 Y24.3826 
G01 X4.6722 Y24.3826 
G01 X4.8688 Y24.4217 
G01 X5.0539 Y24.4984 
G01 X5.2206 Y24.6097 
G01 X5.3623 Y24.7514 
G01 X5.4736 Y24.9181 
G01 X5.5503 Y25.1032 
G01 X5.5894 Y25.2998 
G01 X5.5894 Y25.5002 
G01 X5.5503 Y25.6968 
G01 X5.4736 Y25.8819 
G01 X5.3623 Y26.0486 
G01 X5.2206 Y26.1903 
G01 X5.0539 Y26.3016 
G01 X4.8688 Y26.3783 
G01 X4.6722 Y26.4174 
G01 X2.9478 Y26.4174 
G01 X2.7512 Y26.3783 
G01 X2.5661 Y26.3016 
G01 X2.3994 Y26.1903 
G01 X2.2577 Y26.0486 
G01 X2.1464 Y25.8819 
G01 X2.0697 Y25.6968 
G01 X2.0306 Y25.5002 
G01 X2.0306 Y25.2998 
G01 X2.0697 Y25.1032 
G01 X2.1464 Y24.9181 
G01 X2.2577 Y24.7514 
G00 Z2.5400 
G00 X2.2577 Y31.1014 
G01 Z-0.1200 F100.00 
G01 X2.3994 Y30.9597 F230.00 
G01 X2.5661 Y30.8484 
G01 X2.7512 Y30.7717 
G01 X2.9478 Y30.7326 
G01 X4.6722 Y30.7326 
G01 X4.8688 Y30.7717 
G01 X5.0539 Y30.8484 
G01 X5.2206 Y30.9597 
G01 X5.3623 Y31.1014 
G01 X5.4736 Y31.2681 
G01 X5.5503 Y31.4532 
G01 X5.5894 Y31.6498 
G01 X5.5894 Y31.8502 
G01 X5.5503 Y32.0468 
G01 X5.4736 Y32.2319 
G01 X5.3623 Y32.3986 
G01 X5.2206 Y32.5403 
G01 X5.0539 Y32.6516 
G01 X4.8688 Y32.7283 
G01 X4.6722 Y32.7674 
G01 X2.9478 Y32.7674 
G01 X2.7512 Y32.7283 
G01 X2.5661 Y32.6516 
G01 X2.3994 Y32.5403 
G01 X2.2577 Y32.3986 
G01 X2.1464 Y32.2319 
G01 X2.0697 Y32.0468 
G01 X2.0306 Y31.8502 
G01 X2.0306 Y31.6498 
G01 X2.0697 Y31.4532 
G01 X2.1464 Y31.2681 
G01 X2.2577 Y31.1014 
G00 Z2.5400 
G00 X2.2577 Y33.6414 
G01 Z-0.1200 F100.00 
G01 X2.3994 Y33.4997 F230.00 
G01 X2.5661 Y33.3884 
G01 X2.7512 Y33.3117 
G01 X2.9478 Y33.2726 
G01 X4.6722 Y33.2726 
G01 X4.8688 Y33.3117 
G01 X5.0539 Y33.3884 
G01 X5.2206 Y33.4997 
G01 X5.3623 Y33.6414 
G01 X5.4736 Y33.8081 
G01 X5.5503 Y33.9932 
G01 X5.5894 Y34.1898 
G01 X5.5894 Y34.3902 
G01 X5.5503 Y34.5868 
G01 X5.4736 Y34.7719 
G01 X5.3623 Y34.9386 
G01 X5.2206 Y35.0803 
G01 X5.0539 Y35.1916 
G01 X4.8688 Y35.2683 
G01 X4.6722 Y35.3074 
G01 X2.9478 Y35.3074 
G01 X2.7512 Y35.2683 
G01 X2.5661 Y35.1916 
G01 X2.3994 Y35.0803 
G01 X2.2577 Y34.9386 
G01 X2.1464 Y34.7719 
G01 X2.0697 Y34.5868 
G01 X2.0306 Y34.3902 
G01 X2.0306 Y34.1898 
G01 X2.0697 Y33.9932 
G01 X2.1464 Y33.8081 
G01 X2.2577 Y33.6414 
G00 Z2.5400 
G00 X6.8297 Y39.2294 
G01 Z-0.1200 F100.00 
G01 X6.9714 Y39.0877 F230.00 
G01 X7.1381 Y38.9764 
G01 X7.3232 Y38.8997 
G01 X7.5198 Y38.8606 
G01 X7.7202 Y38.8606 
G01 X7.9168 Y38.8997 
G01 X8.1019 Y38.9764 
G01 X8.2686 Y39.0877 
G01 X8.4103 Y39.2294 
G01 X8.5216 Y39.3961 
G01 X8.5983 Y39.5812 
G01 X8.6374 Y39.7778 
G01 X8.6374 Y41.5022 
G01 X8.5983 Y41.6988 
G01 X8.5216 Y41.8839 
G01 X8.5094 Y41.9022 
G01 X8.5094 Y42.4906 
G01 X10.3628 Y42.4906 
G01 X10.3034 Y42.4747 
G01 X10.2076 Y42.4194 
G01 X10.0598 Y42.4194 
G01 X9.8632 Y42.3803 
G01 X9.6781 Y42.3036 
G01 X9.5114 Y42.1923 
G01 X9.3697 Y42.0506 
G01 X9.2584 Y41.8839 
G01 X9.1817 Y41.6988 
G01 X9.1426 Y41.5022 
G01 X9.1426 Y39.7778 
G01 X9.1817 Y39.5812 
G01 X9.2584 Y39.3961 
G01 X9.3697 Y39.2294 
G01 X9.5114 Y39.0877 
G01 X9.6781 Y38.9764 
G01 X9.8632 Y38.8997 
G01 X10.0598 Y38.8606 
G01 X10.2602 Y38.8606 
G01 X10.4568 Y38.8997 
G01 X10.6419 Y38.9764 
G01 X10.8086 Y39.0877 
G01 X10.9503 Y39.2294 
G01 X11.0616 Y39.3961 
G01 X11.1383 Y39.5812 
G01 X11.1774 Y39.7778 
G01 X11.1774 Y41.4906 
G01 X17.6605 Y41.4906 
G01 X17.6026 Y41.4572 
G01 X17.5343 Y41.3889 
G01 X17.4861 Y41.3053 
G01 X17.4611 Y41.2121 
G01 X17.4611 Y40.0679 
G01 X17.4861 Y39.9746 
G01 X17.5343 Y39.8911 
G01 X17.6026 Y39.8228 
G01 X17.6862 Y39.7746 
G01 X17.7794 Y39.7496 
G01 X17.9906 Y39.7496 
G01 X17.9906 Y35.9329 
G01 X18.0253 Y35.8034 
G01 X18.0924 Y35.6872 
G01 X25.9906 Y27.7890 
G01 X25.9906 Y23.4329 
G01 X26.0253 Y23.3034 
G01 X26.0924 Y23.1872 
G01 X26.1872 Y23.0924 
G01 X26.4906 Y22.7890 
G01 X26.4906 Y10.7110 
G01 X25.6290 Y9.8494 
G01 X25.0026 Y9.8494 
G01 X24.4406 Y9.2874 
G01 X24.4406 Y8.4926 
G01 X25.0026 Y7.9306 
G01 X25.7974 Y7.9306 
G01 X26.3594 Y8.4926 
G01 X26.3594 Y9.1390 
G01 X27.3128 Y10.0924 
G01 X27.4076 Y10.1872 
G01 X27.4747 Y10.3034 
G01 X27.5094 Y10.4329 
G01 X27.5094 Y23.0671 
G01 X27.4747 Y23.1966 
G01 X27.4076 Y23.3128 
G01 X27.0094 Y23.7110 
G01 X27.0094 Y26.7702 
G01 X27.1258 Y26.6538 
G01 X27.1258 Y26.0268 
G01 X27.1432 Y25.9618 
G01 X27.1768 Y25.9036 
G01 X27.2244 Y25.8560 
G01 X27.2826 Y25.8224 
G01 X27.3476 Y25.8050 
G01 X29.6500 Y25.8050 
G01 X29.7150 Y25.8224 
G01 X29.7732 Y25.8560 
G01 X29.8208 Y25.9036 
G01 X29.8544 Y25.9618 
G01 X29.8718 Y26.0268 
G01 X29.8718 Y27.3132 
G01 X29.8544 Y27.3782 
G01 X29.8208 Y27.4364 
G01 X29.7732 Y27.4840 
G01 X29.7150 Y27.5176 
G01 X29.6500 Y27.5350 
G01 X27.6854 Y27.5350 
G01 X26.9076 Y28.3128 
G01 X26.8128 Y28.4076 
G01 X19.0094 Y36.2110 
G01 X19.0094 Y40.4669 
G01 X19.0138 Y40.5005 
G01 X19.0094 Y40.5336 
G01 X19.0094 Y40.5671 
G01 X19.0006 Y40.5999 
G01 X18.9961 Y40.6335 
G01 X18.9833 Y40.6644 
G01 X18.9747 Y40.6966 
G01 X18.9577 Y40.7260 
G01 X18.9447 Y40.7574 
G01 X18.9243 Y40.7839 
G01 X18.9076 Y40.8128 
G01 X18.8836 Y40.8368 
G01 X18.8629 Y40.8637 
G01 X18.8609 Y41.2121 
G01 X18.8359 Y41.3053 
G01 X18.7877 Y41.3889 
G01 X18.7194 Y41.4572 
G01 X18.6615 Y41.4906 
G01 X19.4385 Y41.4906 
G01 X19.3806 Y41.4572 
G01 X19.3123 Y41.3889 
G01 X19.2641 Y41.3053 
G01 X19.2391 Y41.2121 
G01 X19.2391 Y40.0679 
G01 X19.2641 Y39.9746 
G01 X19.3123 Y39.8911 
G01 X19.3806 Y39.8228 
G01 X19.4642 Y39.7746 
G01 X19.5574 Y39.7496 
G01 X20.3206 Y39.7496 
G01 X20.4138 Y39.7746 
G01 X20.4974 Y39.8228 
G01 X20.5657 Y39.8911 
G01 X20.6139 Y39.9746 
G01 X20.6182 Y39.9906 
G01 X22.5788 Y39.9906 
G01 X22.5920 Y39.9414 
G01 X22.6256 Y39.8832 
G01 X22.6732 Y39.8356 
G01 X22.7314 Y39.8020 
G01 X22.7964 Y39.7846 
G01 X23.6636 Y39.7846 
G01 X23.7286 Y39.8020 
G01 X23.7868 Y39.8356 
G01 X23.8344 Y39.8832 
G01 X23.8680 Y39.9414 
G01 X23.8854 Y40.0064 
G01 X23.8854 Y41.2736 
G01 X23.8680 Y41.3386 
G01 X23.8344 Y41.3968 
G01 X23.7868 Y41.4444 
G01 X23.7286 Y41.4780 
G01 X23.6815 Y41.4906 
G01 X23.7890 Y41.4906 
G01 X24.3746 Y40.9050 
G01 X24.3746 Y40.0064 
G01 X24.3920 Y39.9414 
G01 X24.4256 Y39.8832 
G01 X24.4732 Y39.8356 
G01 X24.5314 Y39.8020 
G01 X24.5964 Y39.7846 
G01 X24.9950 Y39.7846 
G01 X27.4906 Y37.2890 
G01 X27.4906 Y29.8464 
G01 X27.3476 Y29.8464 
G01 X27.2826 Y29.8290 
G01 X27.2244 Y29.7954 
G01 X27.1768 Y29.7478 
G01 X27.1432 Y29.6896 
G01 X27.1258 Y29.6246 
G01 X27.1258 Y28.3382 
G01 X27.1432 Y28.2732 
G01 X27.1768 Y28.2150 
G01 X27.2244 Y28.1674 
G01 X27.2826 Y28.1338 
G01 X27.3476 Y28.1164 
G01 X29.6500 Y28.1164 
G01 X29.7150 Y28.1338 
G01 X29.7732 Y28.1674 
G01 X29.8208 Y28.2150 
G01 X29.8544 Y28.2732 
G01 X29.8718 Y28.3382 
G01 X29.8718 Y29.6246 
G01 X29.8544 Y29.6896 
G01 X29.8208 Y29.7478 
G01 X29.7732 Y29.7954 
G01 X29.7150 Y29.8290 
G01 X29.6500 Y29.8464 
G01 X28.5094 Y29.8464 
G01 X28.5094 Y37.5671 
G01 X28.4747 Y37.6966 
G01 X28.4076 Y37.8128 
G01 X28.3128 Y37.9076 
G01 X25.6854 Y40.5350 
G01 X25.6854 Y41.2736 
G01 X25.6680 Y41.3386 
G01 X25.6344 Y41.3968 
G01 X25.5868 Y41.4444 
G01 X25.5286 Y41.4780 
G01 X25.4636 Y41.4954 
G01 X25.2250 Y41.4954 
G01 X24.4076 Y42.3128 
G01 X24.3128 Y42.4076 
G01 X24.1966 Y42.4747 
G01 X24.1372 Y42.4906 
G01 X24.7890 Y42.4906 
G01 X29.9906 Y37.2890 
G01 X29.9906 Y25.0094 
G01 X29.8698 Y25.0094 
G01 X29.8544 Y25.0668 
G01 X29.8208 Y25.1250 
G01 X29.7732 Y25.1726 
G01 X29.7150 Y25.2062 
G01 X29.6500 Y25.2236 
G01 X27.3476 Y25.2236 
G01 X27.2826 Y25.2062 
G01 X27.2244 Y25.1726 
G01 X27.1768 Y25.1250 
G01 X27.1432 Y25.0668 
G01 X27.1258 Y25.0018 
G01 X27.1258 Y23.7154 
G01 X27.1432 Y23.6504 
G01 X27.1768 Y23.5922 
G01 X27.2244 Y23.5446 
G01 X27.2826 Y23.5110 
G01 X27.3476 Y23.4936 
G01 X29.6500 Y23.4936 
G01 X29.7150 Y23.5110 
G01 X29.7732 Y23.5446 
G01 X29.8208 Y23.5922 
G01 X29.8544 Y23.6504 
G01 X29.8718 Y23.7154 
G01 X29.8718 Y23.9906 
G01 X30.5671 Y23.9906 
G01 X30.6966 Y24.0253 
G01 X30.8128 Y24.0924 
G01 X30.9076 Y24.1872 
G01 X30.9747 Y24.3034 
G01 X31.0094 Y24.4329 
G01 X31.0094 Y37.5671 
G01 X30.9747 Y37.6966 
G01 X30.9076 Y37.8128 
G01 X25.3128 Y43.4076 
G01 X25.1966 Y43.4747 
G01 X25.0671 Y43.5094 
G01 X7.9329 Y43.5094 
G01 X7.8034 Y43.4747 
G01 X7.6872 Y43.4076 
G01 X7.5924 Y43.3128 
G01 X7.5253 Y43.1966 
G01 X7.4906 Y43.0671 
G01 X7.4906 Y42.4136 
G01 X7.3232 Y42.3803 
G01 X7.1381 Y42.3036 
G01 X6.9714 Y42.1923 
G01 X6.8297 Y42.0506 
G01 X6.7184 Y41.8839 
G01 X6.6417 Y41.6988 
G01 X6.6026 Y41.5022 
G01 X6.6026 Y39.7778 
G01 X6.6417 Y39.5812 
G01 X6.7184 Y39.3961 
G01 X6.8297 Y39.2294 
G00 Z2.5400 
G00 X8.6369 Y29.4527 
G01 Z-0.1200 F100.00 
G01 X8.5073 Y29.3231 F230.00 
G01 X8.4055 Y29.1707 
G01 X8.3354 Y29.0014 
G01 X8.2996 Y28.8216 
G01 X8.2996 Y28.6384 
G01 X8.3354 Y28.4586 
G01 X8.4055 Y28.2893 
G01 X8.5073 Y28.1369 
G01 X8.6369 Y28.0073 
G01 X8.7893 Y27.9055 
G01 X8.9586 Y27.8354 
G01 X9.1384 Y27.7996 
G01 X9.3216 Y27.7996 
G01 X9.5014 Y27.8354 
G01 X9.6707 Y27.9055 
G01 X9.8231 Y28.0073 
G01 X9.9527 Y28.1369 
G01 X10.0086 Y28.2206 
G01 X13.5590 Y28.2206 
G01 X24.5446 Y17.2350 
G01 X24.5446 Y16.9764 
G01 X24.5620 Y16.9114 
G01 X24.5956 Y16.8532 
G01 X24.6432 Y16.8056 
G01 X24.7014 Y16.7720 
G01 X24.7664 Y16.7546 
G01 X26.0336 Y16.7546 
G01 X26.0986 Y16.7720 
G01 X26.1568 Y16.8056 
G01 X26.2044 Y16.8532 
G01 X26.2380 Y16.9114 
G01 X26.2554 Y16.9764 
G01 X26.2554 Y17.8436 
G01 X26.2380 Y17.9086 
G01 X26.2044 Y17.9668 
G01 X26.1568 Y18.0144 
G01 X26.0986 Y18.0480 
G01 X26.0336 Y18.0654 
G01 X25.1550 Y18.0654 
G01 X14.1776 Y29.0428 
G01 X14.0828 Y29.1376 
G01 X13.9666 Y29.2047 
G01 X13.8371 Y29.2394 
G01 X10.0086 Y29.2394 
G01 X9.9527 Y29.3231 
G01 X9.8231 Y29.4527 
G01 X9.6707 Y29.5545 
G01 X9.5014 Y29.6246 
G01 X9.3216 Y29.6604 
G01 X9.1384 Y29.6604 
G01 X8.9586 Y29.6246 
G01 X8.7893 Y29.5545 
G01 X8.6369 Y29.4527 
G00 Z2.5400 
G00 X8.7286 Y20.3946 
G01 Z-0.1200 F100.00 
G01 X8.5593 Y20.3245 F230.00 
G01 X8.4069 Y20.2227 
G01 X8.2773 Y20.0931 
G01 X8.1755 Y19.9407 
G01 X8.1054 Y19.7714 
G01 X8.0696 Y19.5916 
G01 X8.0696 Y19.4084 
G01 X8.1054 Y19.2286 
G01 X8.1755 Y19.0593 
G01 X8.2773 Y18.9069 
G01 X8.4069 Y18.7773 
G01 X8.4906 Y18.7214 
G01 X8.4906 Y5.4329 
G01 X8.5253 Y5.3034 
G01 X8.5924 Y5.1872 
G01 X8.6872 Y5.0924 
G01 X8.8034 Y5.0253 
G01 X8.9329 Y4.9906 
G01 X14.9546 Y4.9906 
G01 X14.9546 Y4.4464 
G01 X14.9720 Y4.3814 
G01 X15.0056 Y4.3232 
G01 X15.0532 Y4.2756 
G01 X15.1114 Y4.2420 
G01 X15.1764 Y4.2246 
G01 X16.0436 Y4.2246 
G01 X16.1086 Y4.2420 
G01 X16.1668 Y4.2756 
G01 X16.2144 Y4.3232 
G01 X16.2480 Y4.3814 
G01 X16.2654 Y4.4464 
G01 X16.2654 Y5.7136 
G01 X16.2480 Y5.7786 
G01 X16.2144 Y5.8368 
G01 X16.1668 Y5.8844 
G01 X16.1086 Y5.9180 
G01 X16.0436 Y5.9354 
G01 X15.7647 Y5.9354 
G01 X15.7562 Y5.9403 
G01 X15.6993 Y5.9736 
G01 X15.6966 Y5.9747 
G01 X15.6334 Y5.9916 
G01 X15.5699 Y6.0090 
G01 X15.5671 Y6.0094 
G01 X15.5015 Y6.0094 
G01 X15.4358 Y6.0098 
G01 X9.5094 Y6.0094 
G01 X9.5094 Y18.7214 
G01 X9.5931 Y18.7773 
G01 X9.7227 Y18.9069 
G01 X9.8245 Y19.0593 
G01 X9.8946 Y19.2286 
G01 X9.9304 Y19.4084 
G01 X9.9304 Y19.5916 
G01 X9.8946 Y19.7714 
G01 X9.8245 Y19.9407 
G01 X9.7227 Y20.0931 
G01 X9.5931 Y20.2227 
G01 X9.4407 Y20.3245 
G01 X9.2714 Y20.3946 
G01 X9.0916 Y20.4304 
G01 X8.9084 Y20.4304 
G01 X8.7286 Y20.3946 
G00 Z2.5400 
G00 X10.1872 Y17.9076 
G01 Z-0.1200 F100.00 
G01 X10.0924 Y17.8128 F230.00 
G01 X10.0253 Y17.6966 
G01 X9.9906 Y17.5671 
G01 X9.9906 Y10.7386 
G01 X9.9069 Y10.6827 
G01 X9.7773 Y10.5531 
G01 X9.6755 Y10.4007 
G01 X9.6054 Y10.2314 
G01 X9.5696 Y10.0516 
G01 X9.5696 Y9.8684 
G01 X9.6054 Y9.6886 
G01 X9.6755 Y9.5193 
G01 X9.7773 Y9.3669 
G01 X9.9069 Y9.2373 
G01 X10.0593 Y9.1355 
G01 X10.2286 Y9.0654 
G01 X10.4084 Y9.0296 
G01 X10.5916 Y9.0296 
G01 X10.7714 Y9.0654 
G01 X10.9407 Y9.1355 
G01 X11.0931 Y9.2373 
G01 X11.2227 Y9.3669 
G01 X11.3245 Y9.5193 
G01 X11.3946 Y9.6886 
G01 X11.4304 Y9.8684 
G01 X11.4304 Y10.0516 
G01 X11.3946 Y10.2314 
G01 X11.3245 Y10.4007 
G01 X11.2227 Y10.5531 
G01 X11.0931 Y10.6827 
G01 X11.0094 Y10.7386 
G01 X11.0094 Y16.9906 
G01 X16.9246 Y16.9906 
G01 X16.9246 Y16.9764 
G01 X16.9420 Y16.9114 
G01 X16.9756 Y16.8532 
G01 X17.0232 Y16.8056 
G01 X17.0814 Y16.7720 
G01 X17.1464 Y16.7546 
G01 X18.4136 Y16.7546 
G01 X18.4786 Y16.7720 
G01 X18.5368 Y16.8056 
G01 X18.5844 Y16.8532 
G01 X18.6180 Y16.9114 
G01 X18.6354 Y16.9764 
G01 X18.6354 Y17.8436 
G01 X18.6180 Y17.9086 
G01 X18.5844 Y17.9668 
G01 X18.5368 Y18.0144 
G01 X18.4786 Y18.0480 
G01 X18.4136 Y18.0654 
G01 X17.1464 Y18.0654 
G01 X17.0814 Y18.0480 
G01 X17.0232 Y18.0144 
G01 X17.0182 Y18.0094 
G01 X10.4329 Y18.0094 
G01 X10.3034 Y17.9747 
G01 X10.1872 Y17.9076 
G00 Z2.5400 
G00 X17.0232 Y16.2144 
G01 Z-0.1200 F100.00 
G01 X16.9756 Y16.1668 F230.00 
G01 X16.9420 Y16.1086 
G01 X16.9246 Y16.0436 
G01 X16.9246 Y15.1764 
G01 X16.9420 Y15.1114 
G01 X16.9756 Y15.0532 
G01 X17.0232 Y15.0056 
G01 X17.0814 Y14.9720 
G01 X17.1464 Y14.9546 
G01 X17.8250 Y14.9546 
G01 X19.4906 Y13.2890 
G01 X19.4906 Y11.9574 
G01 X19.3606 Y11.8274 
G01 X19.3606 Y11.0326 
G01 X19.9226 Y10.4706 
G01 X20.7174 Y10.4706 
G01 X21.2794 Y11.0326 
G01 X21.2794 Y11.8274 
G01 X20.7174 Y12.3894 
G01 X20.5094 Y12.3894 
G01 X20.5094 Y13.5671 
G01 X20.4747 Y13.6966 
G01 X20.4076 Y13.8128 
G01 X20.3128 Y13.9076 
G01 X18.6354 Y15.5850 
G01 X18.6354 Y16.0436 
G01 X18.6180 Y16.1086 
G01 X18.5844 Y16.1668 
G01 X18.5368 Y16.2144 
G01 X18.4786 Y16.2480 
G01 X18.4136 Y16.2654 
G01 X17.1464 Y16.2654 
G01 X17.0814 Y16.2480 
G01 X17.0232 Y16.2144 
G00 Z2.5400 
G00 X20.8332 Y16.2144 
G01 Z-0.1200 F100.00 
G01 X20.7856 Y16.1668 F230.00 
G01 X20.7520 Y16.1086 
G01 X20.7346 Y16.0436 
G01 X20.7346 Y15.1764 
G01 X20.7520 Y15.1114 
G01 X20.7856 Y15.0532 
G01 X20.8332 Y15.0056 
G01 X20.8914 Y14.9720 
G01 X20.9564 Y14.9546 
G01 X21.8250 Y14.9546 
G01 X21.9906 Y14.7890 
G01 X21.9906 Y11.9174 
G01 X21.9006 Y11.8274 
G01 X21.9006 Y11.0326 
G01 X22.4626 Y10.4706 
G01 X23.2574 Y10.4706 
G01 X23.8194 Y11.0326 
G01 X23.8194 Y11.8274 
G01 X23.2574 Y12.3894 
G01 X23.0094 Y12.3894 
G01 X23.0094 Y15.0671 
G01 X22.9747 Y15.1966 
G01 X22.9076 Y15.3128 
G01 X22.8128 Y15.4076 
G01 X22.4454 Y15.7750 
G01 X22.4454 Y16.0436 
G01 X22.4280 Y16.1086 
G01 X22.3944 Y16.1668 
G01 X22.3468 Y16.2144 
G01 X22.2886 Y16.2480 
G01 X22.2236 Y16.2654 
G01 X20.9564 Y16.2654 
G01 X20.8914 Y16.2480 
G01 X20.8332 Y16.2144 
G00 Z2.5400 
G00 X20.8332 Y16.8056 
G01 Z-0.1200 F100.00 
G01 X20.8914 Y16.7720 F230.00 
G01 X20.9564 Y16.7546 
G01 X22.2236 Y16.7546 
G01 X22.2886 Y16.7720 
G01 X22.3468 Y16.8056 
G01 X22.3944 Y16.8532 
G01 X22.4280 Y16.9114 
G01 X22.4454 Y16.9764 
G01 X22.4454 Y17.8436 
G01 X22.4280 Y17.9086 
G01 X22.3944 Y17.9668 
G01 X22.3468 Y18.0144 
G01 X22.2886 Y18.0480 
G01 X22.2236 Y18.0654 
G01 X21.6550 Y18.0654 
G01 X18.8904 Y20.8300 
G01 X18.8904 Y20.8616 
G01 X18.8546 Y21.0414 
G01 X18.7845 Y21.2107 
G01 X18.6827 Y21.3631 
G01 X18.5531 Y21.4927 
G01 X18.4007 Y21.5945 
G01 X18.2314 Y21.6646 
G01 X18.0516 Y21.7004 
G01 X17.8684 Y21.7004 
G01 X17.6886 Y21.6646 
G01 X17.5193 Y21.5945 
G01 X17.3669 Y21.4927 
G01 X17.2373 Y21.3631 
G01 X17.1355 Y21.2107 
G01 X17.0654 Y21.0414 
G01 X17.0296 Y20.8616 
G01 X17.0296 Y20.6784 
G01 X17.0654 Y20.4986 
G01 X17.1355 Y20.3293 
G01 X17.2373 Y20.1769 
G01 X17.3669 Y20.0473 
G01 X17.5193 Y19.9455 
G01 X17.6886 Y19.8754 
G01 X17.8684 Y19.8396 
G01 X18.0516 Y19.8396 
G01 X18.2314 Y19.8754 
G01 X18.3536 Y19.9260 
G01 X20.7346 Y17.5450 
G01 X20.7346 Y16.9764 
G01 X20.7520 Y16.9114 
G01 X20.7856 Y16.8532 
G01 X20.8332 Y16.8056 
G00 Z2.5400 
G00 X24.6432 Y16.2144 
G01 Z-0.1200 F100.00 
G01 X24.5956 Y16.1668 F230.00 
G01 X24.5620 Y16.1086 
G01 X24.5446 Y16.0436 
G01 X24.5446 Y15.1764 
G01 X24.5620 Y15.1114 
G01 X24.5956 Y15.0532 
G01 X24.6432 Y15.0056 
G01 X24.7014 Y14.9720 
G01 X24.7664 Y14.9546 
G01 X24.9906 Y14.9546 
G01 X24.9906 Y12.3774 
G01 X24.4406 Y11.8274 
G01 X24.4406 Y11.0326 
G01 X25.0026 Y10.4706 
G01 X25.7974 Y10.4706 
G01 X26.3594 Y11.0326 
G01 X26.3594 Y11.8274 
G01 X26.0094 Y12.1774 
G01 X26.0094 Y14.9546 
G01 X26.0336 Y14.9546 
G01 X26.0986 Y14.9720 
G01 X26.1568 Y15.0056 
G01 X26.2044 Y15.0532 
G01 X26.2380 Y15.1114 
G01 X26.2554 Y15.1764 
G01 X26.2554 Y16.0436 
G01 X26.2380 Y16.1086 
G01 X26.2044 Y16.1668 
G01 X26.1568 Y16.2144 
G01 X26.0986 Y16.2480 
G01 X26.0336 Y16.2654 
G01 X24.7664 Y16.2654 
G01 X24.7014 Y16.2480 
G01 X24.6432 Y16.2144 
G00 Z2.5400 
G00 X23.8194 Y9.2874 
G01 Z-0.1200 F100.00 
G01 X23.2574 Y9.8494 F230.00 
G01 X22.4626 Y9.8494 
G01 X21.9006 Y9.2874 
G01 X21.9006 Y8.4926 
G01 X22.4626 Y7.9306 
G01 X23.2574 Y7.9306 
G01 X23.8194 Y8.4926 
G01 X23.8194 Y9.2874 
G00 Z2.5400 
G00 X21.2794 Y9.2874 
G01 Z-0.1200 F100.00 
G01 X20.7174 Y9.8494 F230.00 
G01 X19.9226 Y9.8494 
G01 X19.3606 Y9.2874 
G01 X19.3606 Y8.4926 
G01 X19.9226 Y7.9306 
G01 X20.7174 Y7.9306 
G01 X21.2794 Y8.4926 
G01 X21.2794 Y9.2874 
G00 Z2.5400 
G00 X18.7394 Y9.2874 
G01 Z-0.1200 F100.00 
G01 X18.1774 Y9.8494 F230.00 
G01 X17.3826 Y9.8494 
G01 X16.8206 Y9.2874 
G01 X16.8206 Y8.4926 
G01 X16.9906 Y8.3226 
G01 X16.9906 Y5.9354 
G01 X16.9764 Y5.9354 
G01 X16.9114 Y5.9180 
G01 X16.8532 Y5.8844 
G01 X16.8056 Y5.8368 
G01 X16.7720 Y5.7786 
G01 X16.7546 Y5.7136 
G01 X16.7546 Y4.4464 
G01 X16.7720 Y4.3814 
G01 X16.8056 Y4.3232 
G01 X16.8532 Y4.2756 
G01 X16.9114 Y4.2420 
G01 X16.9764 Y4.2246 
G01 X17.8436 Y4.2246 
G01 X17.9086 Y4.2420 
G01 X17.9668 Y4.2756 
G01 X18.0144 Y4.3232 
G01 X18.0480 Y4.3814 
G01 X18.0654 Y4.4464 
G01 X18.0654 Y5.7136 
G01 X18.0480 Y5.7786 
G01 X18.0144 Y5.8368 
G01 X18.0094 Y5.8418 
G01 X18.0094 Y7.9306 
G01 X18.1774 Y7.9306 
G01 X18.7394 Y8.4926 
G01 X18.7394 Y9.2874 
G00 Z2.5400 
G00 X18.7394 Y11.0326 
G01 Z-0.1200 F100.00 
G01 X18.7394 Y11.8274 F230.00 
G01 X18.1774 Y12.3894 
G01 X17.3826 Y12.3894 
G01 X16.8206 Y11.8274 
G01 X16.8206 Y11.0326 
G01 X17.3826 Y10.4706 
G01 X18.1774 Y10.4706 
G01 X18.7394 Y11.0326 
G00 Z2.5400 
G00 X20.9966 Y24.7132 
G01 Z-0.1200 F100.00 
G01 X21.0442 Y24.6656 F230.00 
G01 X21.1024 Y24.6320 
G01 X21.1674 Y24.6146 
G01 X23.4346 Y24.6146 
G01 X23.4996 Y24.6320 
G01 X23.5578 Y24.6656 
G01 X23.6054 Y24.7132 
G01 X23.6390 Y24.7714 
G01 X23.6564 Y24.8364 
G01 X23.6564 Y28.5036 
G01 X23.6390 Y28.5686 
G01 X23.6054 Y28.6268 
G01 X23.5578 Y28.6744 
G01 X23.4996 Y28.7080 
G01 X23.4346 Y28.7254 
G01 X21.1674 Y28.7254 
G01 X21.1024 Y28.7080 
G01 X21.0442 Y28.6744 
G01 X20.9966 Y28.6268 
G01 X20.9630 Y28.5686 
G01 X20.9456 Y28.5036 
G01 X20.9456 Y24.8364 
G01 X20.9630 Y24.7714 
G01 X20.9966 Y24.7132 
G00 Z2.5400 
G00 X20.6389 Y41.0094 
G01 Z-0.1200 F100.00 
G01 X20.6389 Y41.2121 F230.00 
G01 X20.6139 Y41.3053 
G01 X20.5657 Y41.3889 
G01 X20.4974 Y41.4572 
G01 X20.4395 Y41.4906 
G01 X22.7785 Y41.4906 
G01 X22.7314 Y41.4780 
G01 X22.6732 Y41.4444 
G01 X22.6256 Y41.3968 
G01 X22.5920 Y41.3386 
G01 X22.5746 Y41.2736 
G01 X22.5746 Y41.0094 
G01 X20.6389 Y41.0094 
G00 Z2.5400 
G00 X2.1652 Y4.3260 
G01 Z-0.1200 F100.00 
G01 X2.2940 Y4.1972 F230.00 
G01 X2.4414 Y4.0901 
G01 X2.6037 Y4.0074 
G01 X2.7770 Y3.9511 
G01 X2.9569 Y3.9226 
G01 X4.6631 Y3.9226 
G01 X4.8430 Y3.9511 
G01 X5.0163 Y4.0074 
G01 X5.1786 Y4.0901 
G01 X5.3260 Y4.1972 
G01 X5.4548 Y4.3260 
G01 X5.5619 Y4.4734 
G01 X5.6446 Y4.6357 
G01 X5.7009 Y4.8090 
G01 X5.7294 Y4.9889 
G01 X5.7294 Y5.1711 
G01 X5.7009 Y5.3510 
G01 X5.6446 Y5.5243 
G01 X5.5619 Y5.6866 
G01 X5.4548 Y5.8340 
G01 X5.3260 Y5.9628 
G01 X5.1786 Y6.0699 
G01 X5.0163 Y6.1526 
G01 X4.8430 Y6.2089 
G01 X4.6631 Y6.2374 
G01 X2.9569 Y6.2374 
G01 X2.7770 Y6.2089 
G01 X2.6037 Y6.1526 
G01 X2.4414 Y6.0699 
G01 X2.2940 Y5.9628 
G01 X2.1652 Y5.8340 
G01 X2.0581 Y5.6866 
G01 X1.9754 Y5.5243 
G01 X1.9191 Y5.3510 
G01 X1.8906 Y5.1711 
G01 X1.8906 Y4.9889 
G01 X1.9191 Y4.8090 
G01 X1.9754 Y4.6357 
G01 X2.0581 Y4.4734 
G01 X2.1652 Y4.3260 
G00 Z2.5400 
G00 X2.1652 Y6.8660 
G01 Z-0.1200 F100.00 
G01 X2.2940 Y6.7372 F230.00 
G01 X2.4414 Y6.6301 
G01 X2.6037 Y6.5474 
G01 X2.7770 Y6.4911 
G01 X2.9569 Y6.4626 
G01 X4.6631 Y6.4626 
G01 X4.8430 Y6.4911 
G01 X5.0163 Y6.5474 
G01 X5.1786 Y6.6301 
G01 X5.3260 Y6.7372 
G01 X5.4548 Y6.8660 
G01 X5.5619 Y7.0134 
G01 X5.6446 Y7.1757 
G01 X5.7009 Y7.3490 
G01 X5.7294 Y7.5289 
G01 X5.7294 Y7.7111 
G01 X5.7009 Y7.8910 
G01 X5.6446 Y8.0643 
G01 X5.5619 Y8.2266 
G01 X5.4548 Y8.3740 
G01 X5.3260 Y8.5028 
G01 X5.1786 Y8.6099 
G01 X5.0163 Y8.6926 
G01 X4.8430 Y8.7489 
G01 X4.6631 Y8.7774 
G01 X2.9569 Y8.7774 
G01 X2.7770 Y8.7489 
G01 X2.6037 Y8.6926 
G01 X2.4414 Y8.6099 
G01 X2.2940 Y8.5028 
G01 X2.1652 Y8.3740 
G01 X2.0581 Y8.2266 
G01 X1.9754 Y8.0643 
G01 X1.9191 Y7.8910 
G01 X1.8906 Y7.7111 
G01 X1.8906 Y7.5289 
G01 X1.9191 Y7.3490 
G01 X1.9754 Y7.1757 
G01 X2.0581 Y7.0134 
G01 X2.1652 Y6.8660 
G00 Z2.5400 
G00 X2.1652 Y13.2160 
G01 Z-0.1200 F100.00 
G01 X2.2940 Y13.0872 F230.00 
G01 X2.4414 Y12.9801 
G01 X2.6037 Y12.8974 
G01 X2.7770 Y12.8411 
G01 X2.9569 Y12.8126 
G01 X4.6631 Y12.8126 
G01 X4.8430 Y12.8411 
G01 X5.0163 Y12.8974 
G01 X5.1786 Y12.9801 
G01 X5.3260 Y13.0872 
G01 X5.4548 Y13.2160 
G01 X5.5619 Y13.3634 
G01 X5.6446 Y13.5257 
G01 X5.7009 Y13.6990 
G01 X5.7294 Y13.8789 
G01 X5.7294 Y14.0611 
G01 X5.7009 Y14.2410 
G01 X5.6446 Y14.4143 
G01 X5.5619 Y14.5766 
G01 X5.4548 Y14.7240 
G01 X5.3260 Y14.8528 
G01 X5.1786 Y14.9599 
G01 X5.0163 Y15.0426 
G01 X4.8430 Y15.0989 
G01 X4.6631 Y15.1274 
G01 X2.9569 Y15.1274 
G01 X2.7770 Y15.0989 
G01 X2.6037 Y15.0426 
G01 X2.4414 Y14.9599 
G01 X2.2940 Y14.8528 
G01 X2.1652 Y14.7240 
G01 X2.0581 Y14.5766 
G01 X1.9754 Y14.4143 
G01 X1.9191 Y14.2410 
G01 X1.8906 Y14.0611 
G01 X1.8906 Y13.8789 
G01 X1.9191 Y13.6990 
G01 X1.9754 Y13.5257 
G01 X2.0581 Y13.3634 
G01 X2.1652 Y13.2160 
G00 Z2.5400 
G00 X2.1652 Y15.7560 
G01 Z-0.1200 F100.00 
G01 X2.2940 Y15.6272 F230.00 
G01 X2.4414 Y15.5201 
G01 X2.6037 Y15.4374 
G01 X2.7770 Y15.3811 
G01 X2.9569 Y15.3526 
G01 X4.6631 Y15.3526 
G01 X4.8430 Y15.3811 
G01 X5.0163 Y15.4374 
G01 X5.1786 Y15.5201 
G01 X5.3260 Y15.6272 
G01 X5.4548 Y15.7560 
G01 X5.5619 Y15.9034 
G01 X5.6446 Y16.0657 
G01 X5.7009 Y16.2390 
G01 X5.7294 Y16.4189 
G01 X5.7294 Y16.6011 
G01 X5.7009 Y16.7810 
G01 X5.6446 Y16.9543 
G01 X5.5619 Y17.1166 
G01 X5.4548 Y17.2640 
G01 X5.3260 Y17.3928 
G01 X5.1786 Y17.4999 
G01 X5.0163 Y17.5826 
G01 X4.8430 Y17.6389 
G01 X4.6631 Y17.6674 
G01 X2.9569 Y17.6674 
G01 X2.7770 Y17.6389 
G01 X2.6037 Y17.5826 
G01 X2.4414 Y17.4999 
G01 X2.2940 Y17.3928 
G01 X2.1652 Y17.2640 
G01 X2.0581 Y17.1166 
G01 X1.9754 Y16.9543 
G01 X1.9191 Y16.7810 
G01 X1.8906 Y16.6011 
G01 X1.8906 Y16.4189 
G01 X1.9191 Y16.2390 
G01 X1.9754 Y16.0657 
G01 X2.0581 Y15.9034 
G01 X2.1652 Y15.7560 
G00 Z2.5400 
G00 X2.1652 Y22.1060 
G01 Z-0.1200 F100.00 
G01 X2.2940 Y21.9772 F230.00 
G01 X2.4414 Y21.8701 
G01 X2.6037 Y21.7874 
G01 X2.7770 Y21.7311 
G01 X2.9569 Y21.7026 
G01 X4.6631 Y21.7026 
G01 X4.8430 Y21.7311 
G01 X5.0163 Y21.7874 
G01 X5.1786 Y21.8701 
G01 X5.3260 Y21.9772 
G01 X5.4548 Y22.1060 
G01 X5.5619 Y22.2534 
G01 X5.6446 Y22.4157 
G01 X5.7009 Y22.5890 
G01 X5.7294 Y22.7689 
G01 X5.7294 Y22.9511 
G01 X5.7009 Y23.1310 
G01 X5.6446 Y23.3043 
G01 X5.5619 Y23.4666 
G01 X5.4548 Y23.6140 
G01 X5.3260 Y23.7428 
G01 X5.1786 Y23.8499 
G01 X5.0163 Y23.9326 
G01 X4.8430 Y23.9889 
G01 X4.6631 Y24.0174 
G01 X2.9569 Y24.0174 
G01 X2.7770 Y23.9889 
G01 X2.6037 Y23.9326 
G01 X2.4414 Y23.8499 
G01 X2.2940 Y23.7428 
G01 X2.1652 Y23.6140 
G01 X2.0581 Y23.4666 
G01 X1.9754 Y23.3043 
G01 X1.9191 Y23.1310 
G01 X1.8906 Y22.9511 
G01 X1.8906 Y22.7689 
G01 X1.9191 Y22.5890 
G01 X1.9754 Y22.4157 
G01 X2.0581 Y22.2534 
G01 X2.1652 Y22.1060 
G00 Z2.5400 
G00 X2.1652 Y24.6460 
G01 Z-0.1200 F100.00 
G01 X2.2940 Y24.5172 F230.00 
G01 X2.4414 Y24.4101 
G01 X2.6037 Y24.3274 
G01 X2.7770 Y24.2711 
G01 X2.9569 Y24.2426 
G01 X4.6631 Y24.2426 
G01 X4.8430 Y24.2711 
G01 X5.0163 Y24.3274 
G01 X5.1786 Y24.4101 
G01 X5.3260 Y24.5172 
G01 X5.4548 Y24.6460 
G01 X5.5619 Y24.7934 
G01 X5.6446 Y24.9557 
G01 X5.7009 Y25.1290 
G01 X5.7294 Y25.3089 
G01 X5.7294 Y25.4911 
G01 X5.7009 Y25.6710 
G01 X5.6446 Y25.8443 
G01 X5.5619 Y26.0066 
G01 X5.4548 Y26.1540 
G01 X5.3260 Y26.2828 
G01 X5.1786 Y26.3899 
G01 X5.0163 Y26.4726 
G01 X4.8430 Y26.5289 
G01 X4.6631 Y26.5574 
G01 X2.9569 Y26.5574 
G01 X2.7770 Y26.5289 
G01 X2.6037 Y26.4726 
G01 X2.4414 Y26.3899 
G01 X2.2940 Y26.2828 
G01 X2.1652 Y26.1540 
G01 X2.0581 Y26.0066 
G01 X1.9754 Y25.8443 
G01 X1.9191 Y25.6710 
G01 X1.8906 Y25.4911 
G01 X1.8906 Y25.3089 
G01 X1.9191 Y25.1290 
G01 X1.9754 Y24.9557 
G01 X2.0581 Y24.7934 
G01 X2.1652 Y24.6460 
G00 Z2.5400 
G00 X2.1652 Y30.9960 
G01 Z-0.1200 F100.00 
G01 X2.2940 Y30.8672 F230.00 
G01 X2.4414 Y30.7601 
G01 X2.6037 Y30.6774 
G01 X2.7770 Y30.6211 
G01 X2.9569 Y30.5926 
G01 X4.6631 Y30.5926 
G01 X4.8430 Y30.6211 
G01 X5.0163 Y30.6774 
G01 X5.1786 Y30.7601 
G01 X5.3260 Y30.8672 
G01 X5.4548 Y30.9960 
G01 X5.5619 Y31.1434 
G01 X5.6446 Y31.3057 
G01 X5.7009 Y31.4790 
G01 X5.7294 Y31.6589 
G01 X5.7294 Y31.8411 
G01 X5.7009 Y32.0210 
G01 X5.6446 Y32.1943 
G01 X5.5619 Y32.3566 
G01 X5.4548 Y32.5040 
G01 X5.3260 Y32.6328 
G01 X5.1786 Y32.7399 
G01 X5.0163 Y32.8226 
G01 X4.8430 Y32.8789 
G01 X4.6631 Y32.9074 
G01 X2.9569 Y32.9074 
G01 X2.7770 Y32.8789 
G01 X2.6037 Y32.8226 
G01 X2.4414 Y32.7399 
G01 X2.2940 Y32.6328 
G01 X2.1652 Y32.5040 
G01 X2.0581 Y32.3566 
G01 X1.9754 Y32.1943 
G01 X1.9191 Y32.0210 
G01 X1.8906 Y31.8411 
G01 X1.8906 Y31.6589 
G01 X1.9191 Y31.4790 
G01 X1.9754 Y31.3057 
G01 X2.0581 Y31.1434 
G01 X2.1652 Y30.9960 
G00 Z2.5400 
G00 X2.1652 Y33.5360 
G01 Z-0.1200 F100.00 
G01 X2.2940 Y33.4072 F230.00 
G01 X2.4414 Y33.3001 
G01 X2.6037 Y33.2174 
G01 X2.7770 Y33.1611 
G01 X2.9569 Y33.1326 
G01 X4.6631 Y33.1326 
G01 X4.8430 Y33.1611 
G01 X5.0163 Y33.2174 
G01 X5.1786 Y33.3001 
G01 X5.3260 Y33.4072 
G01 X5.4548 Y33.5360 
G01 X5.5619 Y33.6834 
G01 X5.6446 Y33.8457 
G01 X5.7009 Y34.0190 
G01 X5.7294 Y34.1989 
G01 X5.7294 Y34.3811 
G01 X5.7009 Y34.5610 
G01 X5.6446 Y34.7343 
G01 X5.5619 Y34.8966 
G01 X5.4548 Y35.0440 
G01 X5.3260 Y35.1728 
G01 X5.1786 Y35.2799 
G01 X5.0163 Y35.3626 
G01 X4.8430 Y35.4189 
G01 X4.6631 Y35.4474 
G01 X2.9569 Y35.4474 
G01 X2.7770 Y35.4189 
G01 X2.6037 Y35.3626 
G01 X2.4414 Y35.2799 
G01 X2.2940 Y35.1728 
G01 X2.1652 Y35.0440 
G01 X2.0581 Y34.8966 
G01 X1.9754 Y34.7343 
G01 X1.9191 Y34.5610 
G01 X1.8906 Y34.3811 
G01 X1.8906 Y34.1989 
G01 X1.9191 Y34.0190 
G01 X1.9754 Y33.8457 
G01 X2.0581 Y33.6834 
G01 X2.1652 Y33.5360 
G00 Z2.5400 
G00 X6.7372 Y39.1240 
G01 Z-0.1200 F100.00 
G01 X6.8660 Y38.9952 F230.00 
G01 X7.0134 Y38.8881 
G01 X7.1757 Y38.8054 
G01 X7.3490 Y38.7491 
G01 X7.5289 Y38.7206 
G01 X7.7111 Y38.7206 
G01 X7.8910 Y38.7491 
G01 X8.0643 Y38.8054 
G01 X8.2266 Y38.8881 
G01 X8.3740 Y38.9952 
G01 X8.5028 Y39.1240 
G01 X8.6099 Y39.2714 
G01 X8.6926 Y39.4337 
G01 X8.7489 Y39.6070 
G01 X8.7774 Y39.7869 
G01 X8.7774 Y41.4931 
G01 X8.7489 Y41.6730 
G01 X8.6926 Y41.8463 
G01 X8.6494 Y41.9311 
G01 X8.6494 Y42.3506 
G01 X9.4966 Y42.3506 
G01 X9.4060 Y42.2848 
G01 X9.2772 Y42.1560 
G01 X9.1701 Y42.0086 
G01 X9.0874 Y41.8463 
G01 X9.0311 Y41.6730 
G01 X9.0026 Y41.4931 
G01 X9.0026 Y39.7869 
G01 X9.0311 Y39.6070 
G01 X9.0874 Y39.4337 
G01 X9.1701 Y39.2714 
G01 X9.2772 Y39.1240 
G01 X9.4060 Y38.9952 
G01 X9.5534 Y38.8881 
G01 X9.7157 Y38.8054 
G01 X9.8890 Y38.7491 
G01 X10.0689 Y38.7206 
G01 X10.2511 Y38.7206 
G01 X10.4310 Y38.7491 
G01 X10.6043 Y38.8054 
G01 X10.7666 Y38.8881 
G01 X10.9140 Y38.9952 
G01 X11.0428 Y39.1240 
G01 X11.1499 Y39.2714 
G01 X11.2326 Y39.4337 
G01 X11.2889 Y39.6070 
G01 X11.3174 Y39.7869 
G01 X11.3174 Y41.3506 
G01 X17.3533 Y41.3506 
G01 X17.3211 Y41.2306 
G01 X17.3211 Y40.0494 
G01 X17.3556 Y39.9206 
G01 X17.4223 Y39.8051 
G01 X17.5166 Y39.7108 
G01 X17.6321 Y39.6441 
G01 X17.7609 Y39.6096 
G01 X17.8506 Y39.6096 
G01 X17.8506 Y35.9360 
G01 X17.8756 Y35.8106 
G01 X17.9245 Y35.6924 
G01 X17.9956 Y35.5860 
G01 X25.8506 Y27.7310 
G01 X25.8506 Y23.4360 
G01 X25.8756 Y23.3106 
G01 X25.9245 Y23.1924 
G01 X25.9956 Y23.0860 
G01 X26.0860 Y22.9956 
G01 X26.3506 Y22.7310 
G01 X26.3506 Y17.9935 
G01 X26.3164 Y18.0528 
G01 X26.2428 Y18.1264 
G01 X26.1526 Y18.1785 
G01 X26.0521 Y18.2054 
G01 X25.2130 Y18.2054 
G01 X14.2744 Y29.1440 
G01 X14.1840 Y29.2344 
G01 X14.0776 Y29.3055 
G01 X13.9594 Y29.3544 
G01 X13.8340 Y29.3794 
G01 X10.0813 Y29.3794 
G01 X10.0465 Y29.4273 
G01 X9.9273 Y29.5465 
G01 X9.7910 Y29.6455 
G01 X9.6409 Y29.7220 
G01 X9.4807 Y29.7740 
G01 X9.3142 Y29.8004 
G01 X9.1458 Y29.8004 
G01 X8.9793 Y29.7740 
G01 X8.8191 Y29.7220 
G01 X8.6690 Y29.6455 
G01 X8.5327 Y29.5465 
G01 X8.4135 Y29.4273 
G01 X8.3145 Y29.2910 
G01 X8.2380 Y29.1409 
G01 X8.1860 Y28.9807 
G01 X8.1596 Y28.8142 
G01 X8.1596 Y28.6458 
G01 X8.1860 Y28.4793 
G01 X8.2380 Y28.3191 
G01 X8.3145 Y28.1690 
G01 X8.4135 Y28.0327 
G01 X8.5327 Y27.9135 
G01 X8.6690 Y27.8145 
G01 X8.8191 Y27.7380 
G01 X8.9793 Y27.6860 
G01 X9.1458 Y27.6596 
G01 X9.3142 Y27.6596 
G01 X9.4807 Y27.6860 
G01 X9.6409 Y27.7380 
G01 X9.7910 Y27.8145 
G01 X9.9273 Y27.9135 
G01 X10.0465 Y28.0327 
G01 X10.0813 Y28.0806 
G01 X13.5010 Y28.0806 
G01 X24.4046 Y17.1770 
G01 X24.4046 Y16.9579 
G01 X24.4315 Y16.8574 
G01 X24.4836 Y16.7672 
G01 X24.5572 Y16.6936 
G01 X24.6474 Y16.6415 
G01 X24.7479 Y16.6146 
G01 X26.0521 Y16.6146 
G01 X26.1526 Y16.6415 
G01 X26.2428 Y16.6936 
G01 X26.3164 Y16.7672 
G01 X26.3506 Y16.8265 
G01 X26.3506 Y16.1935 
G01 X26.3164 Y16.2528 
G01 X26.2428 Y16.3264 
G01 X26.1526 Y16.3785 
G01 X26.0521 Y16.4054 
G01 X24.7479 Y16.4054 
G01 X24.6474 Y16.3785 
G01 X24.5572 Y16.3264 
G01 X24.4836 Y16.2528 
G01 X24.4315 Y16.1626 
G01 X24.4046 Y16.0621 
G01 X24.4046 Y15.1579 
G01 X24.4315 Y15.0574 
G01 X24.4836 Y14.9672 
G01 X24.5572 Y14.8936 
G01 X24.6474 Y14.8415 
G01 X24.7479 Y14.8146 
G01 X24.8506 Y14.8146 
G01 X24.8506 Y12.4354 
G01 X24.3006 Y11.8854 
G01 X24.3006 Y10.9746 
G01 X24.9446 Y10.3306 
G01 X25.8554 Y10.3306 
G01 X26.3506 Y10.8258 
G01 X26.3506 Y10.7690 
G01 X25.5710 Y9.9894 
G01 X24.9446 Y9.9894 
G01 X24.3006 Y9.3454 
G01 X24.3006 Y8.4346 
G01 X24.9446 Y7.7906 
G01 X25.8554 Y7.7906 
G01 X26.4994 Y8.4346 
G01 X26.4994 Y9.0810 
G01 X27.4140 Y9.9956 
G01 X27.5044 Y10.0860 
G01 X27.5755 Y10.1924 
G01 X27.6244 Y10.3106 
G01 X27.6494 Y10.4360 
G01 X27.6494 Y23.0640 
G01 X27.6244 Y23.1894 
G01 X27.5755 Y23.3076 
G01 X27.5448 Y23.3536 
G01 X29.6685 Y23.3536 
G01 X29.7690 Y23.3805 
G01 X29.8592 Y23.4326 
G01 X29.9328 Y23.5062 
G01 X29.9849 Y23.5964 
G01 X30.0118 Y23.6969 
G01 X30.0118 Y23.8506 
G01 X30.5640 Y23.8506 
G01 X30.6894 Y23.8756 
G01 X30.8076 Y23.9245 
G01 X30.9140 Y23.9956 
G01 X31.0044 Y24.0860 
G01 X31.0755 Y24.1924 
G01 X31.1244 Y24.3106 
G01 X31.1494 Y24.4360 
G01 X31.1494 Y37.5640 
G01 X31.1244 Y37.6894 
G01 X31.0755 Y37.8076 
G01 X31.0044 Y37.9140 
G01 X25.4140 Y43.5044 
G01 X25.3076 Y43.5755 
G01 X25.1894 Y43.6244 
G01 X25.0640 Y43.6494 
G01 X7.9360 Y43.6494 
G01 X7.8106 Y43.6244 
G01 X7.6924 Y43.5755 
G01 X7.5860 Y43.5044 
G01 X7.4956 Y43.4140 
G01 X7.4245 Y43.3076 
G01 X7.3756 Y43.1894 
G01 X7.3506 Y43.0640 
G01 X7.3506 Y42.5312 
G01 X7.1757 Y42.4746 
G01 X7.0134 Y42.3919 
G01 X6.8660 Y42.2848 
G01 X6.7372 Y42.1560 
G01 X6.6301 Y42.0086 
G01 X6.5474 Y41.8463 
G01 X6.4911 Y41.6730 
G01 X6.4626 Y41.4931 
G01 X6.4626 Y39.7869 
G01 X6.4911 Y39.6070 
G01 X6.5474 Y39.4337 
G01 X6.6301 Y39.2714 
G01 X6.7372 Y39.1240 
G00 Z2.5400 
G00 X19.2003 Y39.8051 
G01 Z-0.1200 F100.00 
G01 X19.2946 Y39.7108 F230.00 
G01 X19.4101 Y39.6441 
G01 X19.5389 Y39.6096 
G01 X20.3391 Y39.6096 
G01 X20.4679 Y39.6441 
G01 X20.5834 Y39.7108 
G01 X20.6777 Y39.8051 
G01 X20.7040 Y39.8506 
G01 X22.4828 Y39.8506 
G01 X22.5136 Y39.7972 
G01 X22.5872 Y39.7236 
G01 X22.6774 Y39.6715 
G01 X22.7779 Y39.6446 
G01 X23.6821 Y39.6446 
G01 X23.7826 Y39.6715 
G01 X23.8728 Y39.7236 
G01 X23.9464 Y39.7972 
G01 X23.9984 Y39.8874 
G01 X24.0254 Y39.9879 
G01 X24.0254 Y41.0562 
G01 X24.2346 Y40.8470 
G01 X24.2346 Y39.9879 
G01 X24.2615 Y39.8874 
G01 X24.3136 Y39.7972 
G01 X24.3872 Y39.7236 
G01 X24.4774 Y39.6715 
G01 X24.5779 Y39.6446 
G01 X24.9370 Y39.6446 
G01 X27.3506 Y37.2310 
G01 X27.3506 Y29.9864 
G01 X27.3291 Y29.9864 
G01 X27.2286 Y29.9595 
G01 X27.1384 Y29.9074 
G01 X27.0648 Y29.8338 
G01 X27.0127 Y29.7436 
G01 X26.9858 Y29.6431 
G01 X26.9858 Y28.4326 
G01 X26.9140 Y28.5044 
G01 X19.1494 Y36.2690 
G01 X19.1494 Y39.8933 
G01 X19.2003 Y39.8051 
G00 Z2.5400 
G00 X19.0991 Y40.7506 
G01 Z-0.1200 F100.00 
G01 X19.0755 Y40.8076 F230.00 
G01 X19.0394 Y40.8617 
G01 X19.0044 Y40.9140 
G01 X19.0009 Y40.9176 
G01 X19.0009 Y41.2306 
G01 X18.9687 Y41.3506 
G01 X19.1313 Y41.3506 
G01 X19.0991 Y41.2306 
G01 X19.0991 Y40.7506 
G00 Z2.5400 
G00 X20.7789 Y41.1494 
G01 Z-0.1200 F100.00 
G01 X20.7789 Y41.2306 F230.00 
G01 X20.7467 Y41.3506 
G01 X22.4503 Y41.3506 
G01 X22.4346 Y41.2921 
G01 X22.4346 Y41.1494 
G01 X20.7789 Y41.1494 
G00 Z2.5400 
G00 X25.2830 Y41.6354 
G01 Z-0.1200 F100.00 
G01 X24.5678 Y42.3506 F230.00 
G01 X24.7310 Y42.3506 
G01 X25.4462 Y41.6354 
G01 X25.2830 Y41.6354 
G00 Z2.5400 
G00 X25.8254 Y41.2562 
G01 Z-0.1200 F100.00 
G01 X29.8506 Y37.2310 F230.00 
G01 X29.8506 Y29.9123 
G01 X29.7690 Y29.9595 
G01 X29.6685 Y29.9864 
G01 X28.6494 Y29.9864 
G01 X28.6494 Y37.5640 
G01 X28.6244 Y37.6894 
G01 X28.5755 Y37.8076 
G01 X28.5044 Y37.9140 
G01 X28.4140 Y38.0044 
G01 X25.8254 Y40.5930 
G01 X25.8254 Y41.2562 
G00 Z2.5400 
G00 X23.7174 Y28.7128 
G01 Z-0.1200 F100.00 
G01 X23.6438 Y28.7864 F230.00 
G01 X23.5536 Y28.8385 
G01 X23.4531 Y28.8654 
G01 X21.1489 Y28.8654 
G01 X21.0484 Y28.8385 
G01 X20.9582 Y28.7864 
G01 X20.8846 Y28.7128 
G01 X20.8325 Y28.6226 
G01 X20.8056 Y28.5221 
G01 X20.8056 Y24.8179 
G01 X20.8325 Y24.7174 
G01 X20.8846 Y24.6272 
G01 X20.9582 Y24.5536 
G01 X21.0484 Y24.5015 
G01 X21.1489 Y24.4746 
G01 X23.4531 Y24.4746 
G01 X23.5536 Y24.5015 
G01 X23.6438 Y24.5536 
G01 X23.7174 Y24.6272 
G01 X23.7694 Y24.7174 
G01 X23.7964 Y24.8179 
G01 X23.7964 Y28.5221 
G01 X23.7694 Y28.6226 
G01 X23.7174 Y28.7128 
G00 Z2.5400 
G00 X27.4420 Y27.9764 
G01 Z-0.1200 F100.00 
G01 X29.6685 Y27.9764 F230.00 
G01 X29.7690 Y28.0033 
G01 X29.8506 Y28.0505 
G01 X29.8506 Y27.6009 
G01 X29.7690 Y27.6481 
G01 X29.6685 Y27.6750 
G01 X27.7434 Y27.6750 
G01 X27.4420 Y27.9764 
G00 Z2.5400 
G00 X27.3291 Y25.6650 
G01 Z-0.1200 F100.00 
G01 X29.6685 Y25.6650 F230.00 
G01 X29.7690 Y25.6919 
G01 X29.8506 Y25.7390 
G01 X29.8506 Y25.2895 
G01 X29.7690 Y25.3366 
G01 X29.6685 Y25.3636 
G01 X27.3291 Y25.3636 
G01 X27.2286 Y25.3366 
G01 X27.1494 Y25.2909 
G01 X27.1494 Y25.7377 
G01 X27.2286 Y25.6919 
G01 X27.3291 Y25.6650 
G00 Z2.5400 
G00 X26.3506 Y15.0265 
G01 Z-0.1200 F100.00 
G01 X26.3506 Y12.0342 F230.00 
G01 X26.1494 Y12.2354 
G01 X26.1494 Y14.8407 
G01 X26.1526 Y14.8415 
G01 X26.2428 Y14.8936 
G01 X26.3164 Y14.9672 
G01 X26.3506 Y15.0265 
G00 Z2.5400 
G00 X23.1494 Y15.0640 
G01 Z-0.1200 F100.00 
G01 X23.1244 Y15.1894 F230.00 
G01 X23.0755 Y15.3076 
G01 X23.0044 Y15.4140 
G01 X22.9140 Y15.5044 
G01 X22.5854 Y15.8330 
G01 X22.5854 Y16.0621 
G01 X22.5585 Y16.1626 
G01 X22.5064 Y16.2528 
G01 X22.4328 Y16.3264 
G01 X22.3426 Y16.3785 
G01 X22.2421 Y16.4054 
G01 X20.9379 Y16.4054 
G01 X20.8374 Y16.3785 
G01 X20.7472 Y16.3264 
G01 X20.6736 Y16.2528 
G01 X20.6215 Y16.1626 
G01 X20.5946 Y16.0621 
G01 X20.5946 Y15.1579 
G01 X20.6215 Y15.0574 
G01 X20.6736 Y14.9672 
G01 X20.7472 Y14.8936 
G01 X20.8374 Y14.8415 
G01 X20.9379 Y14.8146 
G01 X21.7670 Y14.8146 
G01 X21.8506 Y14.7310 
G01 X21.8506 Y11.9754 
G01 X21.7606 Y11.8854 
G01 X21.7606 Y10.9746 
G01 X22.4046 Y10.3306 
G01 X23.3154 Y10.3306 
G01 X23.9594 Y10.9746 
G01 X23.9594 Y11.8854 
G01 X23.3154 Y12.5294 
G01 X23.1494 Y12.5294 
G01 X23.1494 Y15.0640 
G00 Z2.5400 
G00 X22.4328 Y16.6936 
G01 Z-0.1200 F100.00 
G01 X22.5064 Y16.7672 F230.00 
G01 X22.5585 Y16.8574 
G01 X22.5854 Y16.9579 
G01 X22.5854 Y17.8621 
G01 X22.5585 Y17.9626 
G01 X22.5064 Y18.0528 
G01 X22.4328 Y18.1264 
G01 X22.3426 Y18.1785 
G01 X22.2421 Y18.2054 
G01 X21.7130 Y18.2054 
G01 X19.0240 Y20.8943 
G01 X19.0040 Y21.0207 
G01 X18.9520 Y21.1809 
G01 X18.8755 Y21.3310 
G01 X18.7765 Y21.4673 
G01 X18.6573 Y21.5865 
G01 X18.5210 Y21.6855 
G01 X18.3709 Y21.7620 
G01 X18.2107 Y21.8140 
G01 X18.0442 Y21.8404 
G01 X17.8758 Y21.8404 
G01 X17.7093 Y21.8140 
G01 X17.5491 Y21.7620 
G01 X17.3990 Y21.6855 
G01 X17.2627 Y21.5865 
G01 X17.1435 Y21.4673 
G01 X17.0445 Y21.3310 
G01 X16.9680 Y21.1809 
G01 X16.9160 Y21.0207 
G01 X16.8896 Y20.8542 
G01 X16.8896 Y20.6858 
G01 X16.9160 Y20.5193 
G01 X16.9680 Y20.3591 
G01 X17.0445 Y20.2090 
G01 X17.1435 Y20.0727 
G01 X17.2627 Y19.9535 
G01 X17.3990 Y19.8545 
G01 X17.5491 Y19.7780 
G01 X17.7093 Y19.7260 
G01 X17.8758 Y19.6996 
G01 X18.0442 Y19.6996 
G01 X18.2107 Y19.7260 
G01 X18.3201 Y19.7615 
G01 X20.5946 Y17.4870 
G01 X20.5946 Y16.9579 
G01 X20.6215 Y16.8574 
G01 X20.6736 Y16.7672 
G01 X20.7472 Y16.6936 
G01 X20.8374 Y16.6415 
G01 X20.9379 Y16.6146 
G01 X22.2421 Y16.6146 
G01 X22.3426 Y16.6415 
G01 X22.4328 Y16.6936 
G00 Z2.5400 
G00 X18.6228 Y16.6936 
G01 Z-0.1200 F100.00 
G01 X18.6964 Y16.7672 F230.00 
G01 X18.7484 Y16.8574 
G01 X18.7754 Y16.9579 
G01 X18.7754 Y17.8621 
G01 X18.7484 Y17.9626 
G01 X18.6964 Y18.0528 
G01 X18.6228 Y18.1264 
G01 X18.5326 Y18.1785 
G01 X18.4321 Y18.2054 
G01 X17.1279 Y18.2054 
G01 X17.0274 Y18.1785 
G01 X16.9771 Y18.1494 
G01 X10.4360 Y18.1494 
G01 X10.3106 Y18.1244 
G01 X10.1924 Y18.0755 
G01 X10.0860 Y18.0044 
G01 X9.9956 Y17.9140 
G01 X9.9245 Y17.8076 
G01 X9.8756 Y17.6894 
G01 X9.8506 Y17.5640 
G01 X9.8506 Y10.8113 
G01 X9.8027 Y10.7765 
G01 X9.6835 Y10.6573 
G01 X9.6494 Y10.6103 
G01 X9.6494 Y18.6487 
G01 X9.6973 Y18.6835 
G01 X9.8165 Y18.8027 
G01 X9.9155 Y18.9390 
G01 X9.9920 Y19.0891 
G01 X10.0440 Y19.2493 
G01 X10.0704 Y19.4158 
G01 X10.0704 Y19.5842 
G01 X10.0440 Y19.7507 
G01 X9.9920 Y19.9109 
G01 X9.9155 Y20.0610 
G01 X9.8165 Y20.1973 
G01 X9.6973 Y20.3165 
G01 X9.5610 Y20.4155 
G01 X9.4109 Y20.4920 
G01 X9.2507 Y20.5440 
G01 X9.0842 Y20.5704 
G01 X8.9158 Y20.5704 
G01 X8.7493 Y20.5440 
G01 X8.5891 Y20.4920 
G01 X8.4390 Y20.4155 
G01 X8.3027 Y20.3165 
G01 X8.1835 Y20.1973 
G01 X8.0845 Y20.0610 
G01 X8.0080 Y19.9109 
G01 X7.9560 Y19.7507 
G01 X7.9296 Y19.5842 
G01 X7.9296 Y19.4158 
G01 X7.9560 Y19.2493 
G01 X8.0080 Y19.0891 
G01 X8.0845 Y18.9390 
G01 X8.1835 Y18.8027 
G01 X8.3027 Y18.6835 
G01 X8.3506 Y18.6487 
G01 X8.3506 Y5.4360 
G01 X8.3756 Y5.3106 
G01 X8.4245 Y5.1924 
G01 X8.4956 Y5.0860 
G01 X8.5860 Y4.9956 
G01 X8.6924 Y4.9245 
G01 X8.8106 Y4.8756 
G01 X8.9360 Y4.8506 
G01 X14.8146 Y4.8506 
G01 X14.8146 Y4.4279 
G01 X14.8415 Y4.3274 
G01 X14.8936 Y4.2372 
G01 X14.9672 Y4.1636 
G01 X15.0574 Y4.1115 
G01 X15.1579 Y4.0846 
G01 X16.0621 Y4.0846 
G01 X16.1626 Y4.1115 
G01 X16.2528 Y4.1636 
G01 X16.3264 Y4.2372 
G01 X16.3785 Y4.3274 
G01 X16.4054 Y4.4279 
G01 X16.4054 Y5.7321 
G01 X16.3785 Y5.8326 
G01 X16.3264 Y5.9228 
G01 X16.2528 Y5.9964 
G01 X16.1626 Y6.0484 
G01 X16.0621 Y6.0754 
G01 X15.8077 Y6.0754 
G01 X15.7895 Y6.0830 
G01 X15.7727 Y6.0928 
G01 X15.7306 Y6.1074 
G01 X15.6894 Y6.1244 
G01 X15.6702 Y6.1283 
G01 X15.6518 Y6.1346 
G01 X15.6076 Y6.1407 
G01 X15.5640 Y6.1494 
G01 X15.5444 Y6.1494 
G01 X15.5250 Y6.1521 
G01 X15.4806 Y6.1494 
G01 X9.6494 Y6.1494 
G01 X9.6494 Y9.3097 
G01 X9.6835 Y9.2627 
G01 X9.8027 Y9.1435 
G01 X9.9390 Y9.0445 
G01 X10.0891 Y8.9680 
G01 X10.2493 Y8.9160 
G01 X10.4158 Y8.8896 
G01 X10.5842 Y8.8896 
G01 X10.7507 Y8.9160 
G01 X10.9109 Y8.9680 
G01 X11.0610 Y9.0445 
G01 X11.1973 Y9.1435 
G01 X11.3165 Y9.2627 
G01 X11.4155 Y9.3990 
G01 X11.4920 Y9.5491 
G01 X11.5440 Y9.7093 
G01 X11.5704 Y9.8758 
G01 X11.5704 Y10.0442 
G01 X11.5440 Y10.2107 
G01 X11.4920 Y10.3709 
G01 X11.4155 Y10.5210 
G01 X11.3165 Y10.6573 
G01 X11.1973 Y10.7765 
G01 X11.1494 Y10.8113 
G01 X11.1494 Y16.8506 
G01 X16.8155 Y16.8506 
G01 X16.8636 Y16.7672 
G01 X16.9372 Y16.6936 
G01 X17.0274 Y16.6415 
G01 X17.1279 Y16.6146 
G01 X18.4321 Y16.6146 
G01 X18.5326 Y16.6415 
G01 X18.6228 Y16.6936 
G00 Z2.5400 
G00 X18.6228 Y16.3264 
G01 Z-0.1200 F100.00 
G01 X18.5326 Y16.3785 F230.00 
G01 X18.4321 Y16.4054 
G01 X17.1279 Y16.4054 
G01 X17.0274 Y16.3785 
G01 X16.9372 Y16.3264 
G01 X16.8636 Y16.2528 
G01 X16.8115 Y16.1626 
G01 X16.7846 Y16.0621 
G01 X16.7846 Y15.1579 
G01 X16.8115 Y15.0574 
G01 X16.8636 Y14.9672 
G01 X16.9372 Y14.8936 
G01 X17.0274 Y14.8415 
G01 X17.1279 Y14.8146 
G01 X17.7670 Y14.8146 
G01 X19.3506 Y13.2310 
G01 X19.3506 Y12.0154 
G01 X19.2206 Y11.8854 
G01 X19.2206 Y10.9746 
G01 X19.8646 Y10.3306 
G01 X20.7754 Y10.3306 
G01 X21.4194 Y10.9746 
G01 X21.4194 Y11.8854 
G01 X20.7754 Y12.5294 
G01 X20.6494 Y12.5294 
G01 X20.6494 Y13.5640 
G01 X20.6244 Y13.6894 
G01 X20.5755 Y13.8076 
G01 X20.5044 Y13.9140 
G01 X20.4140 Y14.0044 
G01 X18.7754 Y15.6430 
G01 X18.7754 Y16.0621 
G01 X18.7484 Y16.1626 
G01 X18.6964 Y16.2528 
G01 X18.6228 Y16.3264 
G00 Z2.5400 
G00 X18.2354 Y12.5294 
G01 Z-0.1200 F100.00 
G01 X17.3246 Y12.5294 F230.00 
G01 X16.6806 Y11.8854 
G01 X16.6806 Y10.9746 
G01 X17.3246 Y10.3306 
G01 X18.2354 Y10.3306 
G01 X18.8794 Y10.9746 
G01 X18.8794 Y11.8854 
G01 X18.2354 Y12.5294 
G00 Z2.5400 
G00 X18.2354 Y9.9894 
G01 Z-0.1200 F100.00 
G01 X17.3246 Y9.9894 F230.00 
G01 X16.6806 Y9.3454 
G01 X16.6806 Y8.4346 
G01 X16.8506 Y8.2646 
G01 X16.8506 Y6.0445 
G01 X16.7672 Y5.9964 
G01 X16.6936 Y5.9228 
G01 X16.6415 Y5.8326 
G01 X16.6146 Y5.7321 
G01 X16.6146 Y4.4279 
G01 X16.6415 Y4.3274 
G01 X16.6936 Y4.2372 
G01 X16.7672 Y4.1636 
G01 X16.8574 Y4.1115 
G01 X16.9579 Y4.0846 
G01 X17.8621 Y4.0846 
G01 X17.9626 Y4.1115 
G01 X18.0528 Y4.1636 
G01 X18.1264 Y4.2372 
G01 X18.1785 Y4.3274 
G01 X18.2054 Y4.4279 
G01 X18.2054 Y5.7321 
G01 X18.1785 Y5.8326 
G01 X18.1494 Y5.8829 
G01 X18.1494 Y7.7906 
G01 X18.2354 Y7.7906 
G01 X18.8794 Y8.4346 
G01 X18.8794 Y9.3454 
G01 X18.2354 Y9.9894 
G00 Z2.5400 
G00 X19.8646 Y9.9894 
G01 Z-0.1200 F100.00 
G01 X19.2206 Y9.3454 F230.00 
G01 X19.2206 Y8.4346 
G01 X19.8646 Y7.7906 
G01 X20.7754 Y7.7906 
G01 X21.4194 Y8.4346 
G01 X21.4194 Y9.3454 
G01 X20.7754 Y9.9894 
G01 X19.8646 Y9.9894 
G00 Z2.5400 
G00 X22.4046 Y9.9894 
G01 Z-0.1200 F100.00 
G01 X21.7606 Y9.3454 F230.00 
G01 X21.7606 Y8.4346 
G01 X22.4046 Y7.7906 
G01 X23.3154 Y7.7906 
G01 X23.9594 Y8.4346 
G01 X23.9594 Y9.3454 
G01 X23.3154 Y9.9894 
G01 X22.4046 Y9.9894 
G00 Z2.5400 
G00 X2.0584 Y4.2348 
G01 Z-0.1200 F100.00 
G01 X2.2028 Y4.0904 F230.00 
G01 X2.3680 Y3.9704 
G01 X2.5500 Y3.8777 
G01 X2.7442 Y3.8145 
G01 X2.9459 Y3.7826 
G01 X4.6741 Y3.7826 
G01 X4.8758 Y3.8145 
G01 X5.0700 Y3.8777 
G01 X5.2520 Y3.9704 
G01 X5.4172 Y4.0904 
G01 X5.5616 Y4.2348 
G01 X5.6816 Y4.4000 
G01 X5.7743 Y4.5820 
G01 X5.8374 Y4.7762 
G01 X5.8694 Y4.9779 
G01 X5.8694 Y5.1821 
G01 X5.8374 Y5.3838 
G01 X5.7743 Y5.5780 
G01 X5.6816 Y5.7600 
G01 X5.5616 Y5.9252 
G01 X5.4172 Y6.0696 
G01 X5.2520 Y6.1896 
G01 X5.0700 Y6.2823 
G01 X4.8758 Y6.3454 
G01 X4.8471 Y6.3500 
G01 X4.8758 Y6.3545 
G01 X5.0700 Y6.4177 
G01 X5.2520 Y6.5104 
G01 X5.4172 Y6.6304 
G01 X5.5616 Y6.7748 
G01 X5.6816 Y6.9400 
G01 X5.7743 Y7.1220 
G01 X5.8374 Y7.3162 
G01 X5.8694 Y7.5179 
G01 X5.8694 Y7.7221 
G01 X5.8374 Y7.9238 
G01 X5.7743 Y8.1180 
G01 X5.6816 Y8.3000 
G01 X5.5616 Y8.4652 
G01 X5.4172 Y8.6096 
G01 X5.2520 Y8.7296 
G01 X5.0700 Y8.8223 
G01 X4.8758 Y8.8855 
G01 X4.6741 Y8.9174 
G01 X2.9459 Y8.9174 
G01 X2.7442 Y8.8855 
G01 X2.5500 Y8.8223 
G01 X2.3680 Y8.7296 
G01 X2.2028 Y8.6096 
G01 X2.0584 Y8.4652 
G01 X1.9384 Y8.3000 
G01 X1.8457 Y8.1180 
G01 X1.7825 Y7.9238 
G01 X1.7506 Y7.7221 
G01 X1.7506 Y7.5179 
G01 X1.7825 Y7.3162 
G01 X1.8457 Y7.1220 
G01 X1.9384 Y6.9400 
G01 X2.0584 Y6.7748 
G01 X2.2028 Y6.6304 
G01 X2.3680 Y6.5104 
G01 X2.5500 Y6.4177 
G01 X2.7442 Y6.3545 
G01 X2.7729 Y6.3500 
G01 X2.7442 Y6.3454 
G01 X2.5500 Y6.2823 
G01 X2.3680 Y6.1896 
G01 X2.2028 Y6.0696 
G01 X2.0584 Y5.9252 
G01 X1.9384 Y5.7600 
G01 X1.8457 Y5.5780 
G01 X1.7825 Y5.3838 
G01 X1.7506 Y5.1821 
G01 X1.7506 Y4.9779 
G01 X1.7825 Y4.7762 
G01 X1.8457 Y4.5820 
G01 X1.9384 Y4.4000 
G01 X2.0584 Y4.2348 
G00 Z2.5400 
G00 X8.3868 Y4.9968 
G01 Z-0.1200 F100.00 
G01 X8.4968 Y4.8868 F230.00 
G01 X8.6261 Y4.8004 
G01 X8.7697 Y4.7409 
G01 X8.9222 Y4.7106 
G01 X14.6746 Y4.7106 
G01 X14.6746 Y4.4095 
G01 X14.7111 Y4.2733 
G01 X14.7816 Y4.1513 
G01 X14.8813 Y4.0516 
G01 X15.0033 Y3.9811 
G01 X15.1395 Y3.9446 
G01 X16.0805 Y3.9446 
G01 X16.2167 Y3.9811 
G01 X16.3387 Y4.0516 
G01 X16.4384 Y4.1513 
G01 X16.5089 Y4.2733 
G01 X16.5100 Y4.2774 
G01 X16.5111 Y4.2733 
G01 X16.5816 Y4.1513 
G01 X16.6813 Y4.0516 
G01 X16.8033 Y3.9811 
G01 X16.9395 Y3.9446 
G01 X17.8805 Y3.9446 
G01 X18.0167 Y3.9811 
G01 X18.1387 Y4.0516 
G01 X18.2384 Y4.1513 
G01 X18.3089 Y4.2733 
G01 X18.3454 Y4.4095 
G01 X18.3454 Y5.7505 
G01 X18.3089 Y5.8867 
G01 X18.2894 Y5.9205 
G01 X18.2894 Y7.6506 
G01 X18.2934 Y7.6506 
G01 X19.0194 Y8.3766 
G01 X19.0194 Y9.4034 
G01 X18.2934 Y10.1294 
G01 X17.2666 Y10.1294 
G01 X16.5406 Y9.4034 
G01 X16.5406 Y8.3766 
G01 X16.7106 Y8.2066 
G01 X16.7106 Y6.1254 
G01 X16.6813 Y6.1084 
G01 X16.5816 Y6.0087 
G01 X16.5111 Y5.8867 
G01 X16.5100 Y5.8826 
G01 X16.5089 Y5.8867 
G01 X16.4384 Y6.0087 
G01 X16.3387 Y6.1084 
G01 X16.2167 Y6.1789 
G01 X16.0805 Y6.2154 
G01 X15.8404 Y6.2154 
G01 X15.8314 Y6.2207 
G01 X15.7802 Y6.2384 
G01 X15.7303 Y6.2591 
G01 X15.7070 Y6.2637 
G01 X15.6845 Y6.2715 
G01 X15.6308 Y6.2788 
G01 X15.5777 Y6.2894 
G01 X15.5540 Y6.2894 
G01 X15.5304 Y6.2926 
G01 X15.4764 Y6.2894 
G01 X9.7894 Y6.2894 
G01 X9.7894 Y8.9801 
G01 X9.8656 Y8.9248 
G01 X10.0354 Y8.8383 
G01 X10.2166 Y8.7794 
G01 X10.4047 Y8.7496 
G01 X10.5953 Y8.7496 
G01 X10.7834 Y8.7794 
G01 X10.9646 Y8.8383 
G01 X11.1344 Y8.9248 
G01 X11.2885 Y9.0368 
G01 X11.4232 Y9.1715 
G01 X11.5352 Y9.3256 
G01 X11.6217 Y9.4954 
G01 X11.6806 Y9.6766 
G01 X11.7104 Y9.8647 
G01 X11.7104 Y10.0553 
G01 X11.6806 Y10.2434 
G01 X11.6217 Y10.4246 
G01 X11.5352 Y10.5944 
G01 X11.4232 Y10.7485 
G01 X11.2894 Y10.8824 
G01 X11.2894 Y16.7106 
G01 X16.7346 Y16.7106 
G01 X16.7516 Y16.6813 
G01 X16.8513 Y16.5816 
G01 X16.9733 Y16.5111 
G01 X16.9774 Y16.5100 
G01 X16.9733 Y16.5089 
G01 X16.8513 Y16.4384 
G01 X16.7516 Y16.3387 
G01 X16.6811 Y16.2167 
G01 X16.6446 Y16.0805 
G01 X16.6446 Y15.1395 
G01 X16.6811 Y15.0033 
G01 X16.7516 Y14.8813 
G01 X16.8513 Y14.7816 
G01 X16.9733 Y14.7111 
G01 X17.1095 Y14.6746 
G01 X17.7090 Y14.6746 
G01 X19.2106 Y13.1730 
G01 X19.2106 Y12.0734 
G01 X19.0806 Y11.9434 
G01 X19.0806 Y10.9166 
G01 X19.8066 Y10.1906 
G01 X20.8334 Y10.1906 
G01 X21.5594 Y10.9166 
G01 X21.5594 Y11.9434 
G01 X20.8334 Y12.6694 
G01 X20.7894 Y12.6694 
G01 X20.7894 Y13.5777 
G01 X20.7591 Y13.7303 
G01 X20.6996 Y13.8739 
G01 X20.6132 Y14.0032 
G01 X20.5032 Y14.1132 
G01 X18.9154 Y15.7010 
G01 X18.9154 Y16.0805 
G01 X18.8789 Y16.2167 
G01 X18.8084 Y16.3387 
G01 X18.7087 Y16.4384 
G01 X18.5867 Y16.5089 
G01 X18.5826 Y16.5100 
G01 X18.5867 Y16.5111 
G01 X18.7087 Y16.5816 
G01 X18.8084 Y16.6813 
G01 X18.8789 Y16.8033 
G01 X18.9154 Y16.9395 
G01 X18.9154 Y17.8805 
G01 X18.8789 Y18.0167 
G01 X18.8084 Y18.1387 
G01 X18.7087 Y18.2384 
G01 X18.5867 Y18.3089 
G01 X18.4505 Y18.3454 
G01 X17.1095 Y18.3454 
G01 X16.9733 Y18.3089 
G01 X16.9395 Y18.2894 
G01 X10.4222 Y18.2894 
G01 X10.2697 Y18.2591 
G01 X10.1261 Y18.1996 
G01 X9.9968 Y18.1132 
G01 X9.8868 Y18.0032 
G01 X9.8004 Y17.8739 
G01 X9.7894 Y17.8472 
G01 X9.7894 Y18.5776 
G01 X9.9232 Y18.7115 
G01 X10.0352 Y18.8656 
G01 X10.1217 Y19.0354 
G01 X10.1806 Y19.2166 
G01 X10.2104 Y19.4047 
G01 X10.2104 Y19.5953 
G01 X10.1806 Y19.7834 
G01 X10.1217 Y19.9646 
G01 X10.0352 Y20.1344 
G01 X9.9232 Y20.2885 
G01 X9.7885 Y20.4232 
G01 X9.6344 Y20.5352 
G01 X9.4646 Y20.6217 
G01 X9.2834 Y20.6806 
G01 X9.0953 Y20.7104 
G01 X8.9047 Y20.7104 
G01 X8.7166 Y20.6806 
G01 X8.5354 Y20.6217 
G01 X8.3656 Y20.5352 
G01 X8.2115 Y20.4232 
G01 X8.0768 Y20.2885 
G01 X7.9648 Y20.1344 
G01 X7.8783 Y19.9646 
G01 X7.8194 Y19.7834 
G01 X7.7896 Y19.5953 
G01 X7.7896 Y19.4047 
G01 X7.8194 Y19.2166 
G01 X7.8783 Y19.0354 
G01 X7.9648 Y18.8656 
G01 X8.0768 Y18.7115 
G01 X8.2106 Y18.5776 
G01 X8.2106 Y5.4222 
G01 X8.2409 Y5.2697 
G01 X8.3004 Y5.1261 
G01 X8.3868 Y4.9968 
G00 Z2.5400 
G00 X5.4172 Y12.9804 
G01 Z-0.1200 F100.00 
G01 X5.5616 Y13.1248 F230.00 
G01 X5.6816 Y13.2900 
G01 X5.7743 Y13.4720 
G01 X5.8374 Y13.6662 
G01 X5.8694 Y13.8679 
G01 X5.8694 Y14.0721 
G01 X5.8374 Y14.2738 
G01 X5.7743 Y14.4680 
G01 X5.6816 Y14.6500 
G01 X5.5616 Y14.8152 
G01 X5.4172 Y14.9596 
G01 X5.2520 Y15.0796 
G01 X5.0700 Y15.1723 
G01 X4.8758 Y15.2355 
G01 X4.8471 Y15.2400 
G01 X4.8758 Y15.2445 
G01 X5.0700 Y15.3077 
G01 X5.2520 Y15.4004 
G01 X5.4172 Y15.5204 
G01 X5.5616 Y15.6648 
G01 X5.6816 Y15.8300 
G01 X5.7743 Y16.0120 
G01 X5.8374 Y16.2062 
G01 X5.8694 Y16.4079 
G01 X5.8694 Y16.6121 
G01 X5.8374 Y16.8138 
G01 X5.7743 Y17.0080 
G01 X5.6816 Y17.1900 
G01 X5.5616 Y17.3552 
G01 X5.4172 Y17.4996 
G01 X5.2520 Y17.6196 
G01 X5.0700 Y17.7123 
G01 X4.8758 Y17.7754 
G01 X4.6741 Y17.8074 
G01 X2.9459 Y17.8074 
G01 X2.7442 Y17.7754 
G01 X2.5500 Y17.7123 
G01 X2.3680 Y17.6196 
G01 X2.2028 Y17.4996 
G01 X2.0584 Y17.3552 
G01 X1.9384 Y17.1900 
G01 X1.8457 Y17.0080 
G01 X1.7825 Y16.8138 
G01 X1.7506 Y16.6121 
G01 X1.7506 Y16.4079 
G01 X1.7825 Y16.2062 
G01 X1.8457 Y16.0120 
G01 X1.9384 Y15.8300 
G01 X2.0584 Y15.6648 
G01 X2.2028 Y15.5204 
G01 X2.3680 Y15.4004 
G01 X2.5500 Y15.3077 
G01 X2.7442 Y15.2445 
G01 X2.7729 Y15.2400 
G01 X2.7442 Y15.2355 
G01 X2.5500 Y15.1723 
G01 X2.3680 Y15.0796 
G01 X2.2028 Y14.9596 
G01 X2.0584 Y14.8152 
G01 X1.9384 Y14.6500 
G01 X1.8457 Y14.4680 
G01 X1.7825 Y14.2738 
G01 X1.7506 Y14.0721 
G01 X1.7506 Y13.8679 
G01 X1.7825 Y13.6662 
G01 X1.8457 Y13.4720 
G01 X1.9384 Y13.2900 
G01 X2.0584 Y13.1248 
G01 X2.2028 Y12.9804 
G01 X2.3680 Y12.8604 
G01 X2.5500 Y12.7677 
G01 X2.7442 Y12.7045 
G01 X2.9459 Y12.6726 
G01 X4.6741 Y12.6726 
G01 X4.8758 Y12.7045 
G01 X5.0700 Y12.7677 
G01 X5.2520 Y12.8604 
G01 X5.4172 Y12.9804 
G00 Z2.5400 
G00 X5.4172 Y21.8704 
G01 Z-0.1200 F100.00 
G01 X5.5616 Y22.0148 F230.00 
G01 X5.6816 Y22.1800 
G01 X5.7743 Y22.3620 
G01 X5.8374 Y22.5562 
G01 X5.8694 Y22.7579 
G01 X5.8694 Y22.9621 
G01 X5.8374 Y23.1638 
G01 X5.7743 Y23.3580 
G01 X5.6816 Y23.5400 
G01 X5.5616 Y23.7052 
G01 X5.4172 Y23.8496 
G01 X5.2520 Y23.9696 
G01 X5.0700 Y24.0623 
G01 X4.8758 Y24.1255 
G01 X4.8471 Y24.1300 
G01 X4.8758 Y24.1345 
G01 X5.0700 Y24.1977 
G01 X5.2520 Y24.2904 
G01 X5.4172 Y24.4104 
G01 X5.5616 Y24.5548 
G01 X5.6816 Y24.7200 
G01 X5.7743 Y24.9020 
G01 X5.8374 Y25.0962 
G01 X5.8694 Y25.2979 
G01 X5.8694 Y25.5021 
G01 X5.8374 Y25.7038 
G01 X5.7743 Y25.8980 
G01 X5.6816 Y26.0800 
G01 X5.5616 Y26.2452 
G01 X5.4172 Y26.3896 
G01 X5.2520 Y26.5096 
G01 X5.0700 Y26.6023 
G01 X4.8758 Y26.6654 
G01 X4.6741 Y26.6974 
G01 X2.9459 Y26.6974 
G01 X2.7442 Y26.6654 
G01 X2.5500 Y26.6023 
G01 X2.3680 Y26.5096 
G01 X2.2028 Y26.3896 
G01 X2.0584 Y26.2452 
G01 X1.9384 Y26.0800 
G01 X1.8457 Y25.8980 
G01 X1.7825 Y25.7038 
G01 X1.7506 Y25.5021 
G01 X1.7506 Y25.2979 
G01 X1.7825 Y25.0962 
G01 X1.8457 Y24.9020 
G01 X1.9384 Y24.7200 
G01 X2.0584 Y24.5548 
G01 X2.2028 Y24.4104 
G01 X2.3680 Y24.2904 
G01 X2.5500 Y24.1977 
G01 X2.7442 Y24.1345 
G01 X2.7729 Y24.1300 
G01 X2.7442 Y24.1255 
G01 X2.5500 Y24.0623 
G01 X2.3680 Y23.9696 
G01 X2.2028 Y23.8496 
G01 X2.0584 Y23.7052 
G01 X1.9384 Y23.5400 
G01 X1.8457 Y23.3580 
G01 X1.7825 Y23.1638 
G01 X1.7506 Y22.9621 
G01 X1.7506 Y22.7579 
G01 X1.7825 Y22.5562 
G01 X1.8457 Y22.3620 
G01 X1.9384 Y22.1800 
G01 X2.0584 Y22.0148 
G01 X2.2028 Y21.8704 
G01 X2.3680 Y21.7504 
G01 X2.5500 Y21.6577 
G01 X2.7442 Y21.5945 
G01 X2.9459 Y21.5626 
G01 X4.6741 Y21.5626 
G01 X4.8758 Y21.5945 
G01 X5.0700 Y21.6577 
G01 X5.2520 Y21.7504 
G01 X5.4172 Y21.8704 
G00 Z2.5400 
G00 X5.4172 Y30.7604 
G01 Z-0.1200 F100.00 
G01 X5.5616 Y30.9048 F230.00 
G01 X5.6816 Y31.0700 
G01 X5.7743 Y31.2520 
G01 X5.8374 Y31.4462 
G01 X5.8694 Y31.6479 
G01 X5.8694 Y31.8521 
G01 X5.8374 Y32.0538 
G01 X5.7743 Y32.2480 
G01 X5.6816 Y32.4300 
G01 X5.5616 Y32.5952 
G01 X5.4172 Y32.7396 
G01 X5.2520 Y32.8596 
G01 X5.0700 Y32.9523 
G01 X4.8758 Y33.0155 
G01 X4.8471 Y33.0200 
G01 X4.8758 Y33.0245 
G01 X5.0700 Y33.0877 
G01 X5.2520 Y33.1804 
G01 X5.4172 Y33.3004 
G01 X5.5616 Y33.4448 
G01 X5.6816 Y33.6100 
G01 X5.7743 Y33.7920 
G01 X5.8374 Y33.9862 
G01 X5.8694 Y34.1879 
G01 X5.8694 Y34.3921 
G01 X5.8374 Y34.5938 
G01 X5.7743 Y34.7880 
G01 X5.6816 Y34.9700 
G01 X5.5616 Y35.1352 
G01 X5.4172 Y35.2796 
G01 X5.2520 Y35.3996 
G01 X5.0700 Y35.4923 
G01 X4.8758 Y35.5555 
G01 X4.6741 Y35.5874 
G01 X2.9459 Y35.5874 
G01 X2.7442 Y35.5555 
G01 X2.5500 Y35.4923 
G01 X2.3680 Y35.3996 
G01 X2.2028 Y35.2796 
G01 X2.0584 Y35.1352 
G01 X1.9384 Y34.9700 
G01 X1.8457 Y34.7880 
G01 X1.7825 Y34.5938 
G01 X1.7506 Y34.3921 
G01 X1.7506 Y34.1879 
G01 X1.7825 Y33.9862 
G01 X1.8457 Y33.7920 
G01 X1.9384 Y33.6100 
G01 X2.0584 Y33.4448 
G01 X2.2028 Y33.3004 
G01 X2.3680 Y33.1804 
G01 X2.5500 Y33.0877 
G01 X2.7442 Y33.0245 
G01 X2.7729 Y33.0200 
G01 X2.7442 Y33.0155 
G01 X2.5500 Y32.9523 
G01 X2.3680 Y32.8596 
G01 X2.2028 Y32.7396 
G01 X2.0584 Y32.5952 
G01 X1.9384 Y32.4300 
G01 X1.8457 Y32.2480 
G01 X1.7825 Y32.0538 
G01 X1.7506 Y31.8521 
G01 X1.7506 Y31.6479 
G01 X1.7825 Y31.4462 
G01 X1.8457 Y31.2520 
G01 X1.9384 Y31.0700 
G01 X2.0584 Y30.9048 
G01 X2.2028 Y30.7604 
G01 X2.3680 Y30.6404 
G01 X2.5500 Y30.5477 
G01 X2.7442 Y30.4845 
G01 X2.9459 Y30.4526 
G01 X4.6741 Y30.4526 
G01 X4.8758 Y30.4845 
G01 X5.0700 Y30.5477 
G01 X5.2520 Y30.6404 
G01 X5.4172 Y30.7604 
G00 Z2.5400 
G00 X8.4415 Y29.6532 
G01 Z-0.1200 F100.00 
G01 X8.3068 Y29.5185 F230.00 
G01 X8.1948 Y29.3644 
G01 X8.1083 Y29.1946 
G01 X8.0494 Y29.0134 
G01 X8.0196 Y28.8253 
G01 X8.0196 Y28.6347 
G01 X8.0494 Y28.4466 
G01 X8.1083 Y28.2654 
G01 X8.1948 Y28.0956 
G01 X8.3068 Y27.9415 
G01 X8.4415 Y27.8068 
G01 X8.5956 Y27.6948 
G01 X8.7654 Y27.6083 
G01 X8.9466 Y27.5494 
G01 X9.1347 Y27.5196 
G01 X9.3253 Y27.5196 
G01 X9.5134 Y27.5494 
G01 X9.6946 Y27.6083 
G01 X9.8644 Y27.6948 
G01 X10.0185 Y27.8068 
G01 X10.1524 Y27.9406 
G01 X13.4430 Y27.9406 
G01 X24.2646 Y17.1190 
G01 X24.2646 Y16.9395 
G01 X24.3011 Y16.8033 
G01 X24.3716 Y16.6813 
G01 X24.4713 Y16.5816 
G01 X24.5933 Y16.5111 
G01 X24.5974 Y16.5100 
G01 X24.5933 Y16.5089 
G01 X24.4713 Y16.4384 
G01 X24.3716 Y16.3387 
G01 X24.3011 Y16.2167 
G01 X24.2646 Y16.0805 
G01 X24.2646 Y15.1395 
G01 X24.3011 Y15.0033 
G01 X24.3716 Y14.8813 
G01 X24.4713 Y14.7816 
G01 X24.5933 Y14.7111 
G01 X24.7106 Y14.6797 
G01 X24.7106 Y12.4934 
G01 X24.1606 Y11.9434 
G01 X24.1606 Y10.9166 
G01 X24.8866 Y10.1906 
G01 X25.5742 Y10.1906 
G01 X25.5130 Y10.1294 
G01 X24.8866 Y10.1294 
G01 X24.1606 Y9.4034 
G01 X24.1606 Y8.3766 
G01 X24.8866 Y7.6506 
G01 X25.9134 Y7.6506 
G01 X26.6394 Y8.3766 
G01 X26.6394 Y9.0230 
G01 X27.5032 Y9.8868 
G01 X27.6132 Y9.9968 
G01 X27.6996 Y10.1261 
G01 X27.7591 Y10.2697 
G01 X27.7894 Y10.4222 
G01 X27.7894 Y23.0778 
G01 X27.7624 Y23.2136 
G01 X29.6869 Y23.2136 
G01 X29.8231 Y23.2501 
G01 X29.9451 Y23.3206 
G01 X30.0448 Y23.4203 
G01 X30.1153 Y23.5423 
G01 X30.1518 Y23.6785 
G01 X30.1518 Y23.7106 
G01 X30.5778 Y23.7106 
G01 X30.7303 Y23.7409 
G01 X30.8739 Y23.8004 
G01 X31.0032 Y23.8868 
G01 X31.1132 Y23.9968 
G01 X31.1996 Y24.1261 
G01 X31.2591 Y24.2697 
G01 X31.2894 Y24.4222 
G01 X31.2894 Y37.5778 
G01 X31.2591 Y37.7303 
G01 X31.1996 Y37.8739 
G01 X31.1132 Y38.0032 
G01 X25.5032 Y43.6132 
G01 X25.3739 Y43.6996 
G01 X25.2303 Y43.7591 
G01 X25.0778 Y43.7894 
G01 X7.9222 Y43.7894 
G01 X7.7697 Y43.7591 
G01 X7.6261 Y43.6996 
G01 X7.4968 Y43.6132 
G01 X7.3868 Y43.5032 
G01 X7.3004 Y43.3739 
G01 X7.2409 Y43.2303 
G01 X7.2106 Y43.0778 
G01 X7.2106 Y42.6331 
G01 X7.1220 Y42.6043 
G01 X6.9400 Y42.5116 
G01 X6.7748 Y42.3916 
G01 X6.6304 Y42.2472 
G01 X6.5104 Y42.0820 
G01 X6.4177 Y41.9000 
G01 X6.3545 Y41.7058 
G01 X6.3226 Y41.5041 
G01 X6.3226 Y39.7759 
G01 X6.3545 Y39.5742 
G01 X6.4177 Y39.3800 
G01 X6.5104 Y39.1980 
G01 X6.6304 Y39.0328 
G01 X6.7748 Y38.8884 
G01 X6.9400 Y38.7684 
G01 X7.1220 Y38.6757 
G01 X7.3162 Y38.6125 
G01 X7.5179 Y38.5806 
G01 X7.7221 Y38.5806 
G01 X7.9238 Y38.6125 
G01 X8.1180 Y38.6757 
G01 X8.3000 Y38.7684 
G01 X8.4652 Y38.8884 
G01 X8.6096 Y39.0328 
G01 X8.7296 Y39.1980 
G01 X8.8223 Y39.3800 
G01 X8.8855 Y39.5742 
G01 X8.8900 Y39.6029 
G01 X8.8945 Y39.5742 
G01 X8.9577 Y39.3800 
G01 X9.0504 Y39.1980 
G01 X9.1704 Y39.0328 
G01 X9.3148 Y38.8884 
G01 X9.4800 Y38.7684 
G01 X9.6620 Y38.6757 
G01 X9.8562 Y38.6125 
G01 X10.0579 Y38.5806 
G01 X10.2621 Y38.5806 
G01 X10.4638 Y38.6125 
G01 X10.6580 Y38.6757 
G01 X10.8400 Y38.7684 
G01 X11.0052 Y38.8884 
G01 X11.1496 Y39.0328 
G01 X11.2696 Y39.1980 
G01 X11.3623 Y39.3800 
G01 X11.4254 Y39.5742 
G01 X11.4574 Y39.7759 
G01 X11.4574 Y41.2106 
G01 X17.1811 Y41.2106 
G01 X17.1811 Y40.0524 
G01 X17.2059 Y39.9275 
G01 X17.2547 Y39.8099 
G01 X17.3254 Y39.7040 
G01 X17.4155 Y39.6139 
G01 X17.5214 Y39.5432 
G01 X17.6390 Y39.4944 
G01 X17.7106 Y39.4802 
G01 X17.7106 Y35.9222 
G01 X17.7409 Y35.7697 
G01 X17.8004 Y35.6261 
G01 X17.8868 Y35.4968 
G01 X25.7106 Y27.6730 
G01 X25.7106 Y23.4222 
G01 X25.7409 Y23.2697 
G01 X25.8004 Y23.1261 
G01 X25.8868 Y22.9968 
G01 X25.9968 Y22.8868 
G01 X26.2106 Y22.6730 
G01 X26.2106 Y18.3066 
G01 X26.2067 Y18.3089 
G01 X26.0705 Y18.3454 
G01 X25.2710 Y18.3454 
G01 X14.3832 Y29.2332 
G01 X14.2732 Y29.3432 
G01 X14.1439 Y29.4296 
G01 X14.0003 Y29.4891 
G01 X13.8477 Y29.5194 
G01 X10.1524 Y29.5194 
G01 X10.0185 Y29.6532 
G01 X9.8644 Y29.7652 
G01 X9.6946 Y29.8517 
G01 X9.5134 Y29.9106 
G01 X9.3253 Y29.9404 
G01 X9.1347 Y29.9404 
G01 X8.9466 Y29.9106 
G01 X8.7654 Y29.8517 
G01 X8.5956 Y29.7652 
G01 X8.4415 Y29.6532 
G00 Z2.5400 
G00 X8.8900 Y41.6771 
G01 Z-0.1200 F100.00 
G01 X8.8855 Y41.7058 F230.00 
G01 X8.8223 Y41.9000 
G01 X8.7894 Y41.9647 
G01 X8.7894 Y42.2106 
G01 X9.1438 Y42.2106 
G01 X9.0504 Y42.0820 
G01 X8.9577 Y41.9000 
G01 X8.8945 Y41.7058 
G01 X8.8900 Y41.6771 
G00 Z2.5400 
G00 X19.2894 Y39.5499 
G01 Z-0.1200 F100.00 
G01 X19.2994 Y39.5432 F230.00 
G01 X19.4170 Y39.4944 
G01 X19.5419 Y39.4696 
G01 X20.3361 Y39.4696 
G01 X20.4610 Y39.4944 
G01 X20.5786 Y39.5432 
G01 X20.6845 Y39.6139 
G01 X20.7746 Y39.7040 
G01 X20.7790 Y39.7106 
G01 X22.4022 Y39.7106 
G01 X22.5013 Y39.6116 
G01 X22.6233 Y39.5411 
G01 X22.7595 Y39.5046 
G01 X23.7005 Y39.5046 
G01 X23.8367 Y39.5411 
G01 X23.9587 Y39.6116 
G01 X24.0584 Y39.7113 
G01 X24.1289 Y39.8333 
G01 X24.1300 Y39.8374 
G01 X24.1311 Y39.8333 
G01 X24.2016 Y39.7113 
G01 X24.3013 Y39.6116 
G01 X24.4233 Y39.5411 
G01 X24.5595 Y39.5046 
G01 X24.8790 Y39.5046 
G01 X27.2106 Y37.1730 
G01 X27.2106 Y30.0996 
G01 X27.1745 Y30.0899 
G01 X27.0525 Y30.0194 
G01 X26.9528 Y29.9197 
G01 X26.8823 Y29.7977 
G01 X26.8458 Y29.6615 
G01 X26.8458 Y28.7706 
G01 X19.2894 Y36.3270 
G01 X19.2894 Y39.5499 
G00 Z2.5400 
G00 X25.9654 Y40.6510 
G01 Z-0.1200 F100.00 
G01 X25.9654 Y40.9182 F230.00 
G01 X29.7106 Y37.1730 
G01 X29.7106 Y30.1200 
G01 X29.6869 Y30.1264 
G01 X28.7894 Y30.1264 
G01 X28.7894 Y37.5778 
G01 X28.7591 Y37.7303 
G01 X28.6996 Y37.8739 
G01 X28.6132 Y38.0032 
G01 X28.5032 Y38.1132 
G01 X25.9654 Y40.6510 
G00 Z2.5400 
G00 X23.8294 Y28.7987 
G01 Z-0.1200 F100.00 
G01 X23.7297 Y28.8984 F230.00 
G01 X23.6077 Y28.9689 
G01 X23.4715 Y29.0054 
G01 X21.1305 Y29.0054 
G01 X20.9943 Y28.9689 
G01 X20.8723 Y28.8984 
G01 X20.7726 Y28.7987 
G01 X20.7021 Y28.6767 
G01 X20.6656 Y28.5405 
G01 X20.6656 Y24.7995 
G01 X20.7021 Y24.6633 
G01 X20.7726 Y24.5413 
G01 X20.8723 Y24.4416 
G01 X20.9943 Y24.3711 
G01 X21.1305 Y24.3346 
G01 X23.4715 Y24.3346 
G01 X23.6077 Y24.3711 
G01 X23.7297 Y24.4416 
G01 X23.8294 Y24.5413 
G01 X23.8999 Y24.6633 
G01 X23.9364 Y24.7995 
G01 X23.9364 Y28.5405 
G01 X23.8999 Y28.6767 
G01 X23.8294 Y28.7987 
G00 Z2.5400 
G00 X27.7800 Y27.8364 
G01 Z-0.1200 F100.00 
G01 X29.6869 Y27.8364 F230.00 
G01 X29.7106 Y27.8428 
G01 X29.7106 Y27.8086 
G01 X29.6869 Y27.8150 
G01 X27.8014 Y27.8150 
G01 X27.7800 Y27.8364 
G00 Z2.5400 
G00 X27.3107 Y25.5250 
G01 Z-0.1200 F100.00 
G01 X29.6869 Y25.5250 F230.00 
G01 X29.7106 Y25.5314 
G01 X29.7106 Y25.4972 
G01 X29.6869 Y25.5036 
G01 X27.3107 Y25.5036 
G01 X27.2894 Y25.4979 
G01 X27.2894 Y25.5307 
G01 X27.3107 Y25.5250 
G00 Z2.5400 
G00 X26.2106 Y16.5134 
G01 Z-0.1200 F100.00 
G01 X26.2106 Y16.5066 F230.00 
G01 X26.2067 Y16.5089 
G01 X26.2026 Y16.5100 
G01 X26.2067 Y16.5111 
G01 X26.2106 Y16.5134 
G00 Z2.5400 
G00 X22.5187 Y16.5816 
G01 Z-0.1200 F100.00 
G01 X22.6184 Y16.6813 F230.00 
G01 X22.6889 Y16.8033 
G01 X22.7254 Y16.9395 
G01 X22.7254 Y17.8805 
G01 X22.6889 Y18.0167 
G01 X22.6184 Y18.1387 
G01 X22.5187 Y18.2384 
G01 X22.3967 Y18.3089 
G01 X22.2605 Y18.3454 
G01 X21.7710 Y18.3454 
G01 X19.1552 Y20.9612 
G01 X19.1406 Y21.0534 
G01 X19.0817 Y21.2346 
G01 X18.9952 Y21.4044 
G01 X18.8832 Y21.5585 
G01 X18.7485 Y21.6932 
G01 X18.5944 Y21.8052 
G01 X18.4246 Y21.8917 
G01 X18.2434 Y21.9506 
G01 X18.0553 Y21.9804 
G01 X17.8647 Y21.9804 
G01 X17.6766 Y21.9506 
G01 X17.4954 Y21.8917 
G01 X17.3256 Y21.8052 
G01 X17.1715 Y21.6932 
G01 X17.0368 Y21.5585 
G01 X16.9248 Y21.4044 
G01 X16.8383 Y21.2346 
G01 X16.7794 Y21.0534 
G01 X16.7496 Y20.8653 
G01 X16.7496 Y20.6747 
G01 X16.7794 Y20.4866 
G01 X16.8383 Y20.3054 
G01 X16.9248 Y20.1356 
G01 X17.0368 Y19.9815 
G01 X17.1715 Y19.8468 
G01 X17.3256 Y19.7348 
G01 X17.4954 Y19.6483 
G01 X17.6766 Y19.5894 
G01 X17.8647 Y19.5596 
G01 X18.0553 Y19.5596 
G01 X18.2434 Y19.5894 
G01 X18.2818 Y19.6019 
G01 X20.4546 Y17.4290 
G01 X20.4546 Y16.9395 
G01 X20.4911 Y16.8033 
G01 X20.5616 Y16.6813 
G01 X20.6613 Y16.5816 
G01 X20.7833 Y16.5111 
G01 X20.7874 Y16.5100 
G01 X20.7833 Y16.5089 
G01 X20.6613 Y16.4384 
G01 X20.5616 Y16.3387 
G01 X20.4911 Y16.2167 
G01 X20.4546 Y16.0805 
G01 X20.4546 Y15.1395 
G01 X20.4911 Y15.0033 
G01 X20.5616 Y14.8813 
G01 X20.6613 Y14.7816 
G01 X20.7833 Y14.7111 
G01 X20.9195 Y14.6746 
G01 X21.7090 Y14.6746 
G01 X21.7106 Y12.0334 
G01 X21.6206 Y11.9434 
G01 X21.6206 Y10.9166 
G01 X22.3466 Y10.1906 
G01 X23.3734 Y10.1906 
G01 X24.0994 Y10.9166 
G01 X24.0994 Y11.9434 
G01 X23.3734 Y12.6694 
G01 X23.2894 Y12.6694 
G01 X23.2894 Y15.0777 
G01 X23.2591 Y15.2303 
G01 X23.1996 Y15.3739 
G01 X23.1132 Y15.5032 
G01 X23.0032 Y15.6132 
G01 X22.7254 Y15.8910 
G01 X22.7254 Y16.0805 
G01 X22.6889 Y16.2167 
G01 X22.6184 Y16.3387 
G01 X22.5187 Y16.4384 
G01 X22.3967 Y16.5089 
G01 X22.3926 Y16.5100 
G01 X22.3967 Y16.5111 
G01 X22.5187 Y16.5816 
G00 Z2.5400 
G00 X22.3466 Y10.1294 
G01 Z-0.1200 F100.00 
G01 X21.6206 Y9.4034 F230.00 
G01 X21.6206 Y8.3766 
G01 X22.3466 Y7.6506 
G01 X23.3734 Y7.6506 
G01 X24.0994 Y8.3766 
G01 X24.0994 Y9.4034 
G01 X23.3734 Y10.1294 
G01 X22.3466 Y10.1294 
G00 Z2.5400 
G00 X21.5594 Y9.4034 
G01 Z-0.1200 F100.00 
G01 X20.8334 Y10.1294 F230.00 
G01 X19.8066 Y10.1294 
G01 X19.0806 Y9.4034 
G01 X19.0806 Y8.3766 
G01 X19.8066 Y7.6506 
G01 X20.8334 Y7.6506 
G01 X21.5594 Y8.3766 
G01 X21.5594 Y9.4034 
G00 Z2.5400 
G00 X19.0194 Y10.9166 
G01 Z-0.1200 F100.00 
G01 X19.0194 Y11.9434 F230.00 
G01 X18.2934 Y12.6694 
G01 X17.2666 Y12.6694 
G01 X16.5406 Y11.9434 
G01 X16.5406 Y10.9166 
G01 X17.2666 Y10.1906 
G01 X18.2934 Y10.1906 
G01 X19.0194 Y10.9166 
G00 Z2.5400 
G00 Z10.0000 
M05
M02
